(This GCode script was designed to adjust the Z height of a CNC machine according)
(to the minute variations in the surface height in order to achieve a better result in the milling/etching process)
(This script is the output of AutoLevellerAE, 0.9.4u2 Changeset: ...e37a75 @ http://autoleveller.co.uk)
(Author: James Hawthorne PhD. File creation date: 08-01-2019 12:43)
(This program and any of its output is licensed under GPLv2 and as such...)
(AutoLevellerAE comes with ABSOLUTELY NO WARRANTY; for details, see sections 11 and 12 of the GPLv2 @ http://www.gnu.org/licenses/old-licenses/gpl-2.0.html)

G90 G21 S20000 G17

M0 (Attach probe wires and clips that need attaching)
(Initialize probe routine)
G0 Z25 (Move clear of the board first)
G1 X-143.43 Y15.58 F600 (Move to bottom left corner)
G0 Z2 (Quick move to probe clearance height)
G38.2 Z-1 F100 (Probe to a maximum of the specified probe height at the specified feed rate)
G92 Z0 (Touch off Z to 0 once contact is made)
G0 Z2 (Move Z to above the contact point)
G38.2 Z-1 F50 (Repeat at a more accurate slower rate)
G92 Z0
G0 Z2
M0 (Detach any clips used for probing)

( pcb2gcode 1.3.2 )
( Software-independent Gcode )

( This file uses only one drill bit. Forced by 'onedrill' option )

G94       (Millimeters per minute feed rate.)
G21       (Units == Millimeters.)
G91.1     (Incremental arc distance mode.)
G90       (Absolute coordinates.)
G00 S10000     (RPM spindle speed.)

G00 Z10.00000 (Retract)
T1
M5      (Spindle stop.)
G04 P1.00000
(MSG, Change tool bit to drill size 0.8001 mm)
M6      (Tool change.)
M0      (Temporary machine stop.)
M3      (Spindle on clockwise.)
G0 Z5.00000
G04 P1.00000

F1000.00000
G0 X-11.62578 Y11.62608
G1 Z-0.12851
G1 Z5.00000
G0 X-54.96580 Y23.35580
G1 Z-0.26628
G1 Z5.00000
G0 X-54.96580 Y20.81580
G1 Z-0.25369
G1 Z5.00000
G0 X-54.96580 Y18.27580
G1 Z-0.24109
G1 Z5.00000
G0 X-67.66580 Y20.81580
G1 Z-0.25814
G1 Z5.00000
G0 X-67.66580 Y18.27580
G1 Z-0.24810
G1 Z5.00000
G0 X-67.66580 Y15.73580
G1 Z-0.23806
G1 Z5.00000
G0 X-77.51592 Y15.57578
G1 Z-0.24426
G1 Z5.00000
G0 X-77.51592 Y18.11578
G1 Z-0.25237
G1 Z5.00000
G0 X-77.51592 Y20.65578
G1 Z-0.26047
G1 Z5.00000
G0 X-77.51592 Y23.19578
G1 Z-0.26858
G1 Z5.00000
G0 X-77.51592 Y25.73578
G1 Z-0.27668
G1 Z5.00000
G0 X-77.51592 Y28.27578
G1 Z-0.28479
G1 Z5.00000
G0 X-77.51592 Y30.81578
G1 Z-0.29289
G1 Z5.00000
G0 X-94.33580 Y17.00580
G1 Z-0.25598
G1 Z5.00000
G0 X-94.33580 Y19.54580
G1 Z-0.26255
G1 Z5.00000
G0 X-94.33580 Y22.08580
G1 Z-0.26912
G1 Z5.00000
G0 X-94.33580 Y24.62580
G1 Z-0.27569
G1 Z5.00000
G0 X-94.33580 Y27.16580
G1 Z-0.28226
G1 Z5.00000
G0 X-94.33580 Y29.70580
G1 Z-0.28883
G1 Z5.00000
G0 X-94.33580 Y32.24580
G1 Z-0.29540
G1 Z5.00000
G0 X-94.33580 Y34.78580
G1 Z-0.30197
G1 Z5.00000
G0 X-94.33580 Y37.32580
G1 Z-0.30620
G1 Z5.00000
G0 X-94.33580 Y39.86580
G1 Z-0.30576
G1 Z5.00000
G0 X-94.33580 Y42.40580
G1 Z-0.30532
G1 Z5.00000
G0 X-94.33580 Y44.94580
G1 Z-0.30487
G1 Z5.00000
G0 X-94.33580 Y47.48580
G1 Z-0.30443
G1 Z5.00000
G0 X-94.33580 Y50.02580
G1 Z-0.30399
G1 Z5.00000
G0 X-101.95580 Y50.02580
G1 Z-0.30178
G1 Z5.00000
G0 X-101.95580 Y47.48580
G1 Z-0.30254
G1 Z5.00000
G0 X-101.95580 Y44.94580
G1 Z-0.30330
G1 Z5.00000
G0 X-101.95580 Y42.40580
G1 Z-0.30405
G1 Z5.00000
G0 X-101.95580 Y39.86580
G1 Z-0.30481
G1 Z5.00000
G0 X-101.95580 Y37.32580
G1 Z-0.30557
G1 Z5.00000
G0 X-101.95580 Y34.78580
G1 Z-0.30110
G1 Z5.00000
G0 X-101.95580 Y32.24580
G1 Z-0.29403
G1 Z5.00000
G0 X-101.95580 Y29.70580
G1 Z-0.28696
G1 Z5.00000
G0 X-101.95580 Y27.16580
G1 Z-0.27989
G1 Z5.00000
G0 X-101.95580 Y24.62580
G1 Z-0.27281
G1 Z5.00000
G0 X-101.95580 Y22.08580
G1 Z-0.26574
G1 Z5.00000
G0 X-101.95580 Y19.54580
G1 Z-0.25867
G1 Z5.00000
G0 X-101.95580 Y17.00580
G1 Z-0.25160
G1 Z5.00000
G0 X-141.62552 Y11.62608
G1 Z-0.07531
G1 Z5.00000
G0 X-141.32580 Y18.91080
G1 Z-0.13167
G1 Z5.00000
G0 X-143.86580 Y21.45080
G1 Z-0.14369
G1 Z5.00000
G0 X-143.86580 Y23.99080
G1 Z-0.16316
G1 Z5.00000
G0 X-143.86580 Y18.91080
G1 Z-0.12422
G1 Z5.00000
G0 X-141.32580 Y21.45080
G1 Z-0.15099
G1 Z5.00000
G0 X-141.32580 Y23.99080
G1 Z-0.17032
G1 Z5.00000
G0 X-138.91280 Y32.24580
G1 Z-0.23950
G1 Z5.00000
G0 X-138.91280 Y37.32580
G1 Z-0.27004
G1 Z5.00000
G0 X-145.13580 Y44.94580
G1 Z-0.23882
G1 Z5.00000
G0 X-145.13580 Y47.48580
G1 Z-0.23377
G1 Z5.00000
G0 X-145.13580 Y50.02580
G1 Z-0.22871
G1 Z5.00000
G0 X-145.13580 Y52.56580
G1 Z-0.22366
G1 Z5.00000
G0 X-137.51580 Y44.94580
G1 Z-0.26106
G1 Z5.00000
G0 X-137.51580 Y47.48580
G1 Z-0.25686
G1 Z5.00000
G0 X-137.51580 Y50.02580
G1 Z-0.25266
G1 Z5.00000
G0 X-137.51580 Y52.56580
G1 Z-0.24847
G1 Z5.00000
G0 X-114.11478 Y82.00948
G1 Z-0.24757
G1 Z5.00000
G0 X-111.57478 Y82.00948
G1 Z-0.25283
G1 Z5.00000
G0 X-109.03478 Y82.00948
G1 Z-0.25810
G1 Z5.00000
G0 X-106.49478 Y82.00948
G1 Z-0.26336
G1 Z5.00000
G0 X-103.95478 Y82.00948
G1 Z-0.26862
G1 Z5.00000
G0 X-101.41478 Y82.00948
G1 Z-0.27389
G1 Z5.00000
G0 X-101.41478 Y95.00920
G1 Z-0.25950
G1 Z5.00000
G0 X-103.95478 Y95.00920
G1 Z-0.25022
G1 Z5.00000
G0 X-106.49478 Y95.00920
G1 Z-0.24094
G1 Z5.00000
G0 X-109.03478 Y95.00920
G1 Z-0.23165
G1 Z5.00000
G0 X-111.57478 Y95.00920
G1 Z-0.22237
G1 Z5.00000
G0 X-114.11478 Y95.00920
G1 Z-0.21309
G1 Z5.00000
G0 X-126.30424 Y107.14786
G1 Z-0.07050
G1 Z5.00000
G0 X-126.28900 Y109.70564
G1 Z-0.05004
G1 Z5.00000
G0 X-128.82900 Y109.70564
G1 Z-0.02771
G1 Z5.00000
G0 X-131.36900 Y109.70564
G1 Z-0.00537
G1 Z5.00000
G0 X-128.84424 Y107.14786
G1 Z-0.04874
G1 Z5.00000
G0 X-131.38424 Y107.14786
G1 Z-0.02699
G1 Z5.00000
G0 X-133.92424 Y107.14786
G1 Z-0.00523
G1 Z5.00000
G0 X-136.46424 Y107.14786
G1 Z0.01653
G1 Z5.00000
G0 X-141.31818 Y110.97564
G1 Z0.09402
G1 Z5.00000
G0 X-136.46424 Y114.76786
G1 Z0.08475
G1 Z5.00000
G0 X-136.44900 Y112.24564
G1 Z0.06203
G1 Z5.00000
G0 X-136.44900 Y109.70564
G1 Z0.03929
G1 Z5.00000
G0 X-133.90900 Y109.70564
G1 Z0.01696
G1 Z5.00000
G0 X-133.90900 Y112.24564
G1 Z0.03913
G1 Z5.00000
G0 X-133.92424 Y114.76786
G1 Z0.06128
G1 Z5.00000
G0 X-131.38424 Y114.76786
G1 Z0.03781
G1 Z5.00000
G0 X-131.36900 Y112.24564
G1 Z0.01622
G1 Z5.00000
G0 X-128.84424 Y114.76786
G1 Z0.01434
G1 Z5.00000
G0 X-128.82900 Y112.24564
G1 Z-0.00668
G1 Z5.00000
G0 X-126.28900 Y112.24564
G1 Z-0.02958
G1 Z5.00000
G0 X-126.30424 Y114.76786
G1 Z-0.00913
G1 Z5.00000
G0 X-141.62552 Y141.62582
G1 Z0.41955
G1 Z5.00000
G0 X-141.31818 Y133.97534
G1 Z0.33672
G1 Z5.00000
G0 X-123.76424 Y114.76786
G1 Z-0.03260
G1 Z5.00000
G0 X-123.74900 Y112.24564
G1 Z-0.05249
G1 Z5.00000
G0 X-121.22424 Y114.76786
G1 Z-0.05423
G1 Z5.00000
G0 X-121.20900 Y112.24564
G1 Z-0.07344
G1 Z5.00000
G0 X-118.68424 Y114.76786
G1 Z-0.06962
G1 Z5.00000
G0 X-118.66900 Y112.24564
G1 Z-0.08806
G1 Z5.00000
G0 X-116.14424 Y114.76786
G1 Z-0.08501
G1 Z5.00000
G0 X-116.12900 Y112.24564
G1 Z-0.10267
G1 Z5.00000
G0 X-113.60424 Y114.76786
G1 Z-0.10040
G1 Z5.00000
G0 X-113.58900 Y112.24564
G1 Z-0.11728
G1 Z5.00000
G0 X-111.06424 Y114.76786
G1 Z-0.11579
G1 Z5.00000
G0 X-111.04900 Y112.24564
G1 Z-0.13189
G1 Z5.00000
G0 X-108.52424 Y114.76786
G1 Z-0.13118
G1 Z5.00000
G0 X-108.50900 Y112.24564
G1 Z-0.14650
G1 Z5.00000
G0 X-105.98424 Y114.76786
G1 Z-0.14657
G1 Z5.00000
G0 X-105.96900 Y112.24564
G1 Z-0.16111
G1 Z5.00000
G0 X-103.44424 Y114.76786
G1 Z-0.16196
G1 Z5.00000
G0 X-103.42900 Y112.24564
G1 Z-0.17572
G1 Z5.00000
G0 X-100.90424 Y114.76786
G1 Z-0.17736
G1 Z5.00000
G0 X-100.88900 Y112.24564
G1 Z-0.19033
G1 Z5.00000
G0 X-98.36424 Y114.76786
G1 Z-0.18833
G1 Z5.00000
G0 X-98.34900 Y112.24564
G1 Z-0.20081
G1 Z5.00000
G0 X-95.82424 Y114.76786
G1 Z-0.19757
G1 Z5.00000
G0 X-95.80900 Y112.24564
G1 Z-0.20969
G1 Z5.00000
G0 X-93.28424 Y114.76786
G1 Z-0.20681
G1 Z5.00000
G0 X-93.26900 Y112.24564
G1 Z-0.21857
G1 Z5.00000
G0 X-90.74424 Y114.76786
G1 Z-0.21604
G1 Z5.00000
G0 X-90.72900 Y112.24564
G1 Z-0.22745
G1 Z5.00000
G0 X-88.20424 Y114.76786
G1 Z-0.22528
G1 Z5.00000
G0 X-88.18900 Y112.24564
G1 Z-0.23633
G1 Z5.00000
G0 X-88.18900 Y109.70564
G1 Z-0.24741
G1 Z5.00000
G0 X-90.72900 Y109.70564
G1 Z-0.23889
G1 Z5.00000
G0 X-93.26900 Y109.70564
G1 Z-0.23036
G1 Z5.00000
G0 X-95.80900 Y109.70564
G1 Z-0.22183
G1 Z5.00000
G0 X-98.34900 Y109.70564
G1 Z-0.21331
G1 Z5.00000
G0 X-100.88900 Y109.70564
G1 Z-0.20331
G1 Z5.00000
G0 X-103.42900 Y109.70564
G1 Z-0.18949
G1 Z5.00000
G0 X-105.96900 Y109.70564
G1 Z-0.17566
G1 Z5.00000
G0 X-108.50900 Y109.70564
G1 Z-0.16184
G1 Z5.00000
G0 X-111.04900 Y109.70564
G1 Z-0.14801
G1 Z5.00000
G0 X-113.58900 Y109.70564
G1 Z-0.13418
G1 Z5.00000
G0 X-116.12900 Y109.70564
G1 Z-0.12036
G1 Z5.00000
G0 X-118.66900 Y109.70564
G1 Z-0.10653
G1 Z5.00000
G0 X-121.20900 Y109.70564
G1 Z-0.09271
G1 Z5.00000
G0 X-123.74900 Y109.70564
G1 Z-0.07237
G1 Z5.00000
G0 X-123.76424 Y107.14786
G1 Z-0.09226
G1 Z5.00000
G0 X-121.22424 Y107.14786
G1 Z-0.11202
G1 Z5.00000
G0 X-118.68424 Y107.14786
G1 Z-0.12506
G1 Z5.00000
G0 X-116.14424 Y107.14786
G1 Z-0.13809
G1 Z5.00000
G0 X-113.60424 Y107.14786
G1 Z-0.15113
G1 Z5.00000
G0 X-111.06424 Y107.14786
G1 Z-0.16416
G1 Z5.00000
G0 X-108.52424 Y107.14786
G1 Z-0.17720
G1 Z5.00000
G0 X-105.98424 Y107.14786
G1 Z-0.19023
G1 Z5.00000
G0 X-103.44424 Y107.14786
G1 Z-0.20327
G1 Z5.00000
G0 X-100.90424 Y107.14786
G1 Z-0.21631
G1 Z5.00000
G0 X-98.36424 Y107.14786
G1 Z-0.22585
G1 Z5.00000
G0 X-95.82424 Y107.14786
G1 Z-0.23402
G1 Z5.00000
G0 X-93.28424 Y107.14786
G1 Z-0.24218
G1 Z5.00000
G0 X-90.74424 Y107.14786
G1 Z-0.25035
G1 Z5.00000
G0 X-88.20424 Y107.14786
G1 Z-0.25851
G1 Z5.00000
G0 X-83.31728 Y110.97564
G1 Z-0.25857
G1 Z5.00000
G0 X-75.24516 Y120.43460
G1 Z-0.24580
G1 Z5.00000
G0 X-75.24516 Y122.97460
G1 Z-0.22668
G1 Z5.00000
G0 X-75.24516 Y125.51460
G1 Z-0.20757
G1 Z5.00000
G0 X-75.27564 Y133.03554
G1 Z-0.15090
G1 Z5.00000
G0 X-83.31728 Y133.97534
G1 Z-0.11244
G1 Z5.00000
G0 X-77.82580 Y142.10080
G1 Z-0.08636
G1 Z5.00000
G0 X-72.74580 Y142.10080
G1 Z-0.09575
G1 Z5.00000
G0 X-60.04580 Y142.10080
G1 Z-0.11925
G1 Z5.00000
G0 X-54.96580 Y142.10080
G1 Z-0.12637
G1 Z5.00000
G0 X-54.95564 Y133.03554
G1 Z-0.19103
G1 Z5.00000
G0 X-75.24516 Y117.89460
G1 Z-0.25649
G1 Z5.00000
G0 X-65.36202 Y105.21238
G1 Z-0.32181
G1 Z5.00000
G0 X-51.39202 Y105.21238
G1 Z-0.34519
G1 Z5.00000
G0 X-48.85202 Y105.21238
G1 Z-0.34862
G1 Z5.00000
G0 X-46.31202 Y105.21238
G1 Z-0.35206
G1 Z5.00000
G0 X-43.77202 Y105.21238
G1 Z-0.35549
G1 Z5.00000
G0 X-41.23202 Y105.21238
G1 Z-0.35892
G1 Z5.00000
G0 X-38.69202 Y105.21238
G1 Z-0.36236
G1 Z5.00000
G0 X-36.15202 Y105.21238
G1 Z-0.36579
G1 Z5.00000
G0 X-33.61202 Y105.21238
G1 Z-0.36435
G1 Z5.00000
G0 X-11.62578 Y141.62582
G1 Z-0.10000
G1 Z5.00000
G0 X-12.57320 Y131.30580
G1 Z-0.17873
G1 Z5.00000
G0 X-12.57320 Y126.22580
G1 Z-0.22005
G1 Z5.00000
G0 X-28.53202 Y105.21238
G1 Z-0.35662
G1 Z5.00000
G0 X-25.99202 Y105.21238
G1 Z-0.35276
G1 Z5.00000
G0 X-23.45202 Y105.21238
G1 Z-0.34890
G1 Z5.00000
G0 X-20.91202 Y105.21238
G1 Z-0.34503
G1 Z5.00000
G0 X-18.37202 Y105.21238
G1 Z-0.34117
G1 Z5.00000
G0 X-15.83202 Y105.21238
G1 Z-0.33731
G1 Z5.00000
G0 X-13.29202 Y100.13238
G1 Z-0.35592
G1 Z5.00000
G0 X-13.29202 Y72.19238
G1 Z-0.37626
G1 Z5.00000
G0 X-15.83202 Y56.95238
G1 Z-0.35679
G1 Z5.00000
G0 X-18.37202 Y56.95238
G1 Z-0.36036
G1 Z5.00000
G0 X-20.91202 Y56.95238
G1 Z-0.36393
G1 Z5.00000
G0 X-23.45202 Y56.95238
G1 Z-0.36751
G1 Z5.00000
G0 X-25.99202 Y56.95238
G1 Z-0.37108
G1 Z5.00000
G0 X-28.53202 Y56.95238
G1 Z-0.37465
G1 Z5.00000
G0 X-31.07202 Y56.95238
G1 Z-0.37822
G1 Z5.00000
G0 X-33.61202 Y56.95238
G1 Z-0.38179
G1 Z5.00000
G0 X-37.67094 Y56.95238
G1 Z-0.38094
G1 Z5.00000
G0 X-40.21094 Y56.95238
G1 Z-0.37745
G1 Z5.00000
G0 X-42.75094 Y56.95238
G1 Z-0.37396
G1 Z5.00000
G0 X-45.29094 Y56.95238
G1 Z-0.37048
G1 Z5.00000
G0 X-47.83094 Y56.95238
G1 Z-0.36699
G1 Z5.00000
G0 X-50.37094 Y56.95238
G1 Z-0.36350
G1 Z5.00000
G0 X-52.91094 Y56.95238
G1 Z-0.36001
G1 Z5.00000
G0 X-55.45094 Y56.95238
G1 Z-0.35653
G1 Z5.00000
G0 X-57.99094 Y56.95238
G1 Z-0.35232
G1 Z5.00000
G0 X-60.53094 Y56.95238
G1 Z-0.34709
G1 Z5.00000
G0 X-64.09202 Y56.95238
G1 Z-0.33976
G1 Z5.00000
G0 X-70.84080 Y44.31080
G1 Z-0.32048
G1 Z5.00000
G0 X-77.51592 Y53.67578
G1 Z-0.31196
G1 Z5.00000
G0 X-77.51592 Y51.13578
G1 Z-0.31181
G1 Z5.00000
G0 X-77.51592 Y48.59578
G1 Z-0.31167
G1 Z5.00000
G0 X-77.51592 Y46.05578
G1 Z-0.31152
G1 Z5.00000
G0 X-77.51592 Y43.51578
G1 Z-0.31137
G1 Z5.00000
G0 X-77.51592 Y40.97578
G1 Z-0.31123
G1 Z5.00000
G0 X-77.51592 Y38.43578
G1 Z-0.31108
G1 Z5.00000
G0 X-77.51592 Y35.89578
G1 Z-0.30910
G1 Z5.00000
G0 X-77.51592 Y33.35578
G1 Z-0.30100
G1 Z5.00000
G0 X-68.30080 Y39.86580
G1 Z-0.32141
G1 Z5.00000
G0 X-60.68080 Y44.31080
G1 Z-0.33428
G1 Z5.00000
G0 X-58.14080 Y39.86580
G1 Z-0.33271
G1 Z5.00000

G00 Z10.000 ( All done -- retract )

M5      (Spindle off.)
G04 P1.000000
M9      (Coolant off.)
M2      (Program end.)

