( pcb2gcode 1.3.2 )
( Software-independent Gcode )

G94 ( Millimeters per minute feed rate. )
G21 ( Units == Millimeters. )

G90 ( Absolute coordinates. )
G00 S10000 ( RPM spindle speed. )
G64 P0.01000 ( set maximum deviation from commanded toolpath )
G01 F600.00000 ( Feedrate. )

G01 F600.00000 ( Feedrate. )
M3 ( Spindle on clockwise. )
G04 P1.00000
G04 P0 ( dwell for no time -- G64 should not smooth over this point )
G00 Z5.00000 ( retract )

G00 X-10.68740 Y131.21222 ( rapid move to begin. )
G01 F300.00000
G01 Z-0.10000
G04 P0 ( dwell for no time -- G64 should not smooth over this point )
G01 F600.00000
G01 X-10.68740 Y131.21222
G01 X-10.68959 Y131.42020
G01 X-10.73119 Y131.61339
G01 X-10.81107 Y131.79416
G01 X-10.93815 Y131.97184
G01 X-11.10157 Y132.11677
G01 X-11.27300 Y132.21512
G01 X-11.46078 Y132.27671
G01 X-11.67785 Y132.30115
G01 X-13.46855 Y132.30115
G01 X-13.68559 Y132.27671
G01 X-13.88270 Y132.21037
G01 X-14.04480 Y132.11677
G01 X-14.21480 Y131.96368
G01 X-14.33052 Y131.80348
G01 X-14.41142 Y131.62317
G01 X-14.45897 Y131.39940
G01 X-14.45679 Y131.19142
G01 X-14.41518 Y130.99823
G01 X-14.32483 Y130.79935
G01 X-14.20083 Y130.63239
G01 X-14.05359 Y130.50057
G01 X-13.86362 Y130.39277
G01 X-13.67548 Y130.33221
G01 X-13.46855 Y130.31045
G01 X-11.67785 Y130.31045
G01 X-11.46078 Y130.33491
G01 X-11.27300 Y130.39650
G01 X-11.10157 Y130.49485
G01 X-10.93157 Y130.64794
G01 X-10.81107 Y130.81746
G01 X-10.73495 Y130.98845
G01 X-10.68740 Y131.21222
G04 P0 ( dwell for no time -- G64 should not smooth over this point )
G00 Z5.00000 ( retract )

G00 X-10.68740 Y126.13222 ( rapid move to begin. )
G01 F300.00000
G01 Z-0.10000
G04 P0 ( dwell for no time -- G64 should not smooth over this point )
G01 F600.00000
G01 X-10.68740 Y126.13222
G01 X-10.68959 Y126.34020
G01 X-10.73119 Y126.53339
G01 X-10.81107 Y126.71416
G01 X-10.93815 Y126.89184
G01 X-11.08466 Y127.02447
G01 X-11.26368 Y127.13037
G01 X-11.47089 Y127.19940
G01 X-11.67785 Y127.22115
G01 X-13.46855 Y127.22115
G01 X-13.68559 Y127.19671
G01 X-13.88270 Y127.13037
G01 X-14.04480 Y127.03677
G01 X-14.21480 Y126.88368
G01 X-14.33530 Y126.71416
G01 X-14.41142 Y126.54317
G01 X-14.45897 Y126.31940
G01 X-14.45679 Y126.11142
G01 X-14.41518 Y125.91823
G01 X-14.33530 Y125.73746
G01 X-14.20822 Y125.55978
G01 X-14.05359 Y125.42057
G01 X-13.88270 Y125.32125
G01 X-13.68559 Y125.25491
G01 X-13.46855 Y125.23045
G01 X-11.67785 Y125.23045
G01 X-11.46078 Y125.25491
G01 X-11.27300 Y125.31650
G01 X-11.10157 Y125.41485
G01 X-10.93815 Y125.55978
G01 X-10.82154 Y125.71935
G01 X-10.73495 Y125.90845
G01 X-10.68740 Y126.13222
G04 P0 ( dwell for no time -- G64 should not smooth over this point )
G00 Z5.00000 ( retract )

G00 X-14.98178 Y104.71314 ( rapid move to begin. )
G01 F300.00000
G01 Z-0.10000
G04 P0 ( dwell for no time -- G64 should not smooth over this point )
G01 F600.00000
G01 X-14.98178 Y104.71314
G01 X-15.00307 Y104.52630
G01 X-15.05526 Y104.36742
G01 X-15.14411 Y104.21352
G01 X-15.25562 Y104.08886
G01 X-15.39801 Y103.98271
G01 X-15.56913 Y103.90473
G01 X-15.75338 Y103.86724
G01 X-15.93098 Y103.86943
G01 X-16.09445 Y103.90473
G01 X-16.26557 Y103.98271
G01 X-16.40794 Y104.08886
G01 X-16.51287 Y104.20539
G01 X-16.60829 Y104.36742
G01 X-16.66486 Y104.54674
G01 X-16.68178 Y104.71314
G01 X-16.68124 Y105.72360
G01 X-16.66049 Y105.89998
G01 X-16.60829 Y106.05886
G01 X-16.51945 Y106.21276
G01 X-16.39242 Y106.35139
G01 X-16.25678 Y106.44925
G01 X-16.09445 Y106.52154
G01 X-15.93098 Y106.55685
G01 X-15.75338 Y106.55903
G01 X-15.56913 Y106.52154
G01 X-15.40680 Y106.44925
G01 X-15.27116 Y106.35139
G01 X-15.15072 Y106.22088
G01 X-15.05526 Y106.05886
G01 X-14.99872 Y105.87953
G01 X-14.98178 Y105.71314
G01 X-14.98178 Y104.71314
G04 P0 ( dwell for no time -- G64 should not smooth over this point )
G00 Z5.00000 ( retract )

G00 X-17.52178 Y104.71314 ( rapid move to begin. )
G01 F300.00000
G01 Z-0.10000
G04 P0 ( dwell for no time -- G64 should not smooth over this point )
G01 F600.00000
G01 X-17.52178 Y104.71314
G01 X-17.52178 Y105.71314
G01 X-17.53872 Y105.87953
G01 X-17.59526 Y106.05886
G01 X-17.69072 Y106.22088
G01 X-17.81116 Y106.35139
G01 X-17.94680 Y106.44925
G01 X-18.10913 Y106.52154
G01 X-18.29338 Y106.55903
G01 X-18.47098 Y106.55685
G01 X-18.63445 Y106.52154
G01 X-18.80557 Y106.44357
G01 X-18.94055 Y106.34481
G01 X-19.05945 Y106.21276
G01 X-19.14829 Y106.05886
G01 X-19.20049 Y105.89998
G01 X-19.22124 Y105.72360
G01 X-19.22178 Y104.71314
G01 X-19.20486 Y104.54674
G01 X-19.14829 Y104.36742
G01 X-19.05287 Y104.20539
G01 X-18.94055 Y104.08147
G01 X-18.80557 Y103.98271
G01 X-18.63445 Y103.90473
G01 X-18.45018 Y103.86724
G01 X-18.27260 Y103.86943
G01 X-18.10913 Y103.90473
G01 X-17.93801 Y103.98271
G01 X-17.79562 Y104.08886
G01 X-17.68411 Y104.21352
G01 X-17.59526 Y104.36742
G01 X-17.54307 Y104.52630
G01 X-17.52178 Y104.71314
G04 P0 ( dwell for no time -- G64 should not smooth over this point )
G00 Z5.00000 ( retract )

G00 X-20.06178 Y104.71314 ( rapid move to begin. )
G01 F300.00000
G01 Z-0.10000
G04 P0 ( dwell for no time -- G64 should not smooth over this point )
G01 F600.00000
G01 X-20.06178 Y104.71314
G01 X-20.06178 Y105.71314
G01 X-20.07872 Y105.87953
G01 X-20.13526 Y106.05886
G01 X-20.23072 Y106.22088
G01 X-20.34303 Y106.34481
G01 X-20.49612 Y106.45400
G01 X-20.64913 Y106.52154
G01 X-20.83338 Y106.55903
G01 X-21.01098 Y106.55685
G01 X-21.17445 Y106.52154
G01 X-21.33678 Y106.44925
G01 X-21.47242 Y106.35139
G01 X-21.59945 Y106.21276
G01 X-21.68829 Y106.05886
G01 X-21.74049 Y105.89998
G01 X-21.76124 Y105.72360
G01 X-21.76178 Y104.71314
G01 X-21.74486 Y104.54674
G01 X-21.68829 Y104.36742
G01 X-21.59287 Y104.20539
G01 X-21.48794 Y104.08886
G01 X-21.34557 Y103.98271
G01 X-21.17445 Y103.90473
G01 X-20.99018 Y103.86724
G01 X-20.81260 Y103.86943
G01 X-20.64913 Y103.90473
G01 X-20.49612 Y103.97227
G01 X-20.35116 Y104.07489
G01 X-20.21842 Y104.22231
G01 X-20.13526 Y104.36742
G01 X-20.08307 Y104.52630
G01 X-20.06178 Y104.71314
G04 P0 ( dwell for no time -- G64 should not smooth over this point )
G00 Z5.00000 ( retract )

G00 X-22.60178 Y104.71314 ( rapid move to begin. )
G01 F300.00000
G01 Z-0.10000
G04 P0 ( dwell for no time -- G64 should not smooth over this point )
G01 F600.00000
G01 X-22.60178 Y104.71314
G01 X-22.60178 Y105.71314
G01 X-22.61872 Y105.87953
G01 X-22.67526 Y106.05886
G01 X-22.77072 Y106.22088
G01 X-22.88303 Y106.34481
G01 X-23.03612 Y106.45400
G01 X-23.18913 Y106.52154
G01 X-23.37338 Y106.55903
G01 X-23.55098 Y106.55685
G01 X-23.71445 Y106.52154
G01 X-23.87678 Y106.44925
G01 X-24.01242 Y106.35139
G01 X-24.13945 Y106.21276
G01 X-24.22829 Y106.05886
G01 X-24.28049 Y105.89998
G01 X-24.30124 Y105.72360
G01 X-24.30178 Y104.71314
G01 X-24.28486 Y104.54674
G01 X-24.22829 Y104.36742
G01 X-24.13287 Y104.20539
G01 X-24.02794 Y104.08886
G01 X-23.88557 Y103.98271
G01 X-23.71445 Y103.90473
G01 X-23.53018 Y103.86724
G01 X-23.35260 Y103.86943
G01 X-23.18913 Y103.90473
G01 X-23.03612 Y103.97227
G01 X-22.89116 Y104.07489
G01 X-22.75842 Y104.22231
G01 X-22.67526 Y104.36742
G01 X-22.62307 Y104.52630
G01 X-22.60178 Y104.71314
G04 P0 ( dwell for no time -- G64 should not smooth over this point )
G00 Z5.00000 ( retract )

G00 X-25.14178 Y104.71314 ( rapid move to begin. )
G01 F300.00000
G01 Z-0.10000
G04 P0 ( dwell for no time -- G64 should not smooth over this point )
G01 F600.00000
G01 X-25.14178 Y104.71314
G01 X-25.14178 Y105.71314
G01 X-25.15872 Y105.87953
G01 X-25.21526 Y106.05886
G01 X-25.31072 Y106.22088
G01 X-25.43116 Y106.35139
G01 X-25.56680 Y106.44925
G01 X-25.72913 Y106.52154
G01 X-25.91338 Y106.55903
G01 X-26.09098 Y106.55685
G01 X-26.25445 Y106.52154
G01 X-26.41678 Y106.44925
G01 X-26.55242 Y106.35139
G01 X-26.67945 Y106.21276
G01 X-26.76829 Y106.05886
G01 X-26.82049 Y105.89998
G01 X-26.84124 Y105.72360
G01 X-26.84178 Y104.71314
G01 X-26.82486 Y104.54674
G01 X-26.76829 Y104.36742
G01 X-26.67287 Y104.20539
G01 X-26.56794 Y104.08886
G01 X-26.42557 Y103.98271
G01 X-26.25445 Y103.90473
G01 X-26.07018 Y103.86724
G01 X-25.89260 Y103.86943
G01 X-25.72913 Y103.90473
G01 X-25.56680 Y103.97702
G01 X-25.43116 Y104.07489
G01 X-25.29842 Y104.22231
G01 X-25.21526 Y104.36742
G01 X-25.16307 Y104.52630
G01 X-25.14178 Y104.71314
G04 P0 ( dwell for no time -- G64 should not smooth over this point )
G00 Z5.00000 ( retract )

G00 X-27.68178 Y104.71314 ( rapid move to begin. )
G01 F300.00000
G01 Z-0.10000
G04 P0 ( dwell for no time -- G64 should not smooth over this point )
G01 F600.00000
G01 X-27.68178 Y104.71314
G01 X-27.68178 Y105.71314
G01 X-27.69872 Y105.87953
G01 X-27.75526 Y106.05886
G01 X-27.85072 Y106.22088
G01 X-27.96303 Y106.34481
G01 X-28.11612 Y106.45400
G01 X-28.27924 Y106.52424
G01 X-28.44294 Y106.55847
G01 X-28.62064 Y106.55847
G01 X-28.79445 Y106.52154
G01 X-28.94746 Y106.45400
G01 X-29.09242 Y106.35139
G01 X-29.21945 Y106.21276
G01 X-29.30829 Y106.05886
G01 X-29.36049 Y105.89998
G01 X-29.38124 Y105.72360
G01 X-29.38178 Y104.71314
G01 X-29.36486 Y104.54674
G01 X-29.30829 Y104.36742
G01 X-29.21287 Y104.20539
G01 X-29.10794 Y104.08886
G01 X-28.96557 Y103.98271
G01 X-28.79445 Y103.90473
G01 X-28.62064 Y103.86780
G01 X-28.45338 Y103.86724
G01 X-28.25935 Y103.90849
G01 X-28.10680 Y103.97702
G01 X-27.97116 Y104.07489
G01 X-27.83842 Y104.22231
G01 X-27.75526 Y104.36742
G01 X-27.70307 Y104.52630
G01 X-27.68178 Y104.71314
G04 P0 ( dwell for no time -- G64 should not smooth over this point )
G00 Z5.00000 ( retract )

G00 X-32.76178 Y104.71314 ( rapid move to begin. )
G01 F300.00000
G01 Z-0.10000
G04 P0 ( dwell for no time -- G64 should not smooth over this point )
G01 F600.00000
G01 X-32.76178 Y104.71314
G01 X-32.76178 Y105.71314
G01 X-32.77872 Y105.87953
G01 X-32.83526 Y106.05886
G01 X-32.93072 Y106.22088
G01 X-33.05116 Y106.35139
G01 X-33.19612 Y106.45400
G01 X-33.34913 Y106.52154
G01 X-33.52294 Y106.55847
G01 X-33.70064 Y106.55847
G01 X-33.87445 Y106.52154
G01 X-34.02746 Y106.45400
G01 X-34.17242 Y106.35139
G01 X-34.29945 Y106.21276
G01 X-34.38829 Y106.05886
G01 X-34.44321 Y105.88987
G01 X-34.46124 Y105.72360
G01 X-34.46178 Y104.71314
G01 X-34.44486 Y104.54674
G01 X-34.38829 Y104.36742
G01 X-34.29287 Y104.20539
G01 X-34.18794 Y104.08886
G01 X-34.04557 Y103.98271
G01 X-33.87445 Y103.90473
G01 X-33.69018 Y103.86724
G01 X-33.52294 Y103.86780
G01 X-33.34913 Y103.90473
G01 X-33.17801 Y103.98271
G01 X-33.03562 Y104.08886
G01 X-32.92411 Y104.21352
G01 X-32.83526 Y104.36742
G01 X-32.78307 Y104.52630
G01 X-32.76178 Y104.71314
G04 P0 ( dwell for no time -- G64 should not smooth over this point )
G00 Z5.00000 ( retract )

G00 X-35.30178 Y104.71314 ( rapid move to begin. )
G01 F300.00000
G01 Z-0.10000
G04 P0 ( dwell for no time -- G64 should not smooth over this point )
G01 F600.00000
G01 X-35.30178 Y104.71314
G01 X-35.30178 Y105.71314
G01 X-35.31872 Y105.87953
G01 X-35.37526 Y106.05886
G01 X-35.46411 Y106.21276
G01 X-35.59116 Y106.35139
G01 X-35.71801 Y106.44357
G01 X-35.80180 Y106.48327
G01 X-35.80226 Y107.22322
G01 X-35.82512 Y107.33810
G01 X-35.86663 Y107.41575
G01 X-42.75381 Y114.31040
G01 X-42.81525 Y114.35897
G01 X-42.92348 Y114.40380
G01 X-71.83719 Y114.41292
G01 X-71.83767 Y124.96702
G01 X-71.86053 Y125.08191
G01 X-71.90201 Y125.15953
G01 X-72.39579 Y125.66075
G01 X-72.39579 Y140.27710
G01 X-72.23932 Y140.34916
G01 X-72.08791 Y140.45919
G01 X-71.94712 Y140.61228
G01 X-71.84123 Y140.79130
G01 X-71.77219 Y140.99851
G01 X-71.75045 Y141.20545
G01 X-71.75098 Y143.00661
G01 X-71.77488 Y143.21321
G01 X-71.84123 Y143.41032
G01 X-71.93483 Y143.57242
G01 X-72.07976 Y143.73585
G01 X-72.25743 Y143.86292
G01 X-72.43821 Y143.94280
G01 X-72.63140 Y143.98441
G01 X-72.86018 Y143.98441
G01 X-73.05337 Y143.94280
G01 X-73.23414 Y143.86292
G01 X-73.40366 Y143.74242
G01 X-73.54445 Y143.58934
G01 X-73.65034 Y143.41032
G01 X-73.72103 Y143.19277
G01 X-73.74115 Y142.99615
G01 X-73.74115 Y141.20545
G01 X-73.71669 Y140.98840
G01 X-73.65509 Y140.80062
G01 X-73.55675 Y140.62920
G01 X-73.40366 Y140.45919
G01 X-73.25225 Y140.34916
G01 X-73.09579 Y140.27710
G01 X-73.09579 Y125.86580
G01 X-73.92619 Y125.86580
G01 X-74.02487 Y126.01221
G01 X-74.14859 Y126.12580
G01 X-74.29487 Y126.20837
G01 X-74.44536 Y126.25498
G01 X-74.59180 Y126.26981
G01 X-75.89979 Y126.26981
G01 X-76.04623 Y126.25498
G01 X-76.19669 Y126.20837
G01 X-76.33421 Y126.13151
G01 X-76.46670 Y126.01221
G01 X-76.55753 Y125.88348
G01 X-76.61960 Y125.73870
G01 X-76.64965 Y125.59463
G01 X-76.65021 Y125.44744
G01 X-76.61313 Y125.27304
G01 X-76.54706 Y125.13004
G01 X-76.46012 Y125.01130
G01 X-76.35110 Y124.91239
G01 X-76.21580 Y124.83174
G01 X-76.04623 Y124.77665
G01 X-75.89979 Y124.76182
G01 X-74.59180 Y124.76182
G01 X-74.43503 Y124.77828
G01 X-74.27577 Y124.83174
G01 X-74.14046 Y124.91239
G01 X-74.02487 Y125.01942
G01 X-73.92619 Y125.16580
G01 X-72.89078 Y125.16583
G01 X-72.53719 Y124.81221
G01 X-72.53719 Y114.20789
G01 X-100.75575 Y85.98933
G01 X-110.57318 Y85.98930
G01 X-110.69790 Y85.96598
G01 X-110.77552 Y85.92448
G01 X-111.86965 Y84.82494
G01 X-111.90026 Y84.76360
G01 X-111.92312 Y84.64871
G01 X-111.92357 Y83.92560
G01 X-112.10229 Y83.84364
G01 X-112.26121 Y83.72817
G01 X-112.40823 Y83.56817
G01 X-112.52725 Y83.36200
G01 X-112.59230 Y83.15471
G01 X-112.61339 Y82.94884
G01 X-112.61339 Y81.06924
G01 X-112.59230 Y80.86340
G01 X-112.52725 Y80.65609
G01 X-112.40823 Y80.44994
G01 X-112.26121 Y80.28995
G01 X-112.10229 Y80.17445
G01 X-111.92357 Y80.09251
G01 X-111.92357 Y79.72912
G01 X-116.37218 Y79.72912
G01 X-116.49689 Y79.70577
G01 X-116.57452 Y79.66427
G01 X-143.33047 Y52.91581
G01 X-143.91124 Y52.91578
G01 X-143.96207 Y53.02460
G01 X-144.06036 Y53.15990
G01 X-144.20677 Y53.29391
G01 X-144.36039 Y53.38324
G01 X-144.53854 Y53.44344
G01 X-144.73578 Y53.46582
G01 X-145.53580 Y53.46582
G01 X-145.73303 Y53.44344
G01 X-145.91119 Y53.38324
G01 X-146.06480 Y53.29391
G01 X-146.20461 Y53.16803
G01 X-146.31997 Y53.00649
G01 X-146.39173 Y52.84393
G01 X-146.43140 Y52.64944
G01 X-146.42922 Y52.46140
G01 X-146.39173 Y52.28769
G01 X-146.31997 Y52.12513
G01 X-146.21121 Y51.97172
G01 X-146.06480 Y51.83771
G01 X-145.91119 Y51.74837
G01 X-145.73303 Y51.68818
G01 X-145.53580 Y51.66580
G01 X-144.73578 Y51.66580
G01 X-144.53854 Y51.68818
G01 X-144.36039 Y51.74837
G01 X-144.19864 Y51.84428
G01 X-144.06036 Y51.97172
G01 X-143.96207 Y52.10702
G01 X-143.91124 Y52.21581
G01 X-143.53550 Y52.21581
G01 X-143.53550 Y51.63357
G01 X-144.33847 Y50.83060
G01 X-144.53854 Y50.90344
G01 X-144.73578 Y50.92582
G01 X-145.54624 Y50.92526
G01 X-145.72290 Y50.90614
G01 X-145.89208 Y50.85175
G01 X-146.06480 Y50.75391
G01 X-146.21121 Y50.61990
G01 X-146.31997 Y50.46649
G01 X-146.38799 Y50.31371
G01 X-146.43140 Y50.10944
G01 X-146.42922 Y49.92140
G01 X-146.39173 Y49.74769
G01 X-146.31997 Y49.58513
G01 X-146.19722 Y49.41620
G01 X-146.06480 Y49.29771
G01 X-145.91119 Y49.20837
G01 X-145.72290 Y49.14548
G01 X-145.53580 Y49.12580
G01 X-144.73578 Y49.12580
G01 X-144.51068 Y49.15724
G01 X-144.51068 Y48.35437
G01 X-144.73578 Y48.38582
G01 X-145.53580 Y48.38582
G01 X-145.71256 Y48.36779
G01 X-145.91119 Y48.30324
G01 X-146.06480 Y48.21391
G01 X-146.21121 Y48.07990
G01 X-146.31997 Y47.92649
G01 X-146.39173 Y47.76393
G01 X-146.42922 Y47.59022
G01 X-146.43140 Y47.40218
G01 X-146.38799 Y47.19791
G01 X-146.30951 Y47.02702
G01 X-146.20461 Y46.88359
G01 X-146.06480 Y46.75771
G01 X-145.91119 Y46.66837
G01 X-145.72290 Y46.60548
G01 X-145.53580 Y46.58580
G01 X-144.72534 Y46.58636
G01 X-144.53854 Y46.60818
G01 X-144.37949 Y46.65986
G01 X-144.20677 Y46.75771
G01 X-144.06036 Y46.89172
G01 X-143.96207 Y47.02702
G01 X-143.91124 Y47.13581
G01 X-143.53550 Y47.13581
G01 X-143.53550 Y46.98857
G01 X-144.44586 Y46.07086
G01 X-144.50159 Y45.94630
G01 X-144.51068 Y45.81437
G01 X-144.73578 Y45.84582
G01 X-145.53580 Y45.84582
G01 X-145.71256 Y45.82779
G01 X-145.89208 Y45.77175
G01 X-146.06480 Y45.67391
G01 X-146.21121 Y45.53990
G01 X-146.31997 Y45.38649
G01 X-146.38799 Y45.23371
G01 X-146.43140 Y45.02944
G01 X-146.42922 Y44.84140
G01 X-146.39173 Y44.66769
G01 X-146.31997 Y44.50513
G01 X-146.21121 Y44.35172
G01 X-146.06480 Y44.21771
G01 X-145.91119 Y44.12837
G01 X-145.71256 Y44.06383
G01 X-145.53580 Y44.04580
G01 X-144.73578 Y44.04580
G01 X-144.53854 Y44.06818
G01 X-144.36974 Y44.12362
G01 X-144.19864 Y44.22428
G01 X-144.06036 Y44.35172
G01 X-143.96207 Y44.48702
G01 X-143.91124 Y44.59581
G01 X-143.53550 Y44.59581
G01 X-143.53550 Y26.41637
G01 X-144.16184 Y25.77715
G01 X-144.19244 Y25.71581
G01 X-144.21530 Y25.60090
G01 X-144.21579 Y24.86786
G01 X-144.34017 Y24.81388
G01 X-144.49333 Y24.70339
G01 X-144.62777 Y24.55734
G01 X-144.73740 Y24.36743
G01 X-144.79666 Y24.17799
G01 X-144.81579 Y23.99080
G01 X-144.79666 Y23.80362
G01 X-144.72889 Y23.59509
G01 X-144.62777 Y23.42427
G01 X-144.50146 Y23.28483
G01 X-144.34017 Y23.16773
G01 X-144.21579 Y23.11376
G01 X-144.21579 Y22.32786
G01 X-144.34017 Y22.27388
G01 X-144.49333 Y22.16339
G01 X-144.64004 Y22.00043
G01 X-144.73740 Y21.82743
G01 X-144.79232 Y21.65844
G01 X-144.81523 Y21.46126
G01 X-144.79232 Y21.24318
G01 X-144.73740 Y21.07419
G01 X-144.64004 Y20.90119
G01 X-144.49333 Y20.73822
G01 X-144.34017 Y20.62773
G01 X-144.21579 Y20.57376
G01 X-144.21579 Y19.78786
G01 X-144.34017 Y19.73388
G01 X-144.49333 Y19.62339
G01 X-144.62777 Y19.47734
G01 X-144.73740 Y19.28743
G01 X-144.79666 Y19.09799
G01 X-144.81579 Y18.91080
G01 X-144.79232 Y18.70318
G01 X-144.72889 Y18.51509
G01 X-144.62777 Y18.34427
G01 X-144.50146 Y18.20483
G01 X-144.34957 Y18.09378
G01 X-144.15935 Y18.00729
G01 X-143.95462 Y17.96546
G01 X-143.75615 Y17.96764
G01 X-143.57223 Y18.00729
G01 X-143.38201 Y18.09378
G01 X-143.23011 Y18.20483
G01 X-143.10380 Y18.34427
G01 X-142.99417 Y18.53419
G01 X-142.93492 Y18.72362
G01 X-142.91579 Y18.91080
G01 X-142.93926 Y19.11844
G01 X-142.99417 Y19.28743
G01 X-143.09153 Y19.46043
G01 X-143.23824 Y19.62339
G01 X-143.39140 Y19.73388
G01 X-143.51579 Y19.78786
G01 X-143.51579 Y20.57376
G01 X-143.39140 Y20.62773
G01 X-143.23824 Y20.73822
G01 X-143.09153 Y20.90119
G01 X-142.99417 Y21.07419
G01 X-142.93926 Y21.24318
G01 X-142.91579 Y21.45080
G01 X-142.93926 Y21.65844
G01 X-142.99417 Y21.82743
G01 X-143.09153 Y22.00043
G01 X-143.23824 Y22.16339
G01 X-143.39140 Y22.27388
G01 X-143.51579 Y22.32786
G01 X-143.51579 Y23.11376
G01 X-143.39140 Y23.16773
G01 X-143.23824 Y23.27822
G01 X-143.09153 Y23.44119
G01 X-142.99417 Y23.61419
G01 X-142.93926 Y23.78318
G01 X-142.91579 Y23.99080
G01 X-142.93926 Y24.19844
G01 X-142.99417 Y24.36743
G01 X-143.09153 Y24.54043
G01 X-143.23824 Y24.70339
G01 X-143.39140 Y24.81388
G01 X-143.51579 Y24.86786
G01 X-143.51579 Y25.44614
G01 X-142.93141 Y26.03120
G01 X-142.85882 Y26.14670
G01 X-142.83550 Y26.27141
G01 X-142.83550 Y44.94580
G01 X-142.85882 Y45.07051
G01 X-142.90032 Y45.14813
G01 X-142.98315 Y45.23099
G01 X-143.06080 Y45.27247
G01 X-143.18549 Y45.29581
G01 X-143.81068 Y45.29581
G01 X-143.81068 Y45.72349
G01 X-142.88942 Y46.65758
G01 X-142.85882 Y46.71889
G01 X-142.83596 Y46.83380
G01 X-142.83550 Y47.48582
G01 X-142.85882 Y47.61051
G01 X-142.90032 Y47.68813
G01 X-142.98315 Y47.77099
G01 X-143.06080 Y47.81247
G01 X-143.18549 Y47.83581
G01 X-143.81068 Y47.83581
G01 X-143.81068 Y50.02582
G01 X-143.87886 Y50.30027
G01 X-142.93799 Y51.24111
G01 X-142.86634 Y51.34581
G01 X-142.83550 Y51.48861
G01 X-142.83547 Y52.42084
G01 X-116.22720 Y79.02912
G01 X-111.71857 Y79.02912
G01 X-86.07262 Y53.39064
G01 X-85.99500 Y53.34916
G01 X-85.87028 Y53.32582
G01 X-78.83537 Y53.32582
G01 X-78.73012 Y53.17128
G01 X-78.60421 Y53.06011
G01 X-78.46669 Y52.98325
G01 X-78.33667 Y52.94101
G01 X-78.16979 Y52.92180
G01 X-76.86179 Y52.92180
G01 X-76.71536 Y52.93664
G01 X-76.56487 Y52.98325
G01 X-76.41046 Y53.07240
G01 X-76.30144 Y53.17128
G01 X-76.19619 Y53.32582
G01 X-75.60244 Y53.32579
G01 X-66.25168 Y43.97503
G01 X-66.25168 Y17.64489
G01 X-67.18025 Y16.71634
G01 X-67.32547 Y16.78184
G01 X-67.55081 Y16.82977
G01 X-67.78076 Y16.82977
G01 X-68.01548 Y16.77821
G01 X-68.22457 Y16.68273
G01 X-68.40923 Y16.54588
G01 X-68.56140 Y16.37359
G01 X-68.66592 Y16.19254
G01 X-68.70291 Y16.08581
G01 X-75.29748 Y16.08581
G01 X-75.44031 Y16.05497
G01 X-75.49982 Y16.02099
G01 X-75.60246 Y15.92581
G01 X-76.19619 Y15.92581
G01 X-76.29487 Y16.07219
G01 X-76.41859 Y16.18581
G01 X-76.56487 Y16.26838
G01 X-76.70502 Y16.31334
G01 X-76.86179 Y16.32980
G01 X-78.16979 Y16.32980
G01 X-78.33667 Y16.31062
G01 X-78.46669 Y16.26838
G01 X-78.60421 Y16.19150
G01 X-78.73669 Y16.07219
G01 X-78.83540 Y15.92581
G01 X-80.65051 Y15.92579
G01 X-92.18315 Y27.45099
G01 X-92.26080 Y27.49247
G01 X-92.37568 Y27.51533
G01 X-93.11124 Y27.51581
G01 X-93.15638 Y27.61581
G01 X-93.26036 Y27.75990
G01 X-93.39864 Y27.88733
G01 X-93.56039 Y27.98324
G01 X-93.73854 Y28.04344
G01 X-93.93578 Y28.06582
G01 X-94.74624 Y28.06526
G01 X-94.93303 Y28.04344
G01 X-95.09208 Y27.99175
G01 X-95.25602 Y27.89963
G01 X-95.39722 Y27.77542
G01 X-95.51997 Y27.60649
G01 X-95.59173 Y27.44393
G01 X-95.63140 Y27.24944
G01 X-95.62922 Y27.06140
G01 X-95.59173 Y26.88769
G01 X-95.51997 Y26.72513
G01 X-95.41121 Y26.57172
G01 X-95.27293 Y26.44428
G01 X-95.11119 Y26.34837
G01 X-94.91256 Y26.28383
G01 X-94.73580 Y26.26580
G01 X-93.93578 Y26.26580
G01 X-93.73854 Y26.28818
G01 X-93.56039 Y26.34837
G01 X-93.39864 Y26.44428
G01 X-93.26036 Y26.57172
G01 X-93.16207 Y26.70702
G01 X-93.11124 Y26.81581
G01 X-92.53044 Y26.81578
G01 X-81.04296 Y15.32833
G01 X-80.93829 Y15.25665
G01 X-80.79549 Y15.22582
G01 X-78.83540 Y15.22582
G01 X-78.73669 Y15.07941
G01 X-78.61297 Y14.96582
G01 X-78.46669 Y14.88325
G01 X-78.31622 Y14.83664
G01 X-78.16979 Y14.82180
G01 X-76.86179 Y14.82180
G01 X-76.69492 Y14.84101
G01 X-76.56487 Y14.88325
G01 X-76.42738 Y14.96011
G01 X-76.29487 Y15.07941
G01 X-76.19619 Y15.22582
G01 X-75.39891 Y15.23110
G01 X-75.27145 Y15.27974
G01 X-75.15253 Y15.38581
G01 X-68.70291 Y15.38581
G01 X-68.66592 Y15.27908
G01 X-68.56140 Y15.09803
G01 X-68.40923 Y14.92574
G01 X-68.20646 Y14.77842
G01 X-67.99559 Y14.68693
G01 X-67.77032 Y14.64129
G01 X-67.55081 Y14.64184
G01 X-67.33598 Y14.68693
G01 X-67.12511 Y14.77842
G01 X-66.93789 Y14.91177
G01 X-66.77017 Y15.09803
G01 X-66.65714 Y15.29818
G01 X-66.58818 Y15.51743
G01 X-66.56578 Y15.73580
G01 X-66.58818 Y15.95419
G01 X-66.68338 Y16.22325
G01 X-65.64762 Y17.25969
G01 X-65.57502 Y17.37521
G01 X-65.55168 Y17.49990
G01 X-65.55168 Y44.12002
G01 X-65.56080 Y44.19782
G01 X-65.60563 Y44.30605
G01 X-75.21001 Y53.92330
G01 X-75.31468 Y53.99498
G01 X-75.45748 Y54.02581
G01 X-76.19619 Y54.02581
G01 X-76.30144 Y54.18032
G01 X-76.42738 Y54.29150
G01 X-76.56487 Y54.36838
G01 X-76.69492 Y54.41062
G01 X-76.86179 Y54.42980
G01 X-78.16979 Y54.42980
G01 X-78.32656 Y54.41334
G01 X-78.48579 Y54.35987
G01 X-78.62110 Y54.27923
G01 X-78.73012 Y54.18032
G01 X-78.83537 Y54.02581
G01 X-85.72530 Y54.02581
G01 X-111.22357 Y79.52409
G01 X-111.22357 Y80.09251
G01 X-111.05370 Y80.16876
G01 X-110.88596 Y80.28995
G01 X-110.73239 Y80.45807
G01 X-110.61994 Y80.65609
G01 X-110.55652 Y80.85307
G01 X-110.53379 Y81.06924
G01 X-110.53379 Y82.94884
G01 X-110.55652 Y83.16505
G01 X-110.62845 Y83.38110
G01 X-110.73897 Y83.56817
G01 X-110.88596 Y83.72817
G01 X-111.05370 Y83.84935
G01 X-111.22360 Y83.92560
G01 X-111.22357 Y84.49395
G01 X-110.42822 Y85.28930
G01 X-100.61079 Y85.28930
G01 X-100.48608 Y85.31264
G01 X-100.40846 Y85.35415
G01 X-72.04219 Y113.71292
G01 X-43.14627 Y113.71292
G01 X-36.50178 Y107.06843
G01 X-36.50178 Y106.48324
G01 X-36.58557 Y106.44357
G01 X-36.71242 Y106.35139
G01 X-36.83945 Y106.21276
G01 X-36.92829 Y106.05886
G01 X-36.98486 Y105.87953
G01 X-37.00178 Y105.71314
G01 X-37.00124 Y104.70267
G01 X-36.98321 Y104.53641
G01 X-36.93205 Y104.37717
G01 X-36.83287 Y104.20539
G01 X-36.72794 Y104.08886
G01 X-36.58557 Y103.98271
G01 X-36.41445 Y103.90473
G01 X-36.23018 Y103.86724
G01 X-36.06294 Y103.86780
G01 X-35.88913 Y103.90473
G01 X-35.71801 Y103.98271
G01 X-35.57562 Y104.08886
G01 X-35.46411 Y104.21352
G01 X-35.37526 Y104.36742
G01 X-35.32307 Y104.52630
G01 X-35.30178 Y104.71314
G04 P0 ( dwell for no time -- G64 should not smooth over this point )
G00 Z5.00000 ( retract )

G00 X-37.84178 Y104.71314 ( rapid move to begin. )
G01 F300.00000
G01 Z-0.10000
G04 P0 ( dwell for no time -- G64 should not smooth over this point )
G01 F600.00000
G01 X-37.84178 Y104.71314
G01 X-37.84178 Y105.71314
G01 X-37.85872 Y105.87953
G01 X-37.91526 Y106.05886
G01 X-38.01072 Y106.22088
G01 X-38.13116 Y106.35139
G01 X-38.27612 Y106.45400
G01 X-38.42913 Y106.52154
G01 X-38.60294 Y106.55847
G01 X-38.78064 Y106.55847
G01 X-38.95445 Y106.52154
G01 X-39.10746 Y106.45400
G01 X-39.25242 Y106.35139
G01 X-39.37945 Y106.21276
G01 X-39.46829 Y106.05886
G01 X-39.52321 Y105.88987
G01 X-39.54124 Y105.72360
G01 X-39.54178 Y104.71314
G01 X-39.52486 Y104.54674
G01 X-39.46829 Y104.36742
G01 X-39.37287 Y104.20539
G01 X-39.26055 Y104.08147
G01 X-39.12557 Y103.98271
G01 X-38.95445 Y103.90473
G01 X-38.77018 Y103.86724
G01 X-38.60294 Y103.86780
G01 X-38.42913 Y103.90473
G01 X-38.25801 Y103.98271
G01 X-38.11562 Y104.08886
G01 X-38.00411 Y104.21352
G01 X-37.91526 Y104.36742
G01 X-37.86307 Y104.52630
G01 X-37.84178 Y104.71314
G04 P0 ( dwell for no time -- G64 should not smooth over this point )
G00 Z5.00000 ( retract )

G00 X-42.92178 Y104.71314 ( rapid move to begin. )
G01 F300.00000
G01 Z-0.10000
G04 P0 ( dwell for no time -- G64 should not smooth over this point )
G01 F600.00000
G01 X-42.92178 Y104.71314
G01 X-42.92178 Y105.71314
G01 X-42.93872 Y105.87953
G01 X-42.99526 Y106.05886
G01 X-43.09072 Y106.22088
G01 X-43.20303 Y106.34481
G01 X-43.35612 Y106.45400
G01 X-43.50913 Y106.52154
G01 X-43.68294 Y106.55847
G01 X-43.86064 Y106.55847
G01 X-44.03445 Y106.52154
G01 X-44.18746 Y106.45400
G01 X-44.33242 Y106.35139
G01 X-44.45945 Y106.21276
G01 X-44.54829 Y106.05886
G01 X-44.60321 Y105.88987
G01 X-44.62124 Y105.72360
G01 X-44.62178 Y104.71314
G01 X-44.60486 Y104.54674
G01 X-44.54829 Y104.36742
G01 X-44.45287 Y104.20539
G01 X-44.34794 Y104.08886
G01 X-44.20557 Y103.98271
G01 X-44.03445 Y103.90473
G01 X-43.85018 Y103.86724
G01 X-43.68294 Y103.86780
G01 X-43.50913 Y103.90473
G01 X-43.35612 Y103.97227
G01 X-43.21116 Y104.07489
G01 X-43.07842 Y104.22231
G01 X-42.99526 Y104.36742
G01 X-42.94307 Y104.52630
G01 X-42.92178 Y104.71314
G04 P0 ( dwell for no time -- G64 should not smooth over this point )
G00 Z5.00000 ( retract )

G00 X-45.46178 Y104.71314 ( rapid move to begin. )
G01 F300.00000
G01 Z-0.10000
G04 P0 ( dwell for no time -- G64 should not smooth over this point )
G01 F600.00000
G01 X-45.46178 Y104.71314
G01 X-45.46178 Y105.71314
G01 X-45.47872 Y105.87953
G01 X-45.53526 Y106.05886
G01 X-45.63072 Y106.22088
G01 X-45.75116 Y106.35139
G01 X-45.89612 Y106.45400
G01 X-46.04913 Y106.52154
G01 X-46.22294 Y106.55847
G01 X-46.40064 Y106.55847
G01 X-46.57445 Y106.52154
G01 X-46.72746 Y106.45400
G01 X-46.87242 Y106.35139
G01 X-46.99945 Y106.21276
G01 X-47.08829 Y106.05886
G01 X-47.14321 Y105.88987
G01 X-47.16124 Y105.72360
G01 X-47.16178 Y104.71314
G01 X-47.14486 Y104.54674
G01 X-47.08829 Y104.36742
G01 X-46.99287 Y104.20539
G01 X-46.88794 Y104.08886
G01 X-46.74557 Y103.98271
G01 X-46.57445 Y103.90473
G01 X-46.39018 Y103.86724
G01 X-46.22294 Y103.86780
G01 X-46.04913 Y103.90473
G01 X-45.87801 Y103.98271
G01 X-45.73562 Y104.08886
G01 X-45.62411 Y104.21352
G01 X-45.53526 Y104.36742
G01 X-45.48307 Y104.52630
G01 X-45.46178 Y104.71314
G04 P0 ( dwell for no time -- G64 should not smooth over this point )
G00 Z5.00000 ( retract )

G00 X-48.00178 Y104.71314 ( rapid move to begin. )
G01 F300.00000
G01 Z-0.10000
G04 P0 ( dwell for no time -- G64 should not smooth over this point )
G01 F600.00000
G01 X-48.00178 Y104.71314
G01 X-48.00178 Y105.71314
G01 X-48.01872 Y105.87953
G01 X-48.07526 Y106.05886
G01 X-48.17072 Y106.22088
G01 X-48.28303 Y106.34481
G01 X-48.43612 Y106.45400
G01 X-48.58913 Y106.52154
G01 X-48.76294 Y106.55847
G01 X-48.94064 Y106.55847
G01 X-49.11445 Y106.52154
G01 X-49.26746 Y106.45400
G01 X-49.41242 Y106.35139
G01 X-49.53945 Y106.21276
G01 X-49.62829 Y106.05886
G01 X-49.68321 Y105.88987
G01 X-49.70124 Y105.72360
G01 X-49.70178 Y104.71314
G01 X-49.68486 Y104.54674
G01 X-49.62829 Y104.36742
G01 X-49.53287 Y104.20539
G01 X-49.42794 Y104.08886
G01 X-49.28557 Y103.98271
G01 X-49.11445 Y103.90473
G01 X-48.93018 Y103.86724
G01 X-48.76294 Y103.86780
G01 X-48.58913 Y103.90473
G01 X-48.41801 Y103.98271
G01 X-48.27562 Y104.08886
G01 X-48.16411 Y104.21352
G01 X-48.07526 Y104.36742
G01 X-48.02307 Y104.52630
G01 X-48.00178 Y104.71314
G04 P0 ( dwell for no time -- G64 should not smooth over this point )
G00 Z5.00000 ( retract )

G00 X-50.54178 Y104.71314 ( rapid move to begin. )
G01 F300.00000
G01 Z-0.10000
G04 P0 ( dwell for no time -- G64 should not smooth over this point )
G01 F600.00000
G01 X-50.54178 Y104.71314
G01 X-50.54178 Y105.71314
G01 X-50.55872 Y105.87953
G01 X-50.61526 Y106.05886
G01 X-50.71072 Y106.22088
G01 X-50.83116 Y106.35139
G01 X-50.97612 Y106.45400
G01 X-51.12913 Y106.52154
G01 X-51.30294 Y106.55847
G01 X-51.48064 Y106.55847
G01 X-51.65445 Y106.52154
G01 X-51.80746 Y106.45400
G01 X-51.95242 Y106.35139
G01 X-52.07945 Y106.21276
G01 X-52.16829 Y106.05886
G01 X-52.22321 Y105.88987
G01 X-52.24124 Y105.72360
G01 X-52.24178 Y104.71314
G01 X-52.22486 Y104.54674
G01 X-52.16829 Y104.36742
G01 X-52.07287 Y104.20539
G01 X-51.96055 Y104.08147
G01 X-51.82557 Y103.98271
G01 X-51.65445 Y103.90473
G01 X-51.47018 Y103.86724
G01 X-51.30294 Y103.86780
G01 X-51.12913 Y103.90473
G01 X-50.95801 Y103.98271
G01 X-50.81562 Y104.08886
G01 X-50.70411 Y104.21352
G01 X-50.61526 Y104.36742
G01 X-50.56307 Y104.52630
G01 X-50.54178 Y104.71314
G04 P0 ( dwell for no time -- G64 should not smooth over this point )
G00 Z5.00000 ( retract )

G00 X-53.97045 Y141.20545 ( rapid move to begin. )
G01 F300.00000
G01 Z-0.10000
G04 P0 ( dwell for no time -- G64 should not smooth over this point )
G01 F600.00000
G01 X-53.97045 Y141.20545
G01 X-53.97045 Y142.99615
G01 X-53.99488 Y143.21321
G01 X-54.06123 Y143.41032
G01 X-54.16712 Y143.58934
G01 X-54.29976 Y143.73585
G01 X-54.46811 Y143.85815
G01 X-54.64843 Y143.93905
G01 X-54.86174 Y143.98606
G01 X-55.05937 Y143.98659
G01 X-55.27337 Y143.94280
G01 X-55.45414 Y143.86292
G01 X-55.63181 Y143.73585
G01 X-55.77675 Y143.57242
G01 X-55.87509 Y143.40100
G01 X-55.94103 Y143.19277
G01 X-55.96115 Y142.99615
G01 X-55.96115 Y141.20545
G01 X-55.93669 Y140.98840
G01 X-55.87034 Y140.79130
G01 X-55.77675 Y140.62920
G01 X-55.63920 Y140.47316
G01 X-55.45414 Y140.33870
G01 X-55.27337 Y140.25881
G01 X-55.08018 Y140.21721
G01 X-54.87220 Y140.21502
G01 X-54.66832 Y140.25612
G01 X-54.45932 Y140.34916
G01 X-54.29976 Y140.46577
G01 X-54.16712 Y140.61228
G01 X-54.05275 Y140.81037
G01 X-53.99054 Y141.00885
G01 X-53.97045 Y141.20545
G04 P0 ( dwell for no time -- G64 should not smooth over this point )
G00 Z5.00000 ( retract )

G00 X-59.05045 Y141.20545 ( rapid move to begin. )
G01 F300.00000
G01 Z-0.10000
G04 P0 ( dwell for no time -- G64 should not smooth over this point )
G01 F600.00000
G01 X-59.05045 Y141.20545
G01 X-59.05045 Y142.99615
G01 X-59.07219 Y143.20311
G01 X-59.14123 Y143.41032
G01 X-59.24054 Y143.58121
G01 X-59.37976 Y143.73585
G01 X-59.55743 Y143.86292
G01 X-59.73821 Y143.94280
G01 X-59.93140 Y143.98441
G01 X-60.13937 Y143.98659
G01 X-60.35337 Y143.94280
G01 X-60.53414 Y143.86292
G01 X-60.71181 Y143.73585
G01 X-60.85675 Y143.57242
G01 X-60.95509 Y143.40100
G01 X-61.02103 Y143.19277
G01 X-61.04115 Y142.99615
G01 X-61.04115 Y141.20545
G01 X-61.01669 Y140.98840
G01 X-60.95034 Y140.79130
G01 X-60.85675 Y140.62920
G01 X-60.71920 Y140.47316
G01 X-60.53414 Y140.33870
G01 X-60.35337 Y140.25881
G01 X-60.16018 Y140.21721
G01 X-59.95220 Y140.21502
G01 X-59.74832 Y140.25612
G01 X-59.53932 Y140.34916
G01 X-59.37976 Y140.46577
G01 X-59.24054 Y140.62041
G01 X-59.14123 Y140.79130
G01 X-59.07488 Y140.98840
G01 X-59.05045 Y141.20545
G04 P0 ( dwell for no time -- G64 should not smooth over this point )
G00 Z5.00000 ( retract )

G00 X-73.84138 Y120.36744 ( rapid move to begin. )
G01 F300.00000
G01 Z-0.10000
G04 P0 ( dwell for no time -- G64 should not smooth over this point )
G01 F600.00000
G01 X-73.84138 Y120.36744
G01 X-73.87844 Y120.19304
G01 X-73.93881 Y120.05880
G01 X-74.03886 Y119.92388
G01 X-74.14859 Y119.82581
G01 X-74.29487 Y119.74323
G01 X-74.44536 Y119.69665
G01 X-74.59180 Y119.68182
G01 X-75.89979 Y119.68182
G01 X-76.05656 Y119.69828
G01 X-76.19669 Y119.74323
G01 X-76.34297 Y119.82581
G01 X-76.46670 Y119.93942
G01 X-76.56540 Y120.08580
G01 X-130.79133 Y120.08580
G01 X-133.57387 Y117.30323
G01 X-133.57387 Y116.73707
G01 X-133.38248 Y116.64946
G01 X-133.21924 Y116.53087
G01 X-133.05640 Y116.35002
G01 X-132.95076 Y116.16592
G01 X-132.88464 Y115.96425
G01 X-132.85922 Y115.74314
G01 X-132.85866 Y113.80228
G01 X-132.88030 Y113.59115
G01 X-132.95076 Y113.36903
G01 X-133.05640 Y113.18495
G01 X-133.24903 Y112.98247
G01 X-133.10832 Y112.82692
G01 X-133.00969 Y112.65717
G01 X-132.93941 Y112.44089
G01 X-132.91944 Y112.24559
G01 X-132.93941 Y112.05031
G01 X-133.00969 Y111.83400
G01 X-133.10832 Y111.66428
G01 X-133.23928 Y111.51803
G01 X-133.42328 Y111.38435
G01 X-133.60283 Y111.30500
G01 X-133.79473 Y111.26365
G01 X-134.02216 Y111.26365
G01 X-134.21405 Y111.30500
G01 X-134.39361 Y111.38435
G01 X-134.57021 Y111.51061
G01 X-134.70196 Y111.65613
G01 X-134.80717 Y111.83400
G01 X-134.87745 Y112.05031
G01 X-134.89744 Y112.24559
G01 X-134.87311 Y112.46133
G01 X-134.80717 Y112.65717
G01 X-134.71426 Y112.81813
G01 X-134.58088 Y112.96951
G01 X-134.64403 Y113.01808
G01 X-134.77905 Y113.16804
G01 X-134.89698 Y113.36903
G01 X-134.96307 Y113.57070
G01 X-134.98853 Y113.79184
G01 X-134.98906 Y115.73268
G01 X-134.96307 Y115.96425
G01 X-134.89698 Y116.16592
G01 X-134.78563 Y116.35879
G01 X-134.64403 Y116.51688
G01 X-134.45647 Y116.65518
G01 X-134.27387 Y116.73707
G01 X-134.26861 Y117.50679
G01 X-134.24306 Y117.59102
G01 X-134.17796 Y117.68842
G01 X-131.18378 Y120.68329
G01 X-131.07911 Y120.75497
G01 X-130.99486 Y120.78052
G01 X-76.56540 Y120.78580
G01 X-76.46670 Y120.93221
G01 X-76.34297 Y121.04580
G01 X-76.19669 Y121.12837
G01 X-76.05656 Y121.17333
G01 X-75.89979 Y121.18981
G01 X-74.59180 Y121.18981
G01 X-74.43503 Y121.17333
G01 X-74.29487 Y121.12837
G01 X-74.14859 Y121.04580
G01 X-74.03886 Y120.94773
G01 X-73.93881 Y120.81280
G01 X-73.87844 Y120.67859
G01 X-73.84191 Y120.51463
G01 X-73.84138 Y120.36744
G04 P0 ( dwell for no time -- G64 should not smooth over this point )
G00 Z5.00000 ( retract )

G00 X-72.83749 Y117.30191 ( rapid move to begin. )
G01 F300.00000
G01 Z-0.10000
G04 P0 ( dwell for no time -- G64 should not smooth over this point )
G01 F600.00000
G01 X-72.83749 Y117.30191
G01 X-72.83749 Y122.97582
G01 X-72.86081 Y123.10050
G01 X-72.90231 Y123.17815
G01 X-73.00145 Y123.27188
G01 X-73.12891 Y123.32052
G01 X-73.92619 Y123.32580
G01 X-74.02487 Y123.47221
G01 X-74.15738 Y123.59151
G01 X-74.29487 Y123.66837
G01 X-74.43503 Y123.71333
G01 X-74.58133 Y123.72926
G01 X-75.89979 Y123.72981
G01 X-76.05656 Y123.71333
G01 X-76.19669 Y123.66837
G01 X-76.34297 Y123.58580
G01 X-76.46670 Y123.47221
G01 X-76.56540 Y123.32580
G01 X-77.15913 Y123.32583
G01 X-77.47579 Y123.64249
G01 X-77.47579 Y140.27710
G01 X-77.31932 Y140.34916
G01 X-77.16791 Y140.45919
G01 X-77.02712 Y140.61228
G01 X-76.91648 Y140.80062
G01 X-76.85488 Y140.98840
G01 X-76.83045 Y141.20545
G01 X-76.83045 Y142.99615
G01 X-76.85488 Y143.21321
G01 X-76.91648 Y143.40100
G01 X-77.01483 Y143.57242
G01 X-77.15976 Y143.73585
G01 X-77.33743 Y143.86292
G01 X-77.51821 Y143.94280
G01 X-77.73220 Y143.98659
G01 X-77.94018 Y143.98441
G01 X-78.13337 Y143.94280
G01 X-78.31414 Y143.86292
G01 X-78.49181 Y143.73585
G01 X-78.62445 Y143.58934
G01 X-78.73883 Y143.39124
G01 X-78.80103 Y143.19277
G01 X-78.82115 Y142.99615
G01 X-78.82115 Y141.20545
G01 X-78.79669 Y140.98840
G01 X-78.73509 Y140.80062
G01 X-78.62445 Y140.61228
G01 X-78.48366 Y140.45919
G01 X-78.33225 Y140.34916
G01 X-78.17579 Y140.27710
G01 X-78.17050 Y123.43893
G01 X-78.14495 Y123.35471
G01 X-78.07988 Y123.25730
G01 X-77.49011 Y122.67975
G01 X-77.42880 Y122.64915
G01 X-77.31389 Y122.62629
G01 X-76.56540 Y122.62580
G01 X-76.46012 Y122.47130
G01 X-76.35110 Y122.37239
G01 X-76.21580 Y122.29174
G01 X-76.05656 Y122.23828
G01 X-75.89979 Y122.22182
G01 X-74.59180 Y122.22182
G01 X-74.44536 Y122.23665
G01 X-74.29487 Y122.28323
G01 X-74.14046 Y122.37239
G01 X-74.02487 Y122.47942
G01 X-73.92619 Y122.62580
G01 X-73.53749 Y122.62580
G01 X-73.53749 Y117.44690
G01 X-102.67866 Y88.30570
G01 X-110.87458 Y88.29661
G01 X-110.98281 Y88.25178
G01 X-111.04428 Y88.20319
G01 X-114.25854 Y84.98892
G01 X-116.49103 Y84.98892
G01 X-136.11387 Y104.61177
G01 X-136.11387 Y105.17788
G01 X-135.92248 Y105.26549
G01 X-135.75924 Y105.38411
G01 X-135.60869 Y105.54804
G01 X-135.49076 Y105.74903
G01 X-135.42030 Y105.97115
G01 X-135.39866 Y106.18228
G01 X-135.39866 Y108.11268
G01 X-135.42464 Y108.34425
G01 X-135.49076 Y108.54595
G01 X-135.60869 Y108.74691
G01 X-135.75124 Y108.90439
G01 X-135.81380 Y108.95022
G01 X-135.65489 Y109.11613
G01 X-135.54118 Y109.31310
G01 X-135.48375 Y109.48986
G01 X-135.45997 Y109.69515
G01 X-135.48375 Y109.92133
G01 X-135.54969 Y110.11717
G01 X-135.65489 Y110.29504
G01 X-135.77928 Y110.43317
G01 X-135.94517 Y110.55638
G01 X-136.14283 Y110.64620
G01 X-136.35550 Y110.68971
G01 X-136.56216 Y110.68752
G01 X-136.75405 Y110.64620
G01 X-136.94293 Y110.56210
G01 X-137.10208 Y110.44714
G01 X-137.24196 Y110.29504
G01 X-137.35194 Y110.10785
G01 X-137.41311 Y109.92133
G01 X-137.43688 Y109.69515
G01 X-137.41311 Y109.48986
G01 X-137.35568 Y109.31310
G01 X-137.24196 Y109.11613
G01 X-137.09868 Y108.96157
G01 X-137.18403 Y108.89688
G01 X-137.33135 Y108.73002
G01 X-137.43698 Y108.54595
G01 X-137.50742 Y108.32380
G01 X-137.52906 Y108.11268
G01 X-137.52906 Y106.18228
G01 X-137.50742 Y105.97115
G01 X-137.43698 Y105.74903
G01 X-137.31905 Y105.54804
G01 X-137.16848 Y105.38411
G01 X-137.00526 Y105.26549
G01 X-136.81387 Y105.17788
G01 X-136.80861 Y104.40824
G01 X-136.78306 Y104.32399
G01 X-136.71138 Y104.21931
G01 X-116.88348 Y84.39141
G01 X-116.76070 Y84.31224
G01 X-116.63598 Y84.28890
G01 X-114.46360 Y84.28890
G01 X-114.46360 Y83.92560
G01 X-114.63350 Y83.84935
G01 X-114.80121 Y83.72817
G01 X-114.94823 Y83.56817
G01 X-115.05875 Y83.38110
G01 X-115.13068 Y83.16505
G01 X-115.15339 Y82.94884
G01 X-115.15339 Y81.06924
G01 X-115.13230 Y80.86340
G01 X-115.06725 Y80.65609
G01 X-114.96052 Y80.46686
G01 X-114.81676 Y80.30394
G01 X-114.64229 Y80.17445
G01 X-114.42481 Y80.07763
G01 X-114.21183 Y80.03460
G01 X-113.99456 Y80.03679
G01 X-113.79228 Y80.08035
G01 X-113.58491 Y80.17445
G01 X-113.41783 Y80.29653
G01 X-113.27897 Y80.44994
G01 X-113.15994 Y80.65609
G01 X-113.09489 Y80.86340
G01 X-113.07379 Y81.06924
G01 X-113.07379 Y82.94884
G01 X-113.09489 Y83.15471
G01 X-113.15994 Y83.36200
G01 X-113.27897 Y83.56817
G01 X-113.42596 Y83.72817
G01 X-113.58491 Y83.84364
G01 X-113.76357 Y83.92558
G01 X-113.76357 Y84.49393
G01 X-110.65179 Y87.60573
G01 X-102.53368 Y87.60571
G01 X-102.40899 Y87.62905
G01 X-102.33136 Y87.67055
G01 X-72.94001 Y117.05442
G01 X-72.86081 Y117.17720
G01 X-72.83749 Y117.30191
G04 P0 ( dwell for no time -- G64 should not smooth over this point )
G00 Z5.00000 ( retract )

G00 X-73.84138 Y117.82744 ( rapid move to begin. )
G01 F300.00000
G01 Z-0.10000
G04 P0 ( dwell for no time -- G64 should not smooth over this point )
G01 F600.00000
G01 X-73.84138 Y117.82744
G01 X-73.84191 Y117.97463
G01 X-73.87844 Y118.13859
G01 X-73.93881 Y118.27280
G01 X-74.02487 Y118.39221
G01 X-74.15738 Y118.51151
G01 X-74.29487 Y118.58837
G01 X-74.42492 Y118.63061
G01 X-74.59180 Y118.64981
G01 X-75.89979 Y118.64981
G01 X-76.04623 Y118.63498
G01 X-76.19669 Y118.58837
G01 X-76.35110 Y118.49922
G01 X-76.46012 Y118.40034
G01 X-76.56540 Y118.24580
G01 X-77.15910 Y118.24580
G01 X-77.68346 Y118.76267
G01 X-77.76108 Y118.80417
G01 X-77.88579 Y118.82751
G01 X-130.36438 Y118.82703
G01 X-130.49740 Y118.79668
G01 X-130.59481 Y118.73158
G01 X-131.66905 Y117.65055
G01 X-131.71055 Y117.57291
G01 X-131.73341 Y117.45802
G01 X-131.73387 Y116.73707
G01 X-131.91647 Y116.65518
G01 X-132.08848 Y116.53087
G01 X-132.23905 Y116.36691
G01 X-132.35698 Y116.16592
G01 X-132.42307 Y115.96425
G01 X-132.44906 Y115.73268
G01 X-132.44906 Y113.80228
G01 X-132.42742 Y113.59115
G01 X-132.35698 Y113.36903
G01 X-132.25135 Y113.18495
G01 X-132.10403 Y113.01808
G01 X-132.04088 Y112.96951
G01 X-132.17426 Y112.81813
G01 X-132.27194 Y112.64785
G01 X-132.33745 Y112.44089
G01 X-132.35688 Y112.23515
G01 X-132.33311 Y112.02986
G01 X-132.27568 Y111.85310
G01 X-132.16196 Y111.65613
G01 X-132.03021 Y111.51061
G01 X-131.87172 Y111.39479
G01 X-131.67405 Y111.30500
G01 X-131.48216 Y111.26365
G01 X-131.27550 Y111.26146
G01 X-131.07294 Y111.30228
G01 X-130.86517 Y111.39479
G01 X-130.70667 Y111.51061
G01 X-130.57489 Y111.65613
G01 X-130.46118 Y111.85310
G01 X-130.40375 Y112.02986
G01 X-130.37997 Y112.23515
G01 X-130.40375 Y112.46133
G01 X-130.46494 Y112.64785
G01 X-130.56263 Y112.81813
G01 X-130.70901 Y112.98247
G01 X-130.51640 Y113.18495
G01 X-130.41076 Y113.36903
G01 X-130.34030 Y113.59115
G01 X-130.31866 Y113.80228
G01 X-130.31866 Y115.73268
G01 X-130.34030 Y115.94380
G01 X-130.41076 Y116.16592
G01 X-130.52869 Y116.36691
G01 X-130.67924 Y116.53087
G01 X-130.85127 Y116.65518
G01 X-131.03387 Y116.73707
G01 X-131.03387 Y117.30323
G01 X-130.20962 Y118.12751
G01 X-78.03075 Y118.12751
G01 X-77.55158 Y117.64832
G01 X-77.44691 Y117.57664
G01 X-77.30408 Y117.54580
G01 X-76.56540 Y117.54580
G01 X-76.46670 Y117.39942
G01 X-76.33421 Y117.28012
G01 X-76.19669 Y117.20323
G01 X-76.06667 Y117.16099
G01 X-75.89979 Y117.14182
G01 X-74.59180 Y117.14182
G01 X-74.43503 Y117.15828
G01 X-74.29487 Y117.20323
G01 X-74.14046 Y117.29239
G01 X-74.03886 Y117.38388
G01 X-73.94450 Y117.51004
G01 X-73.87844 Y117.65304
G01 X-73.84138 Y117.82744
G04 P0 ( dwell for no time -- G64 should not smooth over this point )
G00 Z5.00000 ( retract )

G00 X-87.13866 Y113.80228 ( rapid move to begin. )
G01 F300.00000
G01 Z-0.10000
G04 P0 ( dwell for no time -- G64 should not smooth over this point )
G01 F600.00000
G01 X-87.13866 Y113.80228
G01 X-87.13866 Y115.73268
G01 X-87.16195 Y115.95414
G01 X-87.23551 Y116.17527
G01 X-87.34211 Y116.35879
G01 X-87.49924 Y116.53087
G01 X-87.68059 Y116.65993
G01 X-87.87470 Y116.74575
G01 X-88.08219 Y116.79041
G01 X-88.30475 Y116.79259
G01 X-88.53304 Y116.74575
G01 X-88.72715 Y116.65993
G01 X-88.91663 Y116.52427
G01 X-89.06563 Y116.35879
G01 X-89.17698 Y116.16592
G01 X-89.24742 Y115.94380
G01 X-89.26906 Y115.73268
G01 X-89.26906 Y113.80228
G01 X-89.24307 Y113.57070
G01 X-89.17698 Y113.36903
G01 X-89.06563 Y113.17617
G01 X-88.92403 Y113.01808
G01 X-88.86088 Y112.96951
G01 X-88.98857 Y112.82692
G01 X-89.08717 Y112.65717
G01 X-89.15311 Y112.46133
G01 X-89.17688 Y112.25605
G01 X-89.15583 Y112.03997
G01 X-89.09568 Y111.85310
G01 X-88.98857 Y111.66428
G01 X-88.85760 Y111.51803
G01 X-88.69172 Y111.39479
G01 X-88.49405 Y111.30500
G01 X-88.30216 Y111.26365
G01 X-88.09550 Y111.26146
G01 X-87.89294 Y111.30228
G01 X-87.70328 Y111.38435
G01 X-87.53480 Y111.50403
G01 X-87.38263 Y111.67304
G01 X-87.28118 Y111.85310
G01 X-87.22106 Y112.03997
G01 X-87.19997 Y112.23515
G01 X-87.21941 Y112.44089
G01 X-87.28969 Y112.65717
G01 X-87.38832 Y112.82692
G01 X-87.52934 Y112.98224
G01 X-87.34211 Y113.17617
G01 X-87.23551 Y113.35971
G01 X-87.16195 Y113.58081
G01 X-87.13866 Y113.80228
G04 P0 ( dwell for no time -- G64 should not smooth over this point )
G00 Z5.00000 ( retract )

G00 X-89.67866 Y113.80228 ( rapid move to begin. )
G01 F300.00000
G01 Z-0.10000
G04 P0 ( dwell for no time -- G64 should not smooth over this point )
G01 F600.00000
G01 X-89.67866 Y113.80228
G01 X-89.67866 Y115.73268
G01 X-89.70464 Y115.96425
G01 X-89.77551 Y116.17527
G01 X-89.88211 Y116.35879
G01 X-90.03924 Y116.53087
G01 X-90.22059 Y116.65993
G01 X-90.41470 Y116.74575
G01 X-90.62219 Y116.79041
G01 X-90.84475 Y116.79259
G01 X-91.07304 Y116.74575
G01 X-91.26715 Y116.65993
G01 X-91.45663 Y116.52427
G01 X-91.60563 Y116.35879
G01 X-91.71223 Y116.17527
G01 X-91.78579 Y115.95414
G01 X-91.80906 Y115.73268
G01 X-91.80906 Y113.80228
G01 X-91.78579 Y113.58081
G01 X-91.71223 Y113.35971
G01 X-91.60563 Y113.17617
G01 X-91.46403 Y113.01808
G01 X-91.40088 Y112.96951
G01 X-91.52857 Y112.82692
G01 X-91.62717 Y112.65717
G01 X-91.69311 Y112.46133
G01 X-91.71744 Y112.24559
G01 X-91.69311 Y112.02986
G01 X-91.63194 Y111.84333
G01 X-91.52857 Y111.66428
G01 X-91.39760 Y111.51803
G01 X-91.23172 Y111.39479
G01 X-91.03405 Y111.30500
G01 X-90.84216 Y111.26365
G01 X-90.63550 Y111.26146
G01 X-90.43294 Y111.30228
G01 X-90.24328 Y111.38435
G01 X-90.07480 Y111.50403
G01 X-89.92263 Y111.67304
G01 X-89.82118 Y111.85310
G01 X-89.76106 Y112.03997
G01 X-89.73997 Y112.23515
G01 X-89.75941 Y112.44089
G01 X-89.82969 Y112.65717
G01 X-89.92832 Y112.82692
G01 X-90.06901 Y112.98247
G01 X-89.88211 Y113.17617
G01 X-89.77076 Y113.36903
G01 X-89.70464 Y113.57070
G01 X-89.67866 Y113.80228
G04 P0 ( dwell for no time -- G64 should not smooth over this point )
G00 Z5.00000 ( retract )

G00 X-92.21866 Y113.80228 ( rapid move to begin. )
G01 F300.00000
G01 Z-0.10000
G04 P0 ( dwell for no time -- G64 should not smooth over this point )
G01 F600.00000
G01 X-92.21866 Y113.80228
G01 X-92.21866 Y115.73268
G01 X-92.24464 Y115.96425
G01 X-92.31551 Y116.17527
G01 X-92.42211 Y116.35879
G01 X-92.57924 Y116.53087
G01 X-92.76059 Y116.65993
G01 X-92.95470 Y116.74575
G01 X-93.16219 Y116.79041
G01 X-93.38475 Y116.79259
G01 X-93.61304 Y116.74575
G01 X-93.80715 Y116.65993
G01 X-93.98848 Y116.53087
G01 X-94.14563 Y116.35879
G01 X-94.25223 Y116.17527
G01 X-94.32579 Y115.95414
G01 X-94.34906 Y115.73268
G01 X-94.34906 Y113.80228
G01 X-94.32579 Y113.58081
G01 X-94.25223 Y113.35971
G01 X-94.14563 Y113.17617
G01 X-94.00403 Y113.01808
G01 X-93.94088 Y112.96951
G01 X-94.06857 Y112.82692
G01 X-94.16717 Y112.65717
G01 X-94.23311 Y112.46133
G01 X-94.25744 Y112.24559
G01 X-94.23311 Y112.02986
G01 X-94.16717 Y111.83400
G01 X-94.06857 Y111.66428
G01 X-93.93760 Y111.51803
G01 X-93.77172 Y111.39479
G01 X-93.57405 Y111.30500
G01 X-93.38216 Y111.26365
G01 X-93.17550 Y111.26146
G01 X-92.97294 Y111.30228
G01 X-92.78328 Y111.38435
G01 X-92.61480 Y111.50403
G01 X-92.46263 Y111.67304
G01 X-92.36118 Y111.85310
G01 X-92.30375 Y112.02986
G01 X-92.27944 Y112.24559
G01 X-92.29941 Y112.44089
G01 X-92.36969 Y112.65717
G01 X-92.46832 Y112.82692
G01 X-92.60934 Y112.98224
G01 X-92.42211 Y113.17617
G01 X-92.31076 Y113.36903
G01 X-92.24464 Y113.57070
G01 X-92.21866 Y113.80228
G04 P0 ( dwell for no time -- G64 should not smooth over this point )
G00 Z5.00000 ( retract )

G00 X-94.75866 Y113.80228 ( rapid move to begin. )
G01 F300.00000
G01 Z-0.10000
G04 P0 ( dwell for no time -- G64 should not smooth over this point )
G01 F600.00000
G01 X-94.75866 Y113.80228
G01 X-94.75866 Y115.73268
G01 X-94.78195 Y115.95414
G01 X-94.85551 Y116.17527
G01 X-94.96869 Y116.36691
G01 X-95.11111 Y116.52427
G01 X-95.30059 Y116.65993
G01 X-95.49470 Y116.74575
G01 X-95.70219 Y116.79041
G01 X-95.92475 Y116.79259
G01 X-96.15304 Y116.74575
G01 X-96.34715 Y116.65993
G01 X-96.52848 Y116.53087
G01 X-96.68563 Y116.35879
G01 X-96.79223 Y116.17527
G01 X-96.86579 Y115.95414
G01 X-96.88906 Y115.73268
G01 X-96.88906 Y113.80228
G01 X-96.86579 Y113.58081
G01 X-96.79223 Y113.35971
G01 X-96.68563 Y113.17617
G01 X-96.54403 Y113.01808
G01 X-96.48088 Y112.96951
G01 X-96.60857 Y112.82692
G01 X-96.70717 Y112.65717
G01 X-96.77311 Y112.46133
G01 X-96.79688 Y112.25605
G01 X-96.77583 Y112.03997
G01 X-96.71568 Y111.85310
G01 X-96.60857 Y111.66428
G01 X-96.47760 Y111.51803
G01 X-96.31172 Y111.39479
G01 X-96.11405 Y111.30500
G01 X-95.92216 Y111.26365
G01 X-95.71550 Y111.26146
G01 X-95.51294 Y111.30228
G01 X-95.32328 Y111.38435
G01 X-95.15480 Y111.50403
G01 X-95.00263 Y111.67304
G01 X-94.90494 Y111.84333
G01 X-94.84375 Y112.02986
G01 X-94.81944 Y112.24559
G01 X-94.83941 Y112.44089
G01 X-94.90969 Y112.65717
G01 X-95.00832 Y112.82692
G01 X-95.14934 Y112.98224
G01 X-94.96211 Y113.17617
G01 X-94.85551 Y113.35971
G01 X-94.78195 Y113.58081
G01 X-94.75866 Y113.80228
G04 P0 ( dwell for no time -- G64 should not smooth over this point )
G00 Z5.00000 ( retract )

G00 X-97.29866 Y113.80228 ( rapid move to begin. )
G01 F300.00000
G01 Z-0.10000
G04 P0 ( dwell for no time -- G64 should not smooth over this point )
G01 F600.00000
G01 X-97.29866 Y113.80228
G01 X-97.29866 Y115.73268
G01 X-97.32195 Y115.95414
G01 X-97.39551 Y116.17527
G01 X-97.50211 Y116.35879
G01 X-97.65924 Y116.53087
G01 X-97.84059 Y116.65993
G01 X-98.03470 Y116.74575
G01 X-98.24219 Y116.79041
G01 X-98.46475 Y116.79259
G01 X-98.69304 Y116.74575
G01 X-98.88715 Y116.65993
G01 X-99.07663 Y116.52427
G01 X-99.21905 Y116.36691
G01 X-99.33223 Y116.17527
G01 X-99.40579 Y115.95414
G01 X-99.42906 Y115.73268
G01 X-99.42906 Y113.80228
G01 X-99.40579 Y113.58081
G01 X-99.33223 Y113.35971
G01 X-99.22563 Y113.17617
G01 X-99.08403 Y113.01808
G01 X-99.02088 Y112.96951
G01 X-99.14857 Y112.82692
G01 X-99.24717 Y112.65717
G01 X-99.31311 Y112.46133
G01 X-99.33688 Y112.25605
G01 X-99.31583 Y112.03997
G01 X-99.25568 Y111.85310
G01 X-99.14857 Y111.66428
G01 X-99.01760 Y111.51803
G01 X-98.85172 Y111.39479
G01 X-98.65405 Y111.30500
G01 X-98.46216 Y111.26365
G01 X-98.25550 Y111.26146
G01 X-98.05294 Y111.30228
G01 X-97.86328 Y111.38435
G01 X-97.69480 Y111.50403
G01 X-97.54263 Y111.67304
G01 X-97.44118 Y111.85310
G01 X-97.38106 Y112.03997
G01 X-97.35997 Y112.23515
G01 X-97.37941 Y112.44089
G01 X-97.44969 Y112.65717
G01 X-97.54832 Y112.82692
G01 X-97.68934 Y112.98224
G01 X-97.50211 Y113.17617
G01 X-97.39551 Y113.35971
G01 X-97.32195 Y113.58081
G01 X-97.29866 Y113.80228
G04 P0 ( dwell for no time -- G64 should not smooth over this point )
G00 Z5.00000 ( retract )

G00 X-99.83866 Y113.80228 ( rapid move to begin. )
G01 F300.00000
G01 Z-0.10000
G04 P0 ( dwell for no time -- G64 should not smooth over this point )
G01 F600.00000
G01 X-99.83866 Y113.80228
G01 X-99.83866 Y115.73268
G01 X-99.86195 Y115.95414
G01 X-99.93551 Y116.17527
G01 X-100.04211 Y116.35879
G01 X-100.19924 Y116.53087
G01 X-100.38059 Y116.65993
G01 X-100.57470 Y116.74575
G01 X-100.78219 Y116.79041
G01 X-101.00475 Y116.79259
G01 X-101.23304 Y116.74575
G01 X-101.42715 Y116.65993
G01 X-101.61663 Y116.52427
G01 X-101.76563 Y116.35879
G01 X-101.87698 Y116.16592
G01 X-101.94742 Y115.94380
G01 X-101.96906 Y115.73268
G01 X-101.96906 Y113.80228
G01 X-101.94307 Y113.57070
G01 X-101.87698 Y113.36903
G01 X-101.76563 Y113.17617
G01 X-101.62403 Y113.01808
G01 X-101.56088 Y112.96951
G01 X-101.68857 Y112.82692
G01 X-101.78717 Y112.65717
G01 X-101.85311 Y112.46133
G01 X-101.87688 Y112.25605
G01 X-101.85583 Y112.03997
G01 X-101.79568 Y111.85310
G01 X-101.68857 Y111.66428
G01 X-101.55760 Y111.51803
G01 X-101.39172 Y111.39479
G01 X-101.19405 Y111.30500
G01 X-101.00216 Y111.26365
G01 X-100.79550 Y111.26146
G01 X-100.59294 Y111.30228
G01 X-100.40328 Y111.38435
G01 X-100.23480 Y111.50403
G01 X-100.08263 Y111.67304
G01 X-99.98118 Y111.85310
G01 X-99.92106 Y112.03997
G01 X-99.89997 Y112.23515
G01 X-99.91941 Y112.44089
G01 X-99.98969 Y112.65717
G01 X-100.08832 Y112.82692
G01 X-100.22934 Y112.98224
G01 X-100.04211 Y113.17617
G01 X-99.93551 Y113.35971
G01 X-99.86195 Y113.58081
G01 X-99.83866 Y113.80228
G04 P0 ( dwell for no time -- G64 should not smooth over this point )
G00 Z5.00000 ( retract )

G00 X-102.37866 Y113.80228 ( rapid move to begin. )
G01 F300.00000
G01 Z-0.10000
G04 P0 ( dwell for no time -- G64 should not smooth over this point )
G01 F600.00000
G01 X-102.37866 Y113.80228
G01 X-102.37866 Y115.73268
G01 X-102.40195 Y115.95414
G01 X-102.47551 Y116.17527
G01 X-102.58211 Y116.35879
G01 X-102.73924 Y116.53087
G01 X-102.92059 Y116.65993
G01 X-103.11470 Y116.74575
G01 X-103.32219 Y116.79041
G01 X-103.54475 Y116.79259
G01 X-103.77304 Y116.74575
G01 X-103.96715 Y116.65993
G01 X-104.16403 Y116.51688
G01 X-104.31135 Y116.35002
G01 X-104.41698 Y116.16592
G01 X-104.48742 Y115.94380
G01 X-104.50906 Y115.73268
G01 X-104.50906 Y113.80228
G01 X-104.48307 Y113.57070
G01 X-104.41698 Y113.36903
G01 X-104.29905 Y113.16804
G01 X-104.16403 Y113.01808
G01 X-104.10088 Y112.96951
G01 X-104.23426 Y112.81813
G01 X-104.32717 Y112.65717
G01 X-104.39311 Y112.46133
G01 X-104.41744 Y112.24559
G01 X-104.39311 Y112.02986
G01 X-104.33194 Y111.84333
G01 X-104.23426 Y111.67304
G01 X-104.09021 Y111.51061
G01 X-103.93172 Y111.39479
G01 X-103.73405 Y111.30500
G01 X-103.54216 Y111.26365
G01 X-103.33550 Y111.26146
G01 X-103.13294 Y111.30228
G01 X-102.94328 Y111.38435
G01 X-102.77480 Y111.50403
G01 X-102.62263 Y111.67304
G01 X-102.52118 Y111.85310
G01 X-102.46106 Y112.03997
G01 X-102.43997 Y112.23515
G01 X-102.45941 Y112.44089
G01 X-102.52969 Y112.65717
G01 X-102.62832 Y112.82692
G01 X-102.76901 Y112.98247
G01 X-102.58211 Y113.17617
G01 X-102.47551 Y113.35971
G01 X-102.40195 Y113.58081
G01 X-102.37866 Y113.80228
G04 P0 ( dwell for no time -- G64 should not smooth over this point )
G00 Z5.00000 ( retract )

G00 X-104.91866 Y113.80228 ( rapid move to begin. )
G01 F300.00000
G01 Z-0.10000
G04 P0 ( dwell for no time -- G64 should not smooth over this point )
G01 F600.00000
G01 X-104.91866 Y113.80228
G01 X-104.91866 Y115.73268
G01 X-104.94464 Y115.96425
G01 X-105.01551 Y116.17527
G01 X-105.12869 Y116.36691
G01 X-105.27111 Y116.52427
G01 X-105.46059 Y116.65993
G01 X-105.65470 Y116.74575
G01 X-105.86219 Y116.79041
G01 X-106.08475 Y116.79259
G01 X-106.31304 Y116.74575
G01 X-106.50715 Y116.65993
G01 X-106.70403 Y116.51688
G01 X-106.85135 Y116.35002
G01 X-106.95698 Y116.16592
G01 X-107.02742 Y115.94380
G01 X-107.04906 Y115.73268
G01 X-107.04906 Y113.80228
G01 X-107.02307 Y113.57070
G01 X-106.95698 Y113.36903
G01 X-106.83905 Y113.16804
G01 X-106.70403 Y113.01808
G01 X-106.64088 Y112.96951
G01 X-106.76857 Y112.82692
G01 X-106.86717 Y112.65717
G01 X-106.93311 Y112.46133
G01 X-106.95744 Y112.24559
G01 X-106.93311 Y112.02986
G01 X-106.87194 Y111.84333
G01 X-106.76857 Y111.66428
G01 X-106.63760 Y111.51803
G01 X-106.47172 Y111.39479
G01 X-106.27405 Y111.30500
G01 X-106.08216 Y111.26365
G01 X-105.87550 Y111.26146
G01 X-105.67294 Y111.30228
G01 X-105.48328 Y111.38435
G01 X-105.31480 Y111.50403
G01 X-105.16263 Y111.67304
G01 X-105.06494 Y111.84333
G01 X-105.00375 Y112.02986
G01 X-104.97944 Y112.24559
G01 X-104.99941 Y112.44089
G01 X-105.06969 Y112.65717
G01 X-105.16832 Y112.82692
G01 X-105.30901 Y112.98247
G01 X-105.12869 Y113.16804
G01 X-105.01076 Y113.36903
G01 X-104.94464 Y113.57070
G01 X-104.91866 Y113.80228
G04 P0 ( dwell for no time -- G64 should not smooth over this point )
G00 Z5.00000 ( retract )

G00 X-107.45866 Y113.80228 ( rapid move to begin. )
G01 F300.00000
G01 Z-0.10000
G04 P0 ( dwell for no time -- G64 should not smooth over this point )
G01 F600.00000
G01 X-107.45866 Y113.80228
G01 X-107.45866 Y115.73268
G01 X-107.48464 Y115.96425
G01 X-107.55551 Y116.17527
G01 X-107.66869 Y116.36691
G01 X-107.81111 Y116.52427
G01 X-108.00059 Y116.65993
G01 X-108.19470 Y116.74575
G01 X-108.42297 Y116.79259
G01 X-108.64555 Y116.79041
G01 X-108.85304 Y116.74575
G01 X-109.05647 Y116.65518
G01 X-109.24403 Y116.51688
G01 X-109.38563 Y116.35879
G01 X-109.49698 Y116.16592
G01 X-109.56742 Y115.94380
G01 X-109.58906 Y115.73268
G01 X-109.58906 Y113.80228
G01 X-109.56307 Y113.57070
G01 X-109.49698 Y113.36903
G01 X-109.37905 Y113.16804
G01 X-109.24403 Y113.01808
G01 X-109.18088 Y112.96951
G01 X-109.31426 Y112.81813
G01 X-109.40717 Y112.65717
G01 X-109.47311 Y112.46133
G01 X-109.49744 Y112.24559
G01 X-109.47311 Y112.02986
G01 X-109.41194 Y111.84333
G01 X-109.31426 Y111.67304
G01 X-109.17021 Y111.51061
G01 X-109.01172 Y111.39479
G01 X-108.81405 Y111.30500
G01 X-108.62216 Y111.26365
G01 X-108.41550 Y111.26146
G01 X-108.21294 Y111.30228
G01 X-108.02328 Y111.38435
G01 X-107.85480 Y111.50403
G01 X-107.70263 Y111.67304
G01 X-107.60494 Y111.84333
G01 X-107.54375 Y112.02986
G01 X-107.51944 Y112.24559
G01 X-107.53941 Y112.44089
G01 X-107.60969 Y112.65717
G01 X-107.71489 Y112.83504
G01 X-107.84901 Y112.98247
G01 X-107.66869 Y113.16804
G01 X-107.55076 Y113.36903
G01 X-107.48464 Y113.57070
G01 X-107.45866 Y113.80228
G04 P0 ( dwell for no time -- G64 should not smooth over this point )
G00 Z5.00000 ( retract )

G00 X-109.99866 Y113.80228 ( rapid move to begin. )
G01 F300.00000
G01 Z-0.10000
G04 P0 ( dwell for no time -- G64 should not smooth over this point )
G01 F600.00000
G01 X-109.99866 Y113.80228
G01 X-109.99866 Y115.73268
G01 X-110.02464 Y115.96425
G01 X-110.09551 Y116.17527
G01 X-110.20869 Y116.36691
G01 X-110.35111 Y116.52427
G01 X-110.54059 Y116.65993
G01 X-110.73470 Y116.74575
G01 X-110.96297 Y116.79259
G01 X-111.18555 Y116.79041
G01 X-111.39304 Y116.74575
G01 X-111.59647 Y116.65518
G01 X-111.78403 Y116.51688
G01 X-111.93135 Y116.35002
G01 X-112.03698 Y116.16592
G01 X-112.10742 Y115.94380
G01 X-112.12906 Y115.73268
G01 X-112.12906 Y113.80228
G01 X-112.10307 Y113.57070
G01 X-112.03698 Y113.36903
G01 X-111.91905 Y113.16804
G01 X-111.78403 Y113.01808
G01 X-111.72088 Y112.96951
G01 X-111.85426 Y112.81813
G01 X-111.94717 Y112.65717
G01 X-112.01311 Y112.46133
G01 X-112.03744 Y112.24559
G01 X-112.01311 Y112.02986
G01 X-111.95194 Y111.84333
G01 X-111.84196 Y111.65613
G01 X-111.70208 Y111.50403
G01 X-111.54293 Y111.38910
G01 X-111.35405 Y111.30500
G01 X-111.16216 Y111.26365
G01 X-110.95550 Y111.26146
G01 X-110.75294 Y111.30228
G01 X-110.56328 Y111.38435
G01 X-110.39480 Y111.50403
G01 X-110.24263 Y111.67304
G01 X-110.14494 Y111.84333
G01 X-110.08375 Y112.02986
G01 X-110.05944 Y112.24559
G01 X-110.07941 Y112.44089
G01 X-110.14969 Y112.65717
G01 X-110.25489 Y112.83504
G01 X-110.38901 Y112.98247
G01 X-110.20869 Y113.16804
G01 X-110.09076 Y113.36903
G01 X-110.02464 Y113.57070
G01 X-109.99866 Y113.80228
G04 P0 ( dwell for no time -- G64 should not smooth over this point )
G00 Z5.00000 ( retract )

G00 X-112.53866 Y113.80228 ( rapid move to begin. )
G01 F300.00000
G01 Z-0.10000
G04 P0 ( dwell for no time -- G64 should not smooth over this point )
G01 F600.00000
G01 X-112.53866 Y113.80228
G01 X-112.53866 Y115.73268
G01 X-112.56464 Y115.96425
G01 X-112.63551 Y116.17527
G01 X-112.74869 Y116.36691
G01 X-112.89111 Y116.52427
G01 X-113.08059 Y116.65993
G01 X-113.27470 Y116.74575
G01 X-113.50297 Y116.79259
G01 X-113.72555 Y116.79041
G01 X-113.93304 Y116.74575
G01 X-114.13647 Y116.65518
G01 X-114.32403 Y116.51688
G01 X-114.46563 Y116.35879
G01 X-114.57698 Y116.16592
G01 X-114.64742 Y115.94380
G01 X-114.66906 Y115.73268
G01 X-114.66906 Y113.80228
G01 X-114.64307 Y113.57070
G01 X-114.57698 Y113.36903
G01 X-114.45905 Y113.16804
G01 X-114.32403 Y113.01808
G01 X-114.26088 Y112.96951
G01 X-114.39426 Y112.81813
G01 X-114.48717 Y112.65717
G01 X-114.55311 Y112.46133
G01 X-114.57744 Y112.24559
G01 X-114.55311 Y112.02986
G01 X-114.48717 Y111.83400
G01 X-114.38857 Y111.66428
G01 X-114.25021 Y111.51061
G01 X-114.09172 Y111.39479
G01 X-113.89405 Y111.30500
G01 X-113.70216 Y111.26365
G01 X-113.49550 Y111.26146
G01 X-113.29294 Y111.30228
G01 X-113.10328 Y111.38435
G01 X-112.93480 Y111.50403
G01 X-112.78263 Y111.67304
G01 X-112.68494 Y111.84333
G01 X-112.62375 Y112.02986
G01 X-112.59944 Y112.24559
G01 X-112.61941 Y112.44089
G01 X-112.68969 Y112.65717
G01 X-112.79489 Y112.83504
G01 X-112.92901 Y112.98247
G01 X-112.74869 Y113.16804
G01 X-112.63076 Y113.36903
G01 X-112.56464 Y113.57070
G01 X-112.53866 Y113.80228
G04 P0 ( dwell for no time -- G64 should not smooth over this point )
G00 Z5.00000 ( retract )

G00 X-117.61866 Y113.80228 ( rapid move to begin. )
G01 F300.00000
G01 Z-0.10000
G04 P0 ( dwell for no time -- G64 should not smooth over this point )
G01 F600.00000
G01 X-117.61866 Y113.80228
G01 X-117.61866 Y115.73268
G01 X-117.64464 Y115.96425
G01 X-117.71551 Y116.17527
G01 X-117.82869 Y116.36691
G01 X-117.97924 Y116.53087
G01 X-118.15127 Y116.65518
G01 X-118.35470 Y116.74575
G01 X-118.58297 Y116.79259
G01 X-118.80555 Y116.79041
G01 X-119.01304 Y116.74575
G01 X-119.21647 Y116.65518
G01 X-119.40403 Y116.51688
G01 X-119.55135 Y116.35002
G01 X-119.65698 Y116.16592
G01 X-119.72742 Y115.94380
G01 X-119.74906 Y115.73268
G01 X-119.74906 Y113.80228
G01 X-119.72307 Y113.57070
G01 X-119.65698 Y113.36903
G01 X-119.53905 Y113.16804
G01 X-119.40403 Y113.01808
G01 X-119.34088 Y112.96951
G01 X-119.47426 Y112.81813
G01 X-119.56717 Y112.65717
G01 X-119.63311 Y112.46133
G01 X-119.65744 Y112.24559
G01 X-119.63311 Y112.02986
G01 X-119.56717 Y111.83400
G01 X-119.46857 Y111.66428
G01 X-119.33021 Y111.51061
G01 X-119.17172 Y111.39479
G01 X-118.97405 Y111.30500
G01 X-118.78216 Y111.26365
G01 X-118.57550 Y111.26146
G01 X-118.37294 Y111.30228
G01 X-118.18328 Y111.38435
G01 X-118.01480 Y111.50403
G01 X-117.86263 Y111.67304
G01 X-117.76494 Y111.84333
G01 X-117.70375 Y112.02986
G01 X-117.67944 Y112.24559
G01 X-117.69941 Y112.44089
G01 X-117.76969 Y112.65717
G01 X-117.87489 Y112.83504
G01 X-118.00901 Y112.98247
G01 X-117.82869 Y113.16804
G01 X-117.71076 Y113.36903
G01 X-117.64464 Y113.57070
G01 X-117.61866 Y113.80228
G04 P0 ( dwell for no time -- G64 should not smooth over this point )
G00 Z5.00000 ( retract )

G00 X-120.15866 Y113.80228 ( rapid move to begin. )
G01 F300.00000
G01 Z-0.10000
G04 P0 ( dwell for no time -- G64 should not smooth over this point )
G01 F600.00000
G01 X-120.15866 Y113.80228
G01 X-120.15866 Y115.73268
G01 X-120.18464 Y115.96425
G01 X-120.25551 Y116.17527
G01 X-120.36869 Y116.36691
G01 X-120.51111 Y116.52427
G01 X-120.70059 Y116.65993
G01 X-120.89470 Y116.74575
G01 X-121.12297 Y116.79259
G01 X-121.34555 Y116.79041
G01 X-121.55304 Y116.74575
G01 X-121.75647 Y116.65518
G01 X-121.94403 Y116.51688
G01 X-122.08563 Y116.35879
G01 X-122.19698 Y116.16592
G01 X-122.26742 Y115.94380
G01 X-122.28906 Y115.73268
G01 X-122.28906 Y113.80228
G01 X-122.26307 Y113.57070
G01 X-122.19698 Y113.36903
G01 X-122.07905 Y113.16804
G01 X-121.94403 Y113.01808
G01 X-121.88088 Y112.96951
G01 X-122.01426 Y112.81813
G01 X-122.10717 Y112.65717
G01 X-122.17311 Y112.46133
G01 X-122.19744 Y112.24559
G01 X-122.17311 Y112.02986
G01 X-122.11194 Y111.84333
G01 X-122.01426 Y111.67304
G01 X-121.87021 Y111.51061
G01 X-121.71172 Y111.39479
G01 X-121.51405 Y111.30500
G01 X-121.32216 Y111.26365
G01 X-121.11550 Y111.26146
G01 X-120.91294 Y111.30228
G01 X-120.72328 Y111.38435
G01 X-120.55480 Y111.50403
G01 X-120.40263 Y111.67304
G01 X-120.30118 Y111.85310
G01 X-120.24375 Y112.02986
G01 X-120.21944 Y112.24559
G01 X-120.23941 Y112.44089
G01 X-120.30969 Y112.65717
G01 X-120.40832 Y112.82692
G01 X-120.54901 Y112.98247
G01 X-120.36869 Y113.16804
G01 X-120.25076 Y113.36903
G01 X-120.18464 Y113.57070
G01 X-120.15866 Y113.80228
G04 P0 ( dwell for no time -- G64 should not smooth over this point )
G00 Z5.00000 ( retract )

G00 X-122.69866 Y113.80228 ( rapid move to begin. )
G01 F300.00000
G01 Z-0.10000
G04 P0 ( dwell for no time -- G64 should not smooth over this point )
G01 F600.00000
G01 X-122.69866 Y113.80228
G01 X-122.69866 Y115.73268
G01 X-122.72464 Y115.96425
G01 X-122.79551 Y116.17527
G01 X-122.90869 Y116.36691
G01 X-123.05111 Y116.52427
G01 X-123.24059 Y116.65993
G01 X-123.43470 Y116.74575
G01 X-123.66297 Y116.79259
G01 X-123.88555 Y116.79041
G01 X-124.09304 Y116.74575
G01 X-124.29647 Y116.65518
G01 X-124.48403 Y116.51688
G01 X-124.63135 Y116.35002
G01 X-124.73698 Y116.16592
G01 X-124.80742 Y115.94380
G01 X-124.82906 Y115.73268
G01 X-124.82906 Y113.80228
G01 X-124.80307 Y113.57070
G01 X-124.73698 Y113.36903
G01 X-124.61905 Y113.16804
G01 X-124.48403 Y113.01808
G01 X-124.42088 Y112.96951
G01 X-124.55426 Y112.81813
G01 X-124.64717 Y112.65717
G01 X-124.71311 Y112.46133
G01 X-124.73744 Y112.24559
G01 X-124.71311 Y112.02986
G01 X-124.65194 Y111.84333
G01 X-124.54196 Y111.65613
G01 X-124.40208 Y111.50403
G01 X-124.24293 Y111.38910
G01 X-124.05405 Y111.30500
G01 X-123.86216 Y111.26365
G01 X-123.65550 Y111.26146
G01 X-123.45294 Y111.30228
G01 X-123.26328 Y111.38435
G01 X-123.09480 Y111.50403
G01 X-122.94263 Y111.67304
G01 X-122.84494 Y111.84333
G01 X-122.78375 Y112.02986
G01 X-122.75944 Y112.24559
G01 X-122.77941 Y112.44089
G01 X-122.84969 Y112.65717
G01 X-122.95489 Y112.83504
G01 X-123.08901 Y112.98247
G01 X-122.90869 Y113.16804
G01 X-122.79076 Y113.36903
G01 X-122.72464 Y113.57070
G01 X-122.69866 Y113.80228
G04 P0 ( dwell for no time -- G64 should not smooth over this point )
G00 Z5.00000 ( retract )

G00 X-125.23866 Y113.80228 ( rapid move to begin. )
G01 F300.00000
G01 Z-0.10000
G04 P0 ( dwell for no time -- G64 should not smooth over this point )
G01 F600.00000
G01 X-125.23866 Y113.80228
G01 X-125.23866 Y115.73268
G01 X-125.26464 Y115.96425
G01 X-125.33551 Y116.17527
G01 X-125.44869 Y116.36691
G01 X-125.59111 Y116.52427
G01 X-125.78059 Y116.65993
G01 X-125.97470 Y116.74575
G01 X-126.20297 Y116.79259
G01 X-126.42555 Y116.79041
G01 X-126.63304 Y116.74575
G01 X-126.83647 Y116.65518
G01 X-127.02403 Y116.51688
G01 X-127.16563 Y116.35879
G01 X-127.27698 Y116.16592
G01 X-127.34742 Y115.94380
G01 X-127.36906 Y115.73268
G01 X-127.36906 Y113.80228
G01 X-127.34307 Y113.57070
G01 X-127.27698 Y113.36903
G01 X-127.15905 Y113.16804
G01 X-127.02403 Y113.01808
G01 X-126.96088 Y112.96951
G01 X-127.09426 Y112.81813
G01 X-127.18717 Y112.65717
G01 X-127.25311 Y112.46133
G01 X-127.27744 Y112.24559
G01 X-127.25311 Y112.02986
G01 X-127.18717 Y111.83400
G01 X-127.08857 Y111.66428
G01 X-126.95021 Y111.51061
G01 X-126.79172 Y111.39479
G01 X-126.59405 Y111.30500
G01 X-126.40216 Y111.26365
G01 X-126.19550 Y111.26146
G01 X-125.99294 Y111.30228
G01 X-125.80328 Y111.38435
G01 X-125.63480 Y111.50403
G01 X-125.48263 Y111.67304
G01 X-125.38494 Y111.84333
G01 X-125.32375 Y112.02986
G01 X-125.29944 Y112.24559
G01 X-125.31941 Y112.44089
G01 X-125.38969 Y112.65717
G01 X-125.49489 Y112.83504
G01 X-125.62901 Y112.98247
G01 X-125.44869 Y113.16804
G01 X-125.33076 Y113.36903
G01 X-125.26464 Y113.57070
G01 X-125.23866 Y113.80228
G04 P0 ( dwell for no time -- G64 should not smooth over this point )
G00 Z5.00000 ( retract )

G00 X-127.77866 Y113.80228 ( rapid move to begin. )
G01 F300.00000
G01 Z-0.10000
G04 P0 ( dwell for no time -- G64 should not smooth over this point )
G01 F600.00000
G01 X-127.77866 Y113.80228
G01 X-127.77866 Y115.73268
G01 X-127.80464 Y115.96425
G01 X-127.87551 Y116.17527
G01 X-127.98869 Y116.36691
G01 X-128.13111 Y116.52427
G01 X-128.32059 Y116.65993
G01 X-128.51470 Y116.74575
G01 X-128.74297 Y116.79259
G01 X-128.96555 Y116.79041
G01 X-129.17304 Y116.74575
G01 X-129.37647 Y116.65518
G01 X-129.56403 Y116.51688
G01 X-129.71135 Y116.35002
G01 X-129.81698 Y116.16592
G01 X-129.88742 Y115.94380
G01 X-129.90906 Y115.73268
G01 X-129.90906 Y113.80228
G01 X-129.88307 Y113.57070
G01 X-129.81698 Y113.36903
G01 X-129.69905 Y113.16804
G01 X-129.56403 Y113.01808
G01 X-129.50088 Y112.96951
G01 X-129.63426 Y112.81813
G01 X-129.72717 Y112.65717
G01 X-129.79311 Y112.46133
G01 X-129.81744 Y112.24559
G01 X-129.79311 Y112.02986
G01 X-129.73194 Y111.84333
G01 X-129.63426 Y111.67304
G01 X-129.49021 Y111.51061
G01 X-129.33172 Y111.39479
G01 X-129.13405 Y111.30500
G01 X-128.94216 Y111.26365
G01 X-128.73550 Y111.26146
G01 X-128.53294 Y111.30228
G01 X-128.34328 Y111.38435
G01 X-128.17480 Y111.50403
G01 X-128.02263 Y111.67304
G01 X-127.92118 Y111.85310
G01 X-127.86375 Y112.02986
G01 X-127.83944 Y112.24559
G01 X-127.85941 Y112.44089
G01 X-127.92969 Y112.65717
G01 X-128.02832 Y112.82692
G01 X-128.16901 Y112.98247
G01 X-127.98869 Y113.16804
G01 X-127.87076 Y113.36903
G01 X-127.80464 Y113.57070
G01 X-127.77866 Y113.80228
G04 P0 ( dwell for no time -- G64 should not smooth over this point )
G00 Z5.00000 ( retract )

G00 X-135.39866 Y113.80228 ( rapid move to begin. )
G01 F300.00000
G01 Z-0.10000
G04 P0 ( dwell for no time -- G64 should not smooth over this point )
G01 F600.00000
G01 X-135.39866 Y113.80228
G01 X-135.42464 Y113.57070
G01 X-135.49076 Y113.36903
G01 X-135.56775 Y113.23459
G01 X-135.48873 Y113.20530
G01 X-135.45944 Y113.13459
G01 X-135.45944 Y111.35659
G01 X-135.47628 Y111.30104
G01 X-135.52116 Y111.26421
G01 X-135.55944 Y111.25659
G01 X-137.33744 Y111.25659
G01 X-137.39299 Y111.27345
G01 X-137.42058 Y111.30104
G01 X-137.43744 Y111.35659
G01 X-137.43744 Y113.13459
G01 X-137.42058 Y113.19014
G01 X-137.35860 Y113.23217
G01 X-137.43698 Y113.36903
G01 X-137.50307 Y113.57070
G01 X-137.52853 Y113.79184
G01 X-137.52853 Y115.74314
G01 X-137.50307 Y115.96425
G01 X-137.43698 Y116.16592
G01 X-137.33135 Y116.35002
G01 X-137.18403 Y116.51688
G01 X-136.99647 Y116.65518
G01 X-136.79304 Y116.74575
G01 X-136.58555 Y116.79041
G01 X-136.36297 Y116.79259
G01 X-136.13470 Y116.74575
G01 X-135.94059 Y116.65993
G01 X-135.75111 Y116.52427
G01 X-135.60869 Y116.36691
G01 X-135.49551 Y116.17527
G01 X-135.42464 Y115.96425
G01 X-135.39866 Y115.73268
G01 X-135.39866 Y113.80228
G04 P0 ( dwell for no time -- G64 should not smooth over this point )
G00 Z5.00000 ( retract )

G00 X-132.85866 Y106.18228 ( rapid move to begin. )
G01 F300.00000
G01 Z-0.10000
G04 P0 ( dwell for no time -- G64 should not smooth over this point )
G01 F600.00000
G01 X-132.85866 Y106.18228
G01 X-132.88030 Y105.97115
G01 X-132.94700 Y105.75881
G01 X-133.06869 Y105.54804
G01 X-133.21111 Y105.39068
G01 X-133.38248 Y105.26549
G01 X-133.59470 Y105.16922
G01 X-133.80219 Y105.12454
G01 X-134.04555 Y105.12454
G01 X-134.25304 Y105.16922
G01 X-134.46526 Y105.26549
G01 X-134.63663 Y105.39068
G01 X-134.79135 Y105.56495
G01 X-134.89698 Y105.74903
G01 X-134.96307 Y105.95070
G01 X-134.98906 Y106.18228
G01 X-134.98906 Y108.11268
G01 X-134.96742 Y108.32380
G01 X-134.89698 Y108.54595
G01 X-134.79135 Y108.73002
G01 X-134.64403 Y108.89688
G01 X-134.55868 Y108.96157
G01 X-134.70196 Y109.11613
G01 X-134.81568 Y109.31310
G01 X-134.87311 Y109.48986
G01 X-134.89688 Y109.69515
G01 X-134.87745 Y109.90089
G01 X-134.81194 Y110.10785
G01 X-134.70196 Y110.29504
G01 X-134.57021 Y110.44056
G01 X-134.41172 Y110.55638
G01 X-134.21405 Y110.64620
G01 X-134.02216 Y110.68752
G01 X-133.81550 Y110.68971
G01 X-133.60283 Y110.64620
G01 X-133.42328 Y110.56685
G01 X-133.24667 Y110.44056
G01 X-133.10832 Y110.28692
G01 X-133.00969 Y110.11717
G01 X-132.94375 Y109.92133
G01 X-132.91997 Y109.69515
G01 X-132.94375 Y109.48986
G01 X-133.00118 Y109.31310
G01 X-133.10832 Y109.12428
G01 X-133.27380 Y108.95022
G01 X-133.20372 Y108.89688
G01 X-133.05640 Y108.73002
G01 X-132.95076 Y108.54595
G01 X-132.88030 Y108.32380
G01 X-132.85866 Y108.11268
G01 X-132.85866 Y106.18228
G04 P0 ( dwell for no time -- G64 should not smooth over this point )
G00 Z5.00000 ( retract )

G00 X-122.69866 Y106.18228 ( rapid move to begin. )
G01 F300.00000
G01 Z-0.10000
G04 P0 ( dwell for no time -- G64 should not smooth over this point )
G01 F600.00000
G01 X-122.69866 Y106.18228
G01 X-122.72030 Y105.97115
G01 X-122.78700 Y105.75881
G01 X-122.90869 Y105.54804
G01 X-123.05111 Y105.39068
G01 X-123.22248 Y105.26549
G01 X-123.43470 Y105.16922
G01 X-123.64219 Y105.12454
G01 X-123.88555 Y105.12454
G01 X-124.09304 Y105.16922
G01 X-124.30526 Y105.26549
G01 X-124.47663 Y105.39068
G01 X-124.63135 Y105.56495
G01 X-124.73698 Y105.74903
G01 X-124.80307 Y105.95070
G01 X-124.82906 Y106.18228
G01 X-124.82906 Y108.11268
G01 X-124.80742 Y108.32380
G01 X-124.73698 Y108.54595
G01 X-124.63135 Y108.73002
G01 X-124.48403 Y108.89688
G01 X-124.39868 Y108.96157
G01 X-124.54196 Y109.11613
G01 X-124.65568 Y109.31310
G01 X-124.71311 Y109.48986
G01 X-124.73688 Y109.69515
G01 X-124.71745 Y109.90089
G01 X-124.65194 Y110.10785
G01 X-124.54196 Y110.29504
G01 X-124.41760 Y110.43317
G01 X-124.25172 Y110.55638
G01 X-124.05405 Y110.64620
G01 X-123.86216 Y110.68752
G01 X-123.65550 Y110.68971
G01 X-123.44283 Y110.64620
G01 X-123.26328 Y110.56685
G01 X-123.08667 Y110.44056
G01 X-122.95489 Y110.29504
G01 X-122.84494 Y110.10785
G01 X-122.78375 Y109.92133
G01 X-122.75997 Y109.69515
G01 X-122.78375 Y109.48986
G01 X-122.84118 Y109.31310
G01 X-122.95489 Y109.11613
G01 X-123.11380 Y108.95022
G01 X-123.04372 Y108.89688
G01 X-122.89640 Y108.73002
G01 X-122.79076 Y108.54595
G01 X-122.72030 Y108.32380
G01 X-122.69866 Y108.11268
G01 X-122.69866 Y106.18228
G04 P0 ( dwell for no time -- G64 should not smooth over this point )
G00 Z5.00000 ( retract )

G00 X-120.15866 Y106.18228 ( rapid move to begin. )
G01 F300.00000
G01 Z-0.10000
G04 P0 ( dwell for no time -- G64 should not smooth over this point )
G01 F600.00000
G01 X-120.15866 Y106.18228
G01 X-120.15866 Y108.11268
G01 X-120.18030 Y108.32380
G01 X-120.25076 Y108.54595
G01 X-120.35640 Y108.73002
G01 X-120.50372 Y108.89688
G01 X-120.57380 Y108.95022
G01 X-120.40832 Y109.12428
G01 X-120.30118 Y109.31310
G01 X-120.24375 Y109.48986
G01 X-120.21997 Y109.69515
G01 X-120.24375 Y109.92133
G01 X-120.30969 Y110.11717
G01 X-120.40832 Y110.28692
G01 X-120.54667 Y110.44056
G01 X-120.72328 Y110.56685
G01 X-120.90283 Y110.64620
G01 X-121.11550 Y110.68971
G01 X-121.32216 Y110.68752
G01 X-121.51405 Y110.64620
G01 X-121.71172 Y110.55638
G01 X-121.87021 Y110.44056
G01 X-122.00196 Y110.29504
G01 X-122.11194 Y110.10785
G01 X-122.17745 Y109.90089
G01 X-122.19688 Y109.69515
G01 X-122.17311 Y109.48986
G01 X-122.11568 Y109.31310
G01 X-122.00196 Y109.11613
G01 X-121.85868 Y108.96157
G01 X-121.94403 Y108.89688
G01 X-122.09135 Y108.73002
G01 X-122.19698 Y108.54595
G01 X-122.26742 Y108.32380
G01 X-122.28906 Y108.11268
G01 X-122.28906 Y106.18228
G01 X-122.26307 Y105.95070
G01 X-122.19698 Y105.74903
G01 X-122.09135 Y105.56495
G01 X-121.93663 Y105.39068
G01 X-121.76526 Y105.26549
G01 X-121.55304 Y105.16922
G01 X-121.34555 Y105.12454
G01 X-121.10219 Y105.12454
G01 X-120.89470 Y105.16922
G01 X-120.68248 Y105.26549
G01 X-120.51111 Y105.39068
G01 X-120.36869 Y105.54804
G01 X-120.24700 Y105.75881
G01 X-120.18030 Y105.97115
G01 X-120.15866 Y106.18228
G04 P0 ( dwell for no time -- G64 should not smooth over this point )
G00 Z5.00000 ( retract )

G00 X-117.61866 Y106.18228 ( rapid move to begin. )
G01 F300.00000
G01 Z-0.10000
G04 P0 ( dwell for no time -- G64 should not smooth over this point )
G01 F600.00000
G01 X-117.61866 Y106.18228
G01 X-117.61866 Y108.11268
G01 X-117.64030 Y108.32380
G01 X-117.71076 Y108.54595
G01 X-117.81640 Y108.73002
G01 X-117.96372 Y108.89688
G01 X-118.03380 Y108.95022
G01 X-117.87489 Y109.11613
G01 X-117.76118 Y109.31310
G01 X-117.70375 Y109.48986
G01 X-117.67997 Y109.69515
G01 X-117.70375 Y109.92133
G01 X-117.76494 Y110.10785
G01 X-117.87489 Y110.29504
G01 X-118.00667 Y110.44056
G01 X-118.18328 Y110.56685
G01 X-118.36283 Y110.64620
G01 X-118.57550 Y110.68971
G01 X-118.78216 Y110.68752
G01 X-118.97405 Y110.64620
G01 X-119.17172 Y110.55638
G01 X-119.33021 Y110.44056
G01 X-119.46196 Y110.29504
G01 X-119.57568 Y110.09809
G01 X-119.63745 Y109.90089
G01 X-119.65688 Y109.69515
G01 X-119.63311 Y109.48986
G01 X-119.57568 Y109.31310
G01 X-119.46857 Y109.12428
G01 X-119.31868 Y108.96157
G01 X-119.40403 Y108.89688
G01 X-119.55135 Y108.73002
G01 X-119.65698 Y108.54595
G01 X-119.72742 Y108.32380
G01 X-119.74906 Y108.11268
G01 X-119.74906 Y106.18228
G01 X-119.72307 Y105.95070
G01 X-119.65698 Y105.74903
G01 X-119.55135 Y105.56495
G01 X-119.39663 Y105.39068
G01 X-119.22526 Y105.26549
G01 X-119.01304 Y105.16922
G01 X-118.80555 Y105.12454
G01 X-118.56219 Y105.12454
G01 X-118.35470 Y105.16922
G01 X-118.15127 Y105.25980
G01 X-117.97924 Y105.38411
G01 X-117.82869 Y105.54804
G01 X-117.70700 Y105.75881
G01 X-117.64030 Y105.97115
G01 X-117.61866 Y106.18228
G04 P0 ( dwell for no time -- G64 should not smooth over this point )
G00 Z5.00000 ( retract )

G00 X-115.07866 Y106.18228 ( rapid move to begin. )
G01 F300.00000
G01 Z-0.10000
G04 P0 ( dwell for no time -- G64 should not smooth over this point )
G01 F600.00000
G01 X-115.07866 Y106.18228
G01 X-115.07866 Y108.11268
G01 X-115.10030 Y108.32380
G01 X-115.17076 Y108.54595
G01 X-115.27640 Y108.73002
G01 X-115.42372 Y108.89688
G01 X-115.49380 Y108.95022
G01 X-115.32832 Y109.12428
G01 X-115.22118 Y109.31310
G01 X-115.16375 Y109.48986
G01 X-115.13997 Y109.69515
G01 X-115.16375 Y109.92133
G01 X-115.22969 Y110.11717
G01 X-115.32832 Y110.28692
G01 X-115.46667 Y110.44056
G01 X-115.64328 Y110.56685
G01 X-115.82283 Y110.64620
G01 X-116.03550 Y110.68971
G01 X-116.24216 Y110.68752
G01 X-116.43405 Y110.64620
G01 X-116.63172 Y110.55638
G01 X-116.79021 Y110.44056
G01 X-116.92196 Y110.29504
G01 X-117.03194 Y110.10785
G01 X-117.09745 Y109.90089
G01 X-117.11688 Y109.69515
G01 X-117.09311 Y109.48986
G01 X-117.03568 Y109.31310
G01 X-116.92196 Y109.11613
G01 X-116.77868 Y108.96157
G01 X-116.86403 Y108.89688
G01 X-117.01135 Y108.73002
G01 X-117.11698 Y108.54595
G01 X-117.18742 Y108.32380
G01 X-117.20906 Y108.11268
G01 X-117.20906 Y106.18228
G01 X-117.18307 Y105.95070
G01 X-117.11698 Y105.74903
G01 X-117.01135 Y105.56495
G01 X-116.85663 Y105.39068
G01 X-116.68526 Y105.26549
G01 X-116.47304 Y105.16922
G01 X-116.26555 Y105.12454
G01 X-116.02219 Y105.12454
G01 X-115.81470 Y105.16922
G01 X-115.60248 Y105.26549
G01 X-115.43111 Y105.39068
G01 X-115.28869 Y105.54804
G01 X-115.16700 Y105.75881
G01 X-115.10030 Y105.97115
G01 X-115.07866 Y106.18228
G04 P0 ( dwell for no time -- G64 should not smooth over this point )
G00 Z5.00000 ( retract )

G00 X-112.53866 Y106.18228 ( rapid move to begin. )
G01 F300.00000
G01 Z-0.10000
G04 P0 ( dwell for no time -- G64 should not smooth over this point )
G01 F600.00000
G01 X-112.53866 Y106.18228
G01 X-112.53866 Y108.11268
G01 X-112.56030 Y108.32380
G01 X-112.63076 Y108.54595
G01 X-112.73640 Y108.73002
G01 X-112.88372 Y108.89688
G01 X-112.95380 Y108.95022
G01 X-112.79489 Y109.11613
G01 X-112.68118 Y109.31310
G01 X-112.62375 Y109.48986
G01 X-112.59997 Y109.69515
G01 X-112.62375 Y109.92133
G01 X-112.68494 Y110.10785
G01 X-112.79489 Y110.29504
G01 X-112.92667 Y110.44056
G01 X-113.10328 Y110.56685
G01 X-113.28283 Y110.64620
G01 X-113.49550 Y110.68971
G01 X-113.70216 Y110.68752
G01 X-113.89405 Y110.64620
G01 X-114.09172 Y110.55638
G01 X-114.25021 Y110.44056
G01 X-114.38196 Y110.29504
G01 X-114.49568 Y110.09809
G01 X-114.55745 Y109.90089
G01 X-114.57688 Y109.69515
G01 X-114.55311 Y109.48986
G01 X-114.49568 Y109.31310
G01 X-114.38857 Y109.12428
G01 X-114.23868 Y108.96157
G01 X-114.32403 Y108.89688
G01 X-114.47135 Y108.73002
G01 X-114.57698 Y108.54595
G01 X-114.64742 Y108.32380
G01 X-114.66906 Y108.11268
G01 X-114.66906 Y106.18228
G01 X-114.64307 Y105.95070
G01 X-114.57698 Y105.74903
G01 X-114.47135 Y105.56495
G01 X-114.32403 Y105.39808
G01 X-114.14526 Y105.26549
G01 X-113.93304 Y105.16922
G01 X-113.72555 Y105.12454
G01 X-113.48219 Y105.12454
G01 X-113.27470 Y105.16922
G01 X-113.06248 Y105.26549
G01 X-112.89111 Y105.39068
G01 X-112.74869 Y105.54804
G01 X-112.62700 Y105.75881
G01 X-112.56030 Y105.97115
G01 X-112.53866 Y106.18228
G04 P0 ( dwell for no time -- G64 should not smooth over this point )
G00 Z5.00000 ( retract )

G00 X-109.99866 Y106.18228 ( rapid move to begin. )
G01 F300.00000
G01 Z-0.10000
G04 P0 ( dwell for no time -- G64 should not smooth over this point )
G01 F600.00000
G01 X-109.99866 Y106.18228
G01 X-109.99866 Y108.11268
G01 X-110.02030 Y108.32380
G01 X-110.09076 Y108.54595
G01 X-110.19640 Y108.73002
G01 X-110.34372 Y108.89688
G01 X-110.41380 Y108.95022
G01 X-110.25489 Y109.11613
G01 X-110.14118 Y109.31310
G01 X-110.08375 Y109.48986
G01 X-110.05997 Y109.69515
G01 X-110.08375 Y109.92133
G01 X-110.14494 Y110.10785
G01 X-110.25489 Y110.29504
G01 X-110.38667 Y110.44056
G01 X-110.56328 Y110.56685
G01 X-110.74283 Y110.64620
G01 X-110.95550 Y110.68971
G01 X-111.16216 Y110.68752
G01 X-111.35405 Y110.64620
G01 X-111.55172 Y110.55638
G01 X-111.71760 Y110.43317
G01 X-111.84196 Y110.29504
G01 X-111.95194 Y110.10785
G01 X-112.01745 Y109.90089
G01 X-112.03688 Y109.69515
G01 X-112.01311 Y109.48986
G01 X-111.95568 Y109.31310
G01 X-111.84196 Y109.11613
G01 X-111.69868 Y108.96157
G01 X-111.78403 Y108.89688
G01 X-111.93135 Y108.73002
G01 X-112.03698 Y108.54595
G01 X-112.10742 Y108.32380
G01 X-112.12906 Y108.11268
G01 X-112.12906 Y106.18228
G01 X-112.10307 Y105.95070
G01 X-112.03698 Y105.74903
G01 X-111.93135 Y105.56495
G01 X-111.77663 Y105.39068
G01 X-111.60526 Y105.26549
G01 X-111.39304 Y105.16922
G01 X-111.18555 Y105.12454
G01 X-110.94219 Y105.12454
G01 X-110.73470 Y105.16922
G01 X-110.52248 Y105.26549
G01 X-110.35111 Y105.39068
G01 X-110.20869 Y105.54804
G01 X-110.08700 Y105.75881
G01 X-110.02030 Y105.97115
G01 X-109.99866 Y106.18228
G04 P0 ( dwell for no time -- G64 should not smooth over this point )
G00 Z5.00000 ( retract )

G00 X-107.45866 Y106.18228 ( rapid move to begin. )
G01 F300.00000
G01 Z-0.10000
G04 P0 ( dwell for no time -- G64 should not smooth over this point )
G01 F600.00000
G01 X-107.45866 Y106.18228
G01 X-107.45866 Y108.11268
G01 X-107.48030 Y108.32380
G01 X-107.55076 Y108.54595
G01 X-107.65640 Y108.73002
G01 X-107.80372 Y108.89688
G01 X-107.87380 Y108.95022
G01 X-107.71489 Y109.11613
G01 X-107.60118 Y109.31310
G01 X-107.54375 Y109.48986
G01 X-107.51997 Y109.69515
G01 X-107.54375 Y109.92133
G01 X-107.60494 Y110.10785
G01 X-107.71489 Y110.29504
G01 X-107.84667 Y110.44056
G01 X-108.02328 Y110.56685
G01 X-108.20283 Y110.64620
G01 X-108.41550 Y110.68971
G01 X-108.62216 Y110.68752
G01 X-108.81405 Y110.64620
G01 X-109.01172 Y110.55638
G01 X-109.17021 Y110.44056
G01 X-109.30196 Y110.29504
G01 X-109.41194 Y110.10785
G01 X-109.47745 Y109.90089
G01 X-109.49688 Y109.69515
G01 X-109.47311 Y109.48986
G01 X-109.41568 Y109.31310
G01 X-109.30196 Y109.11613
G01 X-109.15868 Y108.96157
G01 X-109.24403 Y108.89688
G01 X-109.39135 Y108.73002
G01 X-109.49698 Y108.54595
G01 X-109.56742 Y108.32380
G01 X-109.58906 Y108.11268
G01 X-109.58906 Y106.18228
G01 X-109.56307 Y105.95070
G01 X-109.49698 Y105.74903
G01 X-109.39135 Y105.56495
G01 X-109.23663 Y105.39068
G01 X-109.06526 Y105.26549
G01 X-108.85304 Y105.16922
G01 X-108.64555 Y105.12454
G01 X-108.40219 Y105.12454
G01 X-108.19470 Y105.16922
G01 X-107.98248 Y105.26549
G01 X-107.81111 Y105.39068
G01 X-107.66869 Y105.54804
G01 X-107.54700 Y105.75881
G01 X-107.48030 Y105.97115
G01 X-107.45866 Y106.18228
G04 P0 ( dwell for no time -- G64 should not smooth over this point )
G00 Z5.00000 ( retract )

G00 X-104.91866 Y106.18228 ( rapid move to begin. )
G01 F300.00000
G01 Z-0.10000
G04 P0 ( dwell for no time -- G64 should not smooth over this point )
G01 F600.00000
G01 X-104.91866 Y106.18228
G01 X-104.91866 Y108.11268
G01 X-104.94030 Y108.32380
G01 X-105.01076 Y108.54595
G01 X-105.11640 Y108.73002
G01 X-105.26372 Y108.89688
G01 X-105.33380 Y108.95022
G01 X-105.16832 Y109.12428
G01 X-105.06118 Y109.31310
G01 X-105.00375 Y109.48986
G01 X-104.97997 Y109.69515
G01 X-105.00375 Y109.92133
G01 X-105.06494 Y110.10785
G01 X-105.16832 Y110.28692
G01 X-105.31480 Y110.44714
G01 X-105.48328 Y110.56685
G01 X-105.66283 Y110.64620
G01 X-105.87550 Y110.68971
G01 X-106.08216 Y110.68752
G01 X-106.27405 Y110.64620
G01 X-106.47172 Y110.55638
G01 X-106.63760 Y110.43317
G01 X-106.76196 Y110.29504
G01 X-106.87194 Y110.10785
G01 X-106.93745 Y109.90089
G01 X-106.95688 Y109.69515
G01 X-106.93311 Y109.48986
G01 X-106.87568 Y109.31310
G01 X-106.76857 Y109.12428
G01 X-106.61868 Y108.96157
G01 X-106.70403 Y108.89688
G01 X-106.85135 Y108.73002
G01 X-106.95698 Y108.54595
G01 X-107.02742 Y108.32380
G01 X-107.04906 Y108.11268
G01 X-107.04906 Y106.18228
G01 X-107.02307 Y105.95070
G01 X-106.95698 Y105.74903
G01 X-106.85135 Y105.56495
G01 X-106.69663 Y105.39068
G01 X-106.52526 Y105.26549
G01 X-106.31304 Y105.16922
G01 X-106.10555 Y105.12454
G01 X-105.86219 Y105.12454
G01 X-105.65470 Y105.16922
G01 X-105.44248 Y105.26549
G01 X-105.27111 Y105.39068
G01 X-105.12869 Y105.54804
G01 X-105.00700 Y105.75881
G01 X-104.94030 Y105.97115
G01 X-104.91866 Y106.18228
G04 P0 ( dwell for no time -- G64 should not smooth over this point )
G00 Z5.00000 ( retract )

G00 X-102.37866 Y106.18228 ( rapid move to begin. )
G01 F300.00000
G01 Z-0.10000
G04 P0 ( dwell for no time -- G64 should not smooth over this point )
G01 F600.00000
G01 X-102.37866 Y106.18228
G01 X-102.37866 Y108.11268
G01 X-102.40030 Y108.32380
G01 X-102.46700 Y108.53617
G01 X-102.57640 Y108.73002
G01 X-102.72372 Y108.89688
G01 X-102.79380 Y108.95022
G01 X-102.62832 Y109.12428
G01 X-102.52118 Y109.31310
G01 X-102.46106 Y109.49997
G01 X-102.43997 Y109.69515
G01 X-102.46375 Y109.92133
G01 X-102.52969 Y110.11717
G01 X-102.62832 Y110.28692
G01 X-102.77480 Y110.44714
G01 X-102.94328 Y110.56685
G01 X-103.12283 Y110.64620
G01 X-103.33550 Y110.68971
G01 X-103.54216 Y110.68752
G01 X-103.73405 Y110.64620
G01 X-103.93172 Y110.55638
G01 X-104.09021 Y110.44056
G01 X-104.22196 Y110.29504
G01 X-104.33194 Y110.10785
G01 X-104.39745 Y109.90089
G01 X-104.41688 Y109.69515
G01 X-104.39311 Y109.48986
G01 X-104.33568 Y109.31310
G01 X-104.22196 Y109.11613
G01 X-104.07868 Y108.96157
G01 X-104.16403 Y108.89688
G01 X-104.31135 Y108.73002
G01 X-104.41698 Y108.54595
G01 X-104.48742 Y108.32380
G01 X-104.50906 Y108.11268
G01 X-104.50906 Y106.18228
G01 X-104.48307 Y105.95070
G01 X-104.41698 Y105.74903
G01 X-104.31135 Y105.56495
G01 X-104.15663 Y105.39068
G01 X-103.98526 Y105.26549
G01 X-103.77304 Y105.16922
G01 X-103.56555 Y105.12454
G01 X-103.32219 Y105.12454
G01 X-103.11470 Y105.16922
G01 X-102.90248 Y105.26549
G01 X-102.72372 Y105.39808
G01 X-102.58869 Y105.54804
G01 X-102.46700 Y105.75881
G01 X-102.40195 Y105.96081
G01 X-102.37866 Y106.18228
G04 P0 ( dwell for no time -- G64 should not smooth over this point )
G00 Z5.00000 ( retract )

G00 X-99.83866 Y106.18228 ( rapid move to begin. )
G01 F300.00000
G01 Z-0.10000
G04 P0 ( dwell for no time -- G64 should not smooth over this point )
G01 F600.00000
G01 X-99.83866 Y106.18228
G01 X-99.83866 Y108.11268
G01 X-99.86030 Y108.32380
G01 X-99.92700 Y108.53617
G01 X-100.03640 Y108.73002
G01 X-100.18372 Y108.89688
G01 X-100.25380 Y108.95022
G01 X-100.08832 Y109.12428
G01 X-99.98118 Y109.31310
G01 X-99.92106 Y109.49997
G01 X-99.89997 Y109.69515
G01 X-99.92375 Y109.92133
G01 X-99.98969 Y110.11717
G01 X-100.08832 Y110.28692
G01 X-100.23480 Y110.44714
G01 X-100.40328 Y110.56685
G01 X-100.58283 Y110.64620
G01 X-100.79550 Y110.68971
G01 X-101.00216 Y110.68752
G01 X-101.19405 Y110.64620
G01 X-101.39172 Y110.55638
G01 X-101.55760 Y110.43317
G01 X-101.68857 Y110.28692
G01 X-101.78717 Y110.11717
G01 X-101.85583 Y109.91122
G01 X-101.87688 Y109.69515
G01 X-101.85583 Y109.49997
G01 X-101.79568 Y109.31310
G01 X-101.68857 Y109.12428
G01 X-101.53868 Y108.96157
G01 X-101.62403 Y108.89688
G01 X-101.77135 Y108.73002
G01 X-101.87698 Y108.54595
G01 X-101.94742 Y108.32380
G01 X-101.96906 Y108.11268
G01 X-101.96906 Y106.18228
G01 X-101.94307 Y105.95070
G01 X-101.87698 Y105.74903
G01 X-101.76563 Y105.55617
G01 X-101.62403 Y105.39808
G01 X-101.44526 Y105.26549
G01 X-101.23304 Y105.16922
G01 X-101.02555 Y105.12454
G01 X-100.78219 Y105.12454
G01 X-100.57470 Y105.16922
G01 X-100.36248 Y105.26549
G01 X-100.18372 Y105.39808
G01 X-100.04869 Y105.54804
G01 X-99.92700 Y105.75881
G01 X-99.86195 Y105.96081
G01 X-99.83866 Y106.18228
G04 P0 ( dwell for no time -- G64 should not smooth over this point )
G00 Z5.00000 ( retract )

G00 X-97.29866 Y106.18228 ( rapid move to begin. )
G01 F300.00000
G01 Z-0.10000
G04 P0 ( dwell for no time -- G64 should not smooth over this point )
G01 F600.00000
G01 X-97.29866 Y106.18228
G01 X-97.29866 Y108.11268
G01 X-97.32030 Y108.32380
G01 X-97.38700 Y108.53617
G01 X-97.49640 Y108.73002
G01 X-97.64372 Y108.89688
G01 X-97.71380 Y108.95022
G01 X-97.54832 Y109.12428
G01 X-97.44118 Y109.31310
G01 X-97.38106 Y109.49997
G01 X-97.35997 Y109.69515
G01 X-97.38375 Y109.92133
G01 X-97.44969 Y110.11717
G01 X-97.54832 Y110.28692
G01 X-97.69480 Y110.44714
G01 X-97.86328 Y110.56685
G01 X-98.04283 Y110.64620
G01 X-98.25550 Y110.68971
G01 X-98.46216 Y110.68752
G01 X-98.65405 Y110.64620
G01 X-98.85172 Y110.55638
G01 X-99.01760 Y110.43317
G01 X-99.14857 Y110.28692
G01 X-99.24717 Y110.11717
G01 X-99.31583 Y109.91122
G01 X-99.33688 Y109.69515
G01 X-99.31583 Y109.49997
G01 X-99.25568 Y109.31310
G01 X-99.14857 Y109.12428
G01 X-98.99868 Y108.96157
G01 X-99.08403 Y108.89688
G01 X-99.23135 Y108.73002
G01 X-99.34072 Y108.53617
G01 X-99.40742 Y108.32380
G01 X-99.42906 Y108.11268
G01 X-99.42906 Y106.18228
G01 X-99.40307 Y105.95070
G01 X-99.33223 Y105.73971
G01 X-99.22563 Y105.55617
G01 X-99.08403 Y105.39808
G01 X-98.90526 Y105.26549
G01 X-98.69304 Y105.16922
G01 X-98.48555 Y105.12454
G01 X-98.24219 Y105.12454
G01 X-98.03470 Y105.16922
G01 X-97.82248 Y105.26549
G01 X-97.64372 Y105.39808
G01 X-97.50869 Y105.54804
G01 X-97.38700 Y105.75881
G01 X-97.32195 Y105.96081
G01 X-97.29866 Y106.18228
G04 P0 ( dwell for no time -- G64 should not smooth over this point )
G00 Z5.00000 ( retract )

G00 X-94.75866 Y106.18228 ( rapid move to begin. )
G01 F300.00000
G01 Z-0.10000
G04 P0 ( dwell for no time -- G64 should not smooth over this point )
G01 F600.00000
G01 X-94.75866 Y106.18228
G01 X-94.75866 Y108.11268
G01 X-94.78030 Y108.32380
G01 X-94.84700 Y108.53617
G01 X-94.95640 Y108.73002
G01 X-95.10372 Y108.89688
G01 X-95.17380 Y108.95022
G01 X-95.00832 Y109.12428
G01 X-94.90118 Y109.31310
G01 X-94.84375 Y109.48986
G01 X-94.81997 Y109.69515
G01 X-94.84375 Y109.92133
G01 X-94.90969 Y110.11717
G01 X-95.00832 Y110.28692
G01 X-95.15480 Y110.44714
G01 X-95.32328 Y110.56685
G01 X-95.50283 Y110.64620
G01 X-95.71550 Y110.68971
G01 X-95.92216 Y110.68752
G01 X-96.11405 Y110.64620
G01 X-96.31172 Y110.55638
G01 X-96.47760 Y110.43317
G01 X-96.60857 Y110.28692
G01 X-96.70717 Y110.11717
G01 X-96.77583 Y109.91122
G01 X-96.79688 Y109.69515
G01 X-96.77583 Y109.49997
G01 X-96.71568 Y109.31310
G01 X-96.60857 Y109.12428
G01 X-96.45868 Y108.96157
G01 X-96.54403 Y108.89688
G01 X-96.69135 Y108.73002
G01 X-96.80072 Y108.53617
G01 X-96.86742 Y108.32380
G01 X-96.88906 Y108.11268
G01 X-96.88906 Y106.18228
G01 X-96.86307 Y105.95070
G01 X-96.79223 Y105.73971
G01 X-96.68563 Y105.55617
G01 X-96.54403 Y105.39808
G01 X-96.36526 Y105.26549
G01 X-96.15304 Y105.16922
G01 X-95.94555 Y105.12454
G01 X-95.70219 Y105.12454
G01 X-95.49470 Y105.16922
G01 X-95.28248 Y105.26549
G01 X-95.10372 Y105.39808
G01 X-94.96869 Y105.54804
G01 X-94.84700 Y105.75881
G01 X-94.78195 Y105.96081
G01 X-94.75866 Y106.18228
G04 P0 ( dwell for no time -- G64 should not smooth over this point )
G00 Z5.00000 ( retract )

G00 X-92.21866 Y106.18228 ( rapid move to begin. )
G01 F300.00000
G01 Z-0.10000
G04 P0 ( dwell for no time -- G64 should not smooth over this point )
G01 F600.00000
G01 X-92.21866 Y106.18228
G01 X-92.21866 Y108.11268
G01 X-92.24030 Y108.32380
G01 X-92.31076 Y108.54595
G01 X-92.41640 Y108.73002
G01 X-92.56372 Y108.89688
G01 X-92.63380 Y108.95022
G01 X-92.46832 Y109.12428
G01 X-92.36118 Y109.31310
G01 X-92.30375 Y109.48986
G01 X-92.27997 Y109.69515
G01 X-92.30375 Y109.92133
G01 X-92.36969 Y110.11717
G01 X-92.46832 Y110.28692
G01 X-92.61480 Y110.44714
G01 X-92.78328 Y110.56685
G01 X-92.96283 Y110.64620
G01 X-93.17550 Y110.68971
G01 X-93.38216 Y110.68752
G01 X-93.57405 Y110.64620
G01 X-93.77172 Y110.55638
G01 X-93.93760 Y110.43317
G01 X-94.06196 Y110.29504
G01 X-94.17568 Y110.09809
G01 X-94.23745 Y109.90089
G01 X-94.25688 Y109.69515
G01 X-94.23311 Y109.48986
G01 X-94.17568 Y109.31310
G01 X-94.06857 Y109.12428
G01 X-93.91868 Y108.96157
G01 X-94.00403 Y108.89688
G01 X-94.15135 Y108.73002
G01 X-94.26072 Y108.53617
G01 X-94.32742 Y108.32380
G01 X-94.34906 Y108.11268
G01 X-94.34906 Y106.18228
G01 X-94.32307 Y105.95070
G01 X-94.25223 Y105.73971
G01 X-94.14563 Y105.55617
G01 X-94.00403 Y105.39808
G01 X-93.82526 Y105.26549
G01 X-93.61304 Y105.16922
G01 X-93.40555 Y105.12454
G01 X-93.16219 Y105.12454
G01 X-92.95470 Y105.16922
G01 X-92.74248 Y105.26549
G01 X-92.56372 Y105.39808
G01 X-92.42869 Y105.54804
G01 X-92.30700 Y105.75881
G01 X-92.24030 Y105.97115
G01 X-92.21866 Y106.18228
G04 P0 ( dwell for no time -- G64 should not smooth over this point )
G00 Z5.00000 ( retract )

G00 X-89.67866 Y106.18228 ( rapid move to begin. )
G01 F300.00000
G01 Z-0.10000
G04 P0 ( dwell for no time -- G64 should not smooth over this point )
G01 F600.00000
G01 X-89.67866 Y106.18228
G01 X-89.67866 Y108.11268
G01 X-89.70030 Y108.32380
G01 X-89.77076 Y108.54595
G01 X-89.87640 Y108.73002
G01 X-90.02372 Y108.89688
G01 X-90.09380 Y108.95022
G01 X-89.92832 Y109.12428
G01 X-89.82118 Y109.31310
G01 X-89.76106 Y109.49997
G01 X-89.73997 Y109.69515
G01 X-89.76375 Y109.92133
G01 X-89.82969 Y110.11717
G01 X-89.92832 Y110.28692
G01 X-90.07480 Y110.44714
G01 X-90.24328 Y110.56685
G01 X-90.42283 Y110.64620
G01 X-90.63550 Y110.68971
G01 X-90.84216 Y110.68752
G01 X-91.03405 Y110.64620
G01 X-91.23172 Y110.55638
G01 X-91.39760 Y110.43317
G01 X-91.52196 Y110.29504
G01 X-91.63194 Y110.10785
G01 X-91.69745 Y109.90089
G01 X-91.71688 Y109.69515
G01 X-91.69311 Y109.48986
G01 X-91.63568 Y109.31310
G01 X-91.52857 Y109.12428
G01 X-91.37868 Y108.96157
G01 X-91.46403 Y108.89688
G01 X-91.61135 Y108.73002
G01 X-91.72072 Y108.53617
G01 X-91.78742 Y108.32380
G01 X-91.80906 Y108.11268
G01 X-91.80906 Y106.18228
G01 X-91.78307 Y105.95070
G01 X-91.71223 Y105.73971
G01 X-91.60563 Y105.55617
G01 X-91.46403 Y105.39808
G01 X-91.28526 Y105.26549
G01 X-91.07304 Y105.16922
G01 X-90.86555 Y105.12454
G01 X-90.62219 Y105.12454
G01 X-90.41470 Y105.16922
G01 X-90.20248 Y105.26549
G01 X-90.02372 Y105.39808
G01 X-89.88869 Y105.54804
G01 X-89.76700 Y105.75881
G01 X-89.70030 Y105.97115
G01 X-89.67866 Y106.18228
G04 P0 ( dwell for no time -- G64 should not smooth over this point )
G00 Z5.00000 ( retract )

G00 X-87.13866 Y106.18228 ( rapid move to begin. )
G01 F300.00000
G01 Z-0.10000
G04 P0 ( dwell for no time -- G64 should not smooth over this point )
G01 F600.00000
G01 X-87.13866 Y106.18228
G01 X-87.13866 Y108.11268
G01 X-87.16030 Y108.32380
G01 X-87.22700 Y108.53617
G01 X-87.33640 Y108.73002
G01 X-87.48372 Y108.89688
G01 X-87.55380 Y108.95022
G01 X-87.38832 Y109.12428
G01 X-87.28118 Y109.31310
G01 X-87.22106 Y109.49997
G01 X-87.19997 Y109.69515
G01 X-87.22375 Y109.92133
G01 X-87.28969 Y110.11717
G01 X-87.38832 Y110.28692
G01 X-87.53480 Y110.44714
G01 X-87.70328 Y110.56685
G01 X-87.88283 Y110.64620
G01 X-88.09550 Y110.68971
G01 X-88.30216 Y110.68752
G01 X-88.49405 Y110.64620
G01 X-88.69172 Y110.55638
G01 X-88.85760 Y110.43317
G01 X-88.98857 Y110.28692
G01 X-89.08717 Y110.11717
G01 X-89.15583 Y109.91122
G01 X-89.17688 Y109.69515
G01 X-89.15583 Y109.49997
G01 X-89.09568 Y109.31310
G01 X-88.98857 Y109.12428
G01 X-88.83868 Y108.96157
G01 X-88.92403 Y108.89688
G01 X-89.07135 Y108.73002
G01 X-89.17698 Y108.54595
G01 X-89.24742 Y108.32380
G01 X-89.26906 Y108.11268
G01 X-89.26906 Y106.18228
G01 X-89.24307 Y105.95070
G01 X-89.17698 Y105.74903
G01 X-89.06563 Y105.55617
G01 X-88.92403 Y105.39808
G01 X-88.74526 Y105.26549
G01 X-88.53304 Y105.16922
G01 X-88.32555 Y105.12454
G01 X-88.08219 Y105.12454
G01 X-87.87470 Y105.16922
G01 X-87.66248 Y105.26549
G01 X-87.48372 Y105.39808
G01 X-87.34869 Y105.54804
G01 X-87.22700 Y105.75881
G01 X-87.16195 Y105.96081
G01 X-87.13866 Y106.18228
G04 P0 ( dwell for no time -- G64 should not smooth over this point )
G00 Z5.00000 ( retract )

G00 X-86.09088 Y105.50712 ( rapid move to begin. )
G01 F300.00000
G01 Z-0.10000
G04 P0 ( dwell for no time -- G64 should not smooth over this point )
G01 F600.00000
G01 X-86.09088 Y105.50712
G01 X-86.09617 Y116.46239
G01 X-86.12172 Y116.54662
G01 X-86.19340 Y116.65129
G01 X-87.23780 Y117.69569
G01 X-87.36058 Y117.77486
G01 X-87.48529 Y117.79820
G01 X-116.15369 Y117.79772
G01 X-116.26860 Y117.77486
G01 X-116.34622 Y117.73338
G01 X-116.42905 Y117.65055
G01 X-116.47055 Y117.57291
G01 X-116.49390 Y117.44822
G01 X-116.49387 Y116.73707
G01 X-116.67647 Y116.65518
G01 X-116.86403 Y116.51688
G01 X-117.01135 Y116.35002
G01 X-117.12072 Y116.15617
G01 X-117.18742 Y115.94380
G01 X-117.20906 Y115.73268
G01 X-117.20853 Y113.79184
G01 X-117.18307 Y113.57070
G01 X-117.11698 Y113.36903
G01 X-116.99905 Y113.16804
G01 X-116.86403 Y113.01808
G01 X-116.80088 Y112.96951
G01 X-116.93426 Y112.81813
G01 X-117.02717 Y112.65717
G01 X-117.09311 Y112.46133
G01 X-117.11744 Y112.24559
G01 X-117.09311 Y112.02986
G01 X-117.03194 Y111.84333
G01 X-116.93426 Y111.67304
G01 X-116.78208 Y111.50403
G01 X-116.61361 Y111.38435
G01 X-116.43405 Y111.30500
G01 X-116.24216 Y111.26365
G01 X-116.03550 Y111.26146
G01 X-115.82283 Y111.30500
G01 X-115.64328 Y111.38435
G01 X-115.45928 Y111.51803
G01 X-115.32832 Y111.66428
G01 X-115.22118 Y111.85310
G01 X-115.15941 Y112.05031
G01 X-115.13944 Y112.24559
G01 X-115.16375 Y112.46133
G01 X-115.22969 Y112.65717
G01 X-115.32832 Y112.82692
G01 X-115.46934 Y112.98224
G01 X-115.27640 Y113.18495
G01 X-115.17076 Y113.36903
G01 X-115.10030 Y113.59115
G01 X-115.07866 Y113.80228
G01 X-115.07866 Y115.73268
G01 X-115.10030 Y115.94380
G01 X-115.17076 Y116.16592
G01 X-115.28869 Y116.36691
G01 X-115.43924 Y116.53087
G01 X-115.60248 Y116.64946
G01 X-115.79390 Y116.73707
G01 X-115.79390 Y117.09820
G01 X-87.63028 Y117.09820
G01 X-86.79088 Y116.25884
G01 X-86.79088 Y105.65208
G01 X-99.71384 Y92.72911
G01 X-113.76360 Y92.72911
G01 X-113.76360 Y93.09251
G01 X-113.58491 Y93.17445
G01 X-113.42596 Y93.28995
G01 X-113.27897 Y93.44994
G01 X-113.15994 Y93.65611
G01 X-113.09489 Y93.86340
G01 X-113.07379 Y94.06924
G01 X-113.07379 Y95.94884
G01 X-113.09489 Y96.15471
G01 X-113.15994 Y96.36200
G01 X-113.26667 Y96.55126
G01 X-113.42596 Y96.72817
G01 X-113.60302 Y96.85410
G01 X-113.79228 Y96.93777
G01 X-113.99456 Y96.98133
G01 X-114.21183 Y96.98351
G01 X-114.43492 Y96.93777
G01 X-114.62418 Y96.85410
G01 X-114.81676 Y96.71417
G01 X-114.96052 Y96.55126
G01 X-115.06725 Y96.36200
G01 X-115.13068 Y96.16505
G01 X-115.15339 Y95.94884
G01 X-115.15339 Y94.06924
G01 X-115.13068 Y93.85306
G01 X-115.05875 Y93.63701
G01 X-114.94823 Y93.44994
G01 X-114.80121 Y93.28995
G01 X-114.63350 Y93.16876
G01 X-114.46357 Y93.09251
G01 X-114.45448 Y92.30130
G01 X-114.40965 Y92.19307
G01 X-114.36766 Y92.13889
G01 X-114.23827 Y92.05243
G01 X-114.11359 Y92.02912
G01 X-99.56889 Y92.02912
G01 X-99.42609 Y92.05995
G01 X-99.32139 Y92.13163
G01 X-86.19340 Y105.25962
G01 X-86.12172 Y105.36429
G01 X-86.09088 Y105.50712
G04 P0 ( dwell for no time -- G64 should not smooth over this point )
G00 Z5.00000 ( retract )

G00 X-100.37379 Y94.06924 ( rapid move to begin. )
G01 F300.00000
G01 Z-0.10000
G04 P0 ( dwell for no time -- G64 should not smooth over this point )
G01 F600.00000
G01 X-100.37379 Y94.06924
G01 X-100.37379 Y95.94884
G01 X-100.39652 Y96.16505
G01 X-100.46845 Y96.38110
G01 X-100.57897 Y96.56817
G01 X-100.71783 Y96.72156
G01 X-100.90302 Y96.85410
G01 X-101.09228 Y96.93777
G01 X-101.29456 Y96.98133
G01 X-101.51183 Y96.98351
G01 X-101.73492 Y96.93777
G01 X-101.92418 Y96.85410
G01 X-102.10937 Y96.72156
G01 X-102.26052 Y96.55126
G01 X-102.36725 Y96.36200
G01 X-102.43230 Y96.15471
G01 X-102.45339 Y95.94884
G01 X-102.45339 Y94.06924
G01 X-102.43068 Y93.85306
G01 X-102.35875 Y93.63701
G01 X-102.25481 Y93.45807
G01 X-102.11676 Y93.30394
G01 X-101.92418 Y93.16401
G01 X-101.73492 Y93.08035
G01 X-101.51183 Y93.03460
G01 X-101.29456 Y93.03678
G01 X-101.10239 Y93.07763
G01 X-100.88491 Y93.17445
G01 X-100.71783 Y93.29653
G01 X-100.57897 Y93.44994
G01 X-100.45994 Y93.65611
G01 X-100.39652 Y93.85306
G01 X-100.37379 Y94.06924
G04 P0 ( dwell for no time -- G64 should not smooth over this point )
G00 Z5.00000 ( retract )

G00 X-102.91379 Y94.06924 ( rapid move to begin. )
G01 F300.00000
G01 Z-0.10000
G04 P0 ( dwell for no time -- G64 should not smooth over this point )
G01 F600.00000
G01 X-102.91379 Y94.06924
G01 X-102.91379 Y95.94884
G01 X-102.93652 Y96.16505
G01 X-103.00845 Y96.38110
G01 X-103.11897 Y96.56817
G01 X-103.25783 Y96.72156
G01 X-103.44302 Y96.85410
G01 X-103.63228 Y96.93777
G01 X-103.83456 Y96.98133
G01 X-104.05183 Y96.98351
G01 X-104.27492 Y96.93777
G01 X-104.46418 Y96.85410
G01 X-104.64937 Y96.72156
G01 X-104.79481 Y96.56004
G01 X-104.90725 Y96.36200
G01 X-104.97230 Y96.15471
G01 X-104.99339 Y95.94884
G01 X-104.99339 Y94.06924
G01 X-104.97068 Y93.85306
G01 X-104.89875 Y93.63701
G01 X-104.79481 Y93.45807
G01 X-104.65676 Y93.30394
G01 X-104.46418 Y93.16401
G01 X-104.27492 Y93.08035
G01 X-104.05183 Y93.03460
G01 X-103.83456 Y93.03678
G01 X-103.64239 Y93.07763
G01 X-103.42491 Y93.17445
G01 X-103.25783 Y93.29653
G01 X-103.11897 Y93.44994
G01 X-102.99994 Y93.65611
G01 X-102.93652 Y93.85306
G01 X-102.91379 Y94.06924
G04 P0 ( dwell for no time -- G64 should not smooth over this point )
G00 Z5.00000 ( retract )

G00 X-105.45379 Y94.06924 ( rapid move to begin. )
G01 F300.00000
G01 Z-0.10000
G04 P0 ( dwell for no time -- G64 should not smooth over this point )
G01 F600.00000
G01 X-105.45379 Y94.06924
G01 X-105.45379 Y95.94884
