( pcb2gcode 1.3.2 )
( Software-independent Gcode )

( This file uses only one drill bit. Forced by 'onedrill' option )

G94       (Millimeters per minute feed rate.)
G21       (Units == Millimeters.)
G91.1     (Incremental arc distance mode.)
G90       (Absolute coordinates.)
G00 S10000     (RPM spindle speed.)

G00 Z10.00000 (Retract)
T1
M5      (Spindle stop.)
G04 P1.00000
(MSG, Change tool bit to drill size 0.8001 mm)
M6      (Tool change.)
M0      (Temporary machine stop.)
M3      (Spindle on clockwise.)
G0 Z5.00000
G04 P1.00000

F1000.00000
G0 X-11.62578 Y11.62608
G1 Z-0.10000
G1 Z5.00000
G0 X-54.96580 Y23.35580
G1 Z-0.10000
G1 Z5.00000
G0 X-54.96580 Y20.81580
G1 Z-0.10000
G1 Z5.00000
G0 X-54.96580 Y18.27580
G1 Z-0.10000
G1 Z5.00000
G0 X-67.66580 Y20.81580
G1 Z-0.10000
G1 Z5.00000
G0 X-67.66580 Y18.27580
G1 Z-0.10000
G1 Z5.00000
G0 X-67.66580 Y15.73580
G1 Z-0.10000
G1 Z5.00000
G0 X-77.51592 Y15.57578
G1 Z-0.10000
G1 Z5.00000
G0 X-77.51592 Y18.11578
G1 Z-0.10000
G1 Z5.00000
G0 X-77.51592 Y20.65578
G1 Z-0.10000
G1 Z5.00000
G0 X-77.51592 Y23.19578
G1 Z-0.10000
G1 Z5.00000
G0 X-77.51592 Y25.73578
G1 Z-0.10000
G1 Z5.00000
G0 X-77.51592 Y28.27578
G1 Z-0.10000
G1 Z5.00000
G0 X-77.51592 Y30.81578
G1 Z-0.10000
G1 Z5.00000
G0 X-94.33580 Y17.00580
G1 Z-0.10000
G1 Z5.00000
G0 X-94.33580 Y19.54580
G1 Z-0.10000
G1 Z5.00000
G0 X-94.33580 Y22.08580
G1 Z-0.10000
G1 Z5.00000
G0 X-94.33580 Y24.62580
G1 Z-0.10000
G1 Z5.00000
G0 X-94.33580 Y27.16580
G1 Z-0.10000
G1 Z5.00000
G0 X-94.33580 Y29.70580
G1 Z-0.10000
G1 Z5.00000
G0 X-94.33580 Y32.24580
G1 Z-0.10000
G1 Z5.00000
G0 X-94.33580 Y34.78580
G1 Z-0.10000
G1 Z5.00000
G0 X-94.33580 Y37.32580
G1 Z-0.10000
G1 Z5.00000
G0 X-94.33580 Y39.86580
G1 Z-0.10000
G1 Z5.00000
G0 X-94.33580 Y42.40580
G1 Z-0.10000
G1 Z5.00000
G0 X-94.33580 Y44.94580
G1 Z-0.10000
G1 Z5.00000
G0 X-94.33580 Y47.48580
G1 Z-0.10000
G1 Z5.00000
G0 X-94.33580 Y50.02580
G1 Z-0.10000
G1 Z5.00000
G0 X-101.95580 Y50.02580
G1 Z-0.10000
G1 Z5.00000
G0 X-101.95580 Y47.48580
G1 Z-0.10000
G1 Z5.00000
G0 X-101.95580 Y44.94580
G1 Z-0.10000
G1 Z5.00000
G0 X-101.95580 Y42.40580
G1 Z-0.10000
G1 Z5.00000
G0 X-101.95580 Y39.86580
G1 Z-0.10000
G1 Z5.00000
G0 X-101.95580 Y37.32580
G1 Z-0.10000
G1 Z5.00000
G0 X-101.95580 Y34.78580
G1 Z-0.10000
G1 Z5.00000
G0 X-101.95580 Y32.24580
G1 Z-0.10000
G1 Z5.00000
G0 X-101.95580 Y29.70580
G1 Z-0.10000
G1 Z5.00000
G0 X-101.95580 Y27.16580
G1 Z-0.10000
G1 Z5.00000
G0 X-101.95580 Y24.62580
G1 Z-0.10000
G1 Z5.00000
G0 X-101.95580 Y22.08580
G1 Z-0.10000
G1 Z5.00000
G0 X-101.95580 Y19.54580
G1 Z-0.10000
G1 Z5.00000
G0 X-101.95580 Y17.00580
G1 Z-0.10000
G1 Z5.00000
G0 X-141.62552 Y11.62608
G1 Z-0.10000
G1 Z5.00000
G0 X-141.32580 Y18.91080
G1 Z-0.10000
G1 Z5.00000
G0 X-143.86580 Y21.45080
G1 Z-0.10000
G1 Z5.00000
G0 X-143.86580 Y23.99080
G1 Z-0.10000
G1 Z5.00000
G0 X-143.86580 Y18.91080
G1 Z-0.10000
G1 Z5.00000
G0 X-141.32580 Y21.45080
G1 Z-0.10000
G1 Z5.00000
G0 X-141.32580 Y23.99080
G1 Z-0.10000
G1 Z5.00000
G0 X-138.91280 Y32.24580
G1 Z-0.10000
G1 Z5.00000
G0 X-138.91280 Y37.32580
G1 Z-0.10000
G1 Z5.00000
G0 X-145.13580 Y44.94580
G1 Z-0.10000
G1 Z5.00000
G0 X-145.13580 Y47.48580
G1 Z-0.10000
G1 Z5.00000
G0 X-145.13580 Y50.02580
G1 Z-0.10000
G1 Z5.00000
G0 X-145.13580 Y52.56580
G1 Z-0.10000
G1 Z5.00000
G0 X-137.51580 Y44.94580
G1 Z-0.10000
G1 Z5.00000
G0 X-137.51580 Y47.48580
G1 Z-0.10000
G1 Z5.00000
G0 X-137.51580 Y50.02580
G1 Z-0.10000
G1 Z5.00000
G0 X-137.51580 Y52.56580
G1 Z-0.10000
G1 Z5.00000
G0 X-114.11478 Y82.00948
G1 Z-0.10000
G1 Z5.00000
G0 X-111.57478 Y82.00948
G1 Z-0.10000
G1 Z5.00000
G0 X-109.03478 Y82.00948
G1 Z-0.10000
G1 Z5.00000
G0 X-106.49478 Y82.00948
G1 Z-0.10000
G1 Z5.00000
G0 X-103.95478 Y82.00948
G1 Z-0.10000
G1 Z5.00000
G0 X-101.41478 Y82.00948
G1 Z-0.10000
G1 Z5.00000
G0 X-101.41478 Y95.00920
G1 Z-0.10000
G1 Z5.00000
G0 X-103.95478 Y95.00920
G1 Z-0.10000
G1 Z5.00000
G0 X-106.49478 Y95.00920
G1 Z-0.10000
G1 Z5.00000
G0 X-109.03478 Y95.00920
G1 Z-0.10000
G1 Z5.00000
G0 X-111.57478 Y95.00920
G1 Z-0.10000
G1 Z5.00000
G0 X-114.11478 Y95.00920
G1 Z-0.10000
G1 Z5.00000
G0 X-126.30424 Y107.14786
G1 Z-0.10000
G1 Z5.00000
G0 X-126.28900 Y109.70564
G1 Z-0.10000
G1 Z5.00000
G0 X-128.82900 Y109.70564
G1 Z-0.10000
G1 Z5.00000
G0 X-131.36900 Y109.70564
G1 Z-0.10000
G1 Z5.00000
G0 X-128.84424 Y107.14786
G1 Z-0.10000
G1 Z5.00000
G0 X-131.38424 Y107.14786
G1 Z-0.10000
G1 Z5.00000
G0 X-133.92424 Y107.14786
G1 Z-0.10000
G1 Z5.00000
G0 X-136.46424 Y107.14786
G1 Z-0.10000
G1 Z5.00000
G0 X-141.31818 Y110.97564
G1 Z-0.10000
G1 Z5.00000
G0 X-136.46424 Y114.76786
G1 Z-0.10000
G1 Z5.00000
G0 X-136.44900 Y112.24564
G1 Z-0.10000
G1 Z5.00000
G0 X-136.44900 Y109.70564
G1 Z-0.10000
G1 Z5.00000
G0 X-133.90900 Y109.70564
G1 Z-0.10000
G1 Z5.00000
G0 X-133.90900 Y112.24564
G1 Z-0.10000
G1 Z5.00000
G0 X-133.92424 Y114.76786
G1 Z-0.10000
G1 Z5.00000
G0 X-131.38424 Y114.76786
G1 Z-0.10000
G1 Z5.00000
G0 X-131.36900 Y112.24564
G1 Z-0.10000
G1 Z5.00000
G0 X-128.84424 Y114.76786
G1 Z-0.10000
G1 Z5.00000
G0 X-128.82900 Y112.24564
G1 Z-0.10000
G1 Z5.00000
G0 X-126.28900 Y112.24564
G1 Z-0.10000
G1 Z5.00000
G0 X-126.30424 Y114.76786
G1 Z-0.10000
G1 Z5.00000
G0 X-141.62552 Y141.62582
G1 Z-0.10000
G1 Z5.00000
G0 X-141.31818 Y133.97534
G1 Z-0.10000
G1 Z5.00000
G0 X-123.76424 Y114.76786
G1 Z-0.10000
G1 Z5.00000
G0 X-123.74900 Y112.24564
G1 Z-0.10000
G1 Z5.00000
G0 X-121.22424 Y114.76786
G1 Z-0.10000
G1 Z5.00000
G0 X-121.20900 Y112.24564
G1 Z-0.10000
G1 Z5.00000
G0 X-118.68424 Y114.76786
G1 Z-0.10000
G1 Z5.00000
G0 X-118.66900 Y112.24564
G1 Z-0.10000
G1 Z5.00000
G0 X-116.14424 Y114.76786
G1 Z-0.10000
G1 Z5.00000
G0 X-116.12900 Y112.24564
G1 Z-0.10000
G1 Z5.00000
G0 X-113.60424 Y114.76786
G1 Z-0.10000
G1 Z5.00000
G0 X-113.58900 Y112.24564
G1 Z-0.10000
G1 Z5.00000
G0 X-111.06424 Y114.76786
G1 Z-0.10000
G1 Z5.00000
G0 X-111.04900 Y112.24564
G1 Z-0.10000
G1 Z5.00000
G0 X-108.52424 Y114.76786
G1 Z-0.10000
G1 Z5.00000
G0 X-108.50900 Y112.24564
G1 Z-0.10000
G1 Z5.00000
G0 X-105.98424 Y114.76786
G1 Z-0.10000
G1 Z5.00000
G0 X-105.96900 Y112.24564
G1 Z-0.10000
G1 Z5.00000
G0 X-103.44424 Y114.76786
G1 Z-0.10000
G1 Z5.00000
G0 X-103.42900 Y112.24564
G1 Z-0.10000
G1 Z5.00000
G0 X-100.90424 Y114.76786
G1 Z-0.10000
G1 Z5.00000
G0 X-100.88900 Y112.24564
G1 Z-0.10000
G1 Z5.00000
G0 X-98.36424 Y114.76786
G1 Z-0.10000
G1 Z5.00000
G0 X-98.34900 Y112.24564
G1 Z-0.10000
G1 Z5.00000
G0 X-95.82424 Y114.76786
G1 Z-0.10000
G1 Z5.00000
G0 X-95.80900 Y112.24564
G1 Z-0.10000
G1 Z5.00000
G0 X-93.28424 Y114.76786
G1 Z-0.10000
G1 Z5.00000
G0 X-93.26900 Y112.24564
G1 Z-0.10000
G1 Z5.00000
G0 X-90.74424 Y114.76786
G1 Z-0.10000
G1 Z5.00000
G0 X-90.72900 Y112.24564
G1 Z-0.10000
G1 Z5.00000
G0 X-88.20424 Y114.76786
G1 Z-0.10000
G1 Z5.00000
G0 X-88.18900 Y112.24564
G1 Z-0.10000
G1 Z5.00000
G0 X-88.18900 Y109.70564
G1 Z-0.10000
G1 Z5.00000
G0 X-90.72900 Y109.70564
G1 Z-0.10000
G1 Z5.00000
G0 X-93.26900 Y109.70564
G1 Z-0.10000
G1 Z5.00000
G0 X-95.80900 Y109.70564
G1 Z-0.10000
G1 Z5.00000
G0 X-98.34900 Y109.70564
G1 Z-0.10000
G1 Z5.00000
G0 X-100.88900 Y109.70564
G1 Z-0.10000
G1 Z5.00000
G0 X-103.42900 Y109.70564
G1 Z-0.10000
G1 Z5.00000
G0 X-105.96900 Y109.70564
G1 Z-0.10000
G1 Z5.00000
G0 X-108.50900 Y109.70564
G1 Z-0.10000
G1 Z5.00000
G0 X-111.04900 Y109.70564
G1 Z-0.10000
G1 Z5.00000
G0 X-113.58900 Y109.70564
G1 Z-0.10000
G1 Z5.00000
G0 X-116.12900 Y109.70564
G1 Z-0.10000
G1 Z5.00000
G0 X-118.66900 Y109.70564
G1 Z-0.10000
G1 Z5.00000
G0 X-121.20900 Y109.70564
G1 Z-0.10000
G1 Z5.00000
G0 X-123.74900 Y109.70564
G1 Z-0.10000
G1 Z5.00000
G0 X-123.76424 Y107.14786
G1 Z-0.10000
G1 Z5.00000
G0 X-121.22424 Y107.14786
G1 Z-0.10000
G1 Z5.00000
G0 X-118.68424 Y107.14786
G1 Z-0.10000
G1 Z5.00000
G0 X-116.14424 Y107.14786
G1 Z-0.10000
G1 Z5.00000
G0 X-113.60424 Y107.14786
G1 Z-0.10000
G1 Z5.00000
G0 X-111.06424 Y107.14786
G1 Z-0.10000
G1 Z5.00000
G0 X-108.52424 Y107.14786
G1 Z-0.10000
G1 Z5.00000
G0 X-105.98424 Y107.14786
G1 Z-0.10000
G1 Z5.00000
G0 X-103.44424 Y107.14786
G1 Z-0.10000
G1 Z5.00000
G0 X-100.90424 Y107.14786
G1 Z-0.10000
G1 Z5.00000
G0 X-98.36424 Y107.14786
G1 Z-0.10000
G1 Z5.00000
G0 X-95.82424 Y107.14786
G1 Z-0.10000
G1 Z5.00000
G0 X-93.28424 Y107.14786
G1 Z-0.10000
G1 Z5.00000
G0 X-90.74424 Y107.14786
G1 Z-0.10000
G1 Z5.00000
G0 X-88.20424 Y107.14786
G1 Z-0.10000
G1 Z5.00000
G0 X-83.31728 Y110.97564
G1 Z-0.10000
G1 Z5.00000
G0 X-75.24516 Y120.43460
G1 Z-0.10000
G1 Z5.00000
G0 X-75.24516 Y122.97460
G1 Z-0.10000
G1 Z5.00000
G0 X-75.24516 Y125.51460
G1 Z-0.10000
G1 Z5.00000
G0 X-75.27564 Y133.03554
G1 Z-0.10000
G1 Z5.00000
G0 X-83.31728 Y133.97534
G1 Z-0.10000
G1 Z5.00000
G0 X-77.82580 Y142.10080
G1 Z-0.10000
G1 Z5.00000
G0 X-72.74580 Y142.10080
G1 Z-0.10000
G1 Z5.00000
G0 X-60.04580 Y142.10080
G1 Z-0.10000
G1 Z5.00000
G0 X-54.96580 Y142.10080
G1 Z-0.10000
G1 Z5.00000
G0 X-54.95564 Y133.03554
G1 Z-0.10000
G1 Z5.00000
G0 X-75.24516 Y117.89460
G1 Z-0.10000
G1 Z5.00000
G0 X-65.36202 Y105.21238
G1 Z-0.10000
G1 Z5.00000
G0 X-51.39202 Y105.21238
G1 Z-0.10000
G1 Z5.00000
G0 X-48.85202 Y105.21238
G1 Z-0.10000
G1 Z5.00000
G0 X-46.31202 Y105.21238
G1 Z-0.10000
G1 Z5.00000
G0 X-43.77202 Y105.21238
G1 Z-0.10000
G1 Z5.00000
G0 X-41.23202 Y105.21238
G1 Z-0.10000
G1 Z5.00000
G0 X-38.69202 Y105.21238
G1 Z-0.10000
G1 Z5.00000
G0 X-36.15202 Y105.21238
G1 Z-0.10000
G1 Z5.00000
G0 X-33.61202 Y105.21238
G1 Z-0.10000
G1 Z5.00000
G0 X-11.62578 Y141.62582
G1 Z-0.10000
G1 Z5.00000
G0 X-12.57320 Y131.30580
G1 Z-0.10000
G1 Z5.00000
G0 X-12.57320 Y126.22580
G1 Z-0.10000
G1 Z5.00000
G0 X-28.53202 Y105.21238
G1 Z-0.10000
G1 Z5.00000
G0 X-25.99202 Y105.21238
G1 Z-0.10000
G1 Z5.00000
G0 X-23.45202 Y105.21238
G1 Z-0.10000
G1 Z5.00000
G0 X-20.91202 Y105.21238
G1 Z-0.10000
G1 Z5.00000
G0 X-18.37202 Y105.21238
G1 Z-0.10000
G1 Z5.00000
G0 X-15.83202 Y105.21238
G1 Z-0.10000
G1 Z5.00000
G0 X-13.29202 Y100.13238
G1 Z-0.10000
G1 Z5.00000
G0 X-13.29202 Y72.19238
G1 Z-0.10000
G1 Z5.00000
G0 X-15.83202 Y56.95238
G1 Z-0.10000
G1 Z5.00000
G0 X-18.37202 Y56.95238
G1 Z-0.10000
G1 Z5.00000
G0 X-20.91202 Y56.95238
G1 Z-0.10000
G1 Z5.00000
G0 X-23.45202 Y56.95238
G1 Z-0.10000
G1 Z5.00000
G0 X-25.99202 Y56.95238
G1 Z-0.10000
G1 Z5.00000
G0 X-28.53202 Y56.95238
G1 Z-0.10000
G1 Z5.00000
G0 X-31.07202 Y56.95238
G1 Z-0.10000
G1 Z5.00000
G0 X-33.61202 Y56.95238
G1 Z-0.10000
G1 Z5.00000
G0 X-37.67094 Y56.95238
G1 Z-0.10000
G1 Z5.00000
G0 X-40.21094 Y56.95238
G1 Z-0.10000
G1 Z5.00000
G0 X-42.75094 Y56.95238
G1 Z-0.10000
G1 Z5.00000
G0 X-45.29094 Y56.95238
G1 Z-0.10000
G1 Z5.00000
G0 X-47.83094 Y56.95238
G1 Z-0.10000
G1 Z5.00000
G0 X-50.37094 Y56.95238
G1 Z-0.10000
G1 Z5.00000
G0 X-52.91094 Y56.95238
G1 Z-0.10000
G1 Z5.00000
G0 X-55.45094 Y56.95238
G1 Z-0.10000
G1 Z5.00000
G0 X-57.99094 Y56.95238
G1 Z-0.10000
G1 Z5.00000
G0 X-60.53094 Y56.95238
G1 Z-0.10000
G1 Z5.00000
G0 X-64.09202 Y56.95238
G1 Z-0.10000
G1 Z5.00000
G0 X-70.84080 Y44.31080
G1 Z-0.10000
G1 Z5.00000
G0 X-77.51592 Y53.67578
G1 Z-0.10000
G1 Z5.00000
G0 X-77.51592 Y51.13578
G1 Z-0.10000
G1 Z5.00000
G0 X-77.51592 Y48.59578
G1 Z-0.10000
G1 Z5.00000
G0 X-77.51592 Y46.05578
G1 Z-0.10000
G1 Z5.00000
G0 X-77.51592 Y43.51578
G1 Z-0.10000
G1 Z5.00000
G0 X-77.51592 Y40.97578
G1 Z-0.10000
G1 Z5.00000
G0 X-77.51592 Y38.43578
G1 Z-0.10000
G1 Z5.00000
G0 X-77.51592 Y35.89578
G1 Z-0.10000
G1 Z5.00000
G0 X-77.51592 Y33.35578
G1 Z-0.10000
G1 Z5.00000
G0 X-68.30080 Y39.86580
G1 Z-0.10000
G1 Z5.00000
G0 X-60.68080 Y44.31080
G1 Z-0.10000
G1 Z5.00000
G0 X-58.14080 Y39.86580
G1 Z-0.10000
G1 Z5.00000

G00 Z10.000 ( All done -- retract )

M5      (Spindle off.)
G04 P1.000000
M9      (Coolant off.)
M2      (Program end.)

