(This GCode script was designed to adjust the Z height of a CNC machine according)
(to the minute variations in the surface height in order to achieve a better result in the milling/etching process)
(This script is the output of AutoLevellerAE, 0.9.4u2 Changeset: ...e37a75 @ http://autoleveller.co.uk)
(Author: James Hawthorne PhD. File creation date: 08-01-2019 12:42)
(This program and any of its output is licensed under GPLv2 and as such...)
(AutoLevellerAE comes with ABSOLUTELY NO WARRANTY; for details, see sections 11 and 12 of the GPLv2 @ http://www.gnu.org/licenses/old-licenses/gpl-2.0.html)

G90 G21 S20000 G17

M0 (Attach probe wires and clips that need attaching)
(Initialize probe routine)
G0 Z25 (Move clear of the board first)
G1 X-143.43 Y15.58 F600 (Move to bottom left corner)
G0 Z2 (Quick move to probe clearance height)
G38.2 Z-1 F100 (Probe to a maximum of the specified probe height at the specified feed rate)
G92 Z0 (Touch off Z to 0 once contact is made)
G0 Z2 (Move Z to above the contact point)
G38.2 Z-1 F50 (Repeat at a more accurate slower rate)
G92 Z0
G0 Z2
M0 (Detach any clips used for probing)

( pcb2gcode 1.3.2 )
( Software-independent Gcode )

G94 ( Millimeters per minute feed rate. )
G21 ( Units == Millimeters. )

G90 ( Absolute coordinates. )
G00 S10000 ( RPM spindle speed. )
G64 P0.01000 ( set maximum deviation from commanded toolpath )
G01 F600.00000 ( Feedrate. )

G01 F600.00000 ( Feedrate. )
M3 ( Spindle on clockwise. )
G04 P1.00000
G04 P0 ( dwell for no time -- G64 should not smooth over this point )
G00 Z5.00000 ( retract )

G00 X-10.68740 Y131.21222 ( rapid move to begin. )
G01 F300.00000
G01 Z-0.17949
G04 P0 ( dwell for no time -- G64 should not smooth over this point )
G01 F600.00000
G01 X-10.68740 Y131.21222Z-0.17949
G01 X-10.68959 Y131.42020Z-0.17780
G01 X-10.73119 Y131.61339Z-0.17623
G01 X-10.81107 Y131.79416Z-0.17476
G01 X-10.93815 Y131.97184Z-0.17331
G01 X-11.10157 Y132.11677Z-0.17213
G01 X-11.27300 Y132.21512Z-0.17134
G01 X-11.46078 Y132.27671Z-0.17083
G01 X-11.67785 Y132.30115Z-0.17064
G01 X-13.46855 Y132.30115Z-0.17064
G01 X-13.68559 Y132.27671Z-0.17083
G01 X-13.88270 Y132.21037Z-0.17174
G01 X-14.04480 Y132.11677Z-0.17280
G01 X-14.21480 Y131.96368Z-0.17436
G01 X-14.33052 Y131.80348Z-0.17588
G01 X-14.41142 Y131.62317Z-0.17749
G01 X-14.45897 Y131.39940Z-0.17940
G01 X-14.45679 Y131.19142Z-0.18109
G01 X-14.41518 Y130.99823Z-0.18258
G01 X-14.32483 Y130.79935Z-0.18403
G01 X-14.20083 Y130.63239Z-0.18516
G01 X-14.05359 Y130.50057Z-0.18596
G01 X-13.86362 Y130.39277Z-0.18649
G01 X-13.67548 Y130.33221Z-0.18665
G01 X-13.46855 Y130.31045Z-0.18683
G01 X-11.67785 Y130.31045Z-0.18683
G01 X-11.46078 Y130.33491Z-0.18663
G01 X-11.27300 Y130.39650Z-0.18613
G01 X-11.10157 Y130.49485Z-0.18533
G01 X-10.93157 Y130.64794Z-0.18408
G01 X-10.81107 Y130.81746Z-0.18270
G01 X-10.73495 Y130.98845Z-0.18131
G01 X-10.68740 Y131.21222Z-0.17949
G04 P0 ( dwell for no time -- G64 should not smooth over this point )
G00 Z5.00000 ( retract )

G00 X-10.68740 Y126.13222 ( rapid move to begin. )
G01 F300.00000
G01 Z-0.22081
G04 P0 ( dwell for no time -- G64 should not smooth over this point )
G01 F600.00000
G01 X-10.68740 Y126.13222Z-0.22081
G01 X-10.68959 Y126.34020Z-0.21912
G01 X-10.73119 Y126.53339Z-0.21755
G01 X-10.81107 Y126.71416Z-0.21608
G01 X-10.93815 Y126.89184Z-0.21463
G01 X-11.08466 Y127.02447Z-0.21355
G01 X-11.26368 Y127.13037Z-0.21269
G01 X-11.47089 Y127.19940Z-0.21213
G01 X-11.67785 Y127.22115Z-0.21196
G01 X-13.46855 Y127.22115Z-0.21196
G01 X-13.68559 Y127.19671Z-0.21215
G01 X-13.88270 Y127.13037Z-0.21306
G01 X-14.04480 Y127.03677Z-0.21412
G01 X-14.21480 Y126.88368Z-0.21568
G01 X-14.33530 Y126.71416Z-0.21728
G01 X-14.41142 Y126.54317Z-0.21881
G01 X-14.45897 Y126.31940Z-0.22072
G01 X-14.45679 Y126.11142Z-0.22241
G01 X-14.41518 Y125.91823Z-0.22390
G01 X-14.33530 Y125.73746Z-0.22523
G01 X-14.20822 Y125.55978Z-0.22644
G01 X-14.05359 Y125.42057Z-0.22728
G01 X-13.88270 Y125.32125Z-0.22778
G01 X-13.68559 Y125.25491Z-0.22795
G01 X-13.46855 Y125.23045Z-0.22815
G01 X-11.67785 Y125.23045Z-0.22815
G01 X-11.46078 Y125.25491Z-0.22795
G01 X-11.27300 Y125.31650Z-0.22745
G01 X-11.10157 Y125.41485Z-0.22665
G01 X-10.93815 Y125.55978Z-0.22547
G01 X-10.82154 Y125.71935Z-0.22417
G01 X-10.73495 Y125.90845Z-0.22263
G01 X-10.68740 Y126.13222Z-0.22081
G04 P0 ( dwell for no time -- G64 should not smooth over this point )
G00 Z5.00000 ( retract )

G00 X-14.98178 Y104.71314 ( rapid move to begin. )
G01 F300.00000
G01 Z-0.33815
G04 P0 ( dwell for no time -- G64 should not smooth over this point )
G01 F600.00000
G01 X-14.98178 Y104.71314Z-0.33815
G01 X-15.00307 Y104.52630Z-0.33898
G01 X-15.05526 Y104.36742Z-0.33974
G01 X-15.14411 Y104.21352Z-0.34053
G01 X-15.25562 Y104.08886Z-0.34123
G01 X-15.39801 Y103.98271Z-0.34190
G01 X-15.56913 Y103.90473Z-0.34249
G01 X-15.75338 Y103.86724Z-0.34292
G01 X-15.93098 Y103.86943Z-0.34318
G01 X-16.09445 Y103.90473Z-0.34327
G01 X-16.26557 Y103.98271Z-0.34319
G01 X-16.40794 Y104.08886Z-0.34296
G01 X-16.51287 Y104.20539Z-0.34262
G01 X-16.60829 Y104.36742Z-0.34207
G01 X-16.66486 Y104.54674Z-0.34140
G01 X-16.68178 Y104.71314Z-0.34072
G01 X-16.68124 Y105.72360Z-0.33643
G01 X-16.66049 Y105.89998Z-0.33565
G01 X-16.60829 Y106.05886Z-0.33490
G01 X-16.51945 Y106.21276Z-0.33411
G01 X-16.39242 Y106.35139Z-0.33333
G01 X-16.25678 Y106.44925Z-0.33270
G01 X-16.09445 Y106.52154Z-0.33214
G01 X-15.93098 Y106.55685Z-0.33174
G01 X-15.75338 Y106.55903Z-0.33145
G01 X-15.56913 Y106.52154Z-0.33133
G01 X-15.40680 Y106.44925Z-0.33138
G01 X-15.27116 Y106.35139Z-0.33159
G01 X-15.15072 Y106.22088Z-0.33196
G01 X-15.05526 Y106.05886Z-0.33251
G01 X-14.99872 Y105.87953Z-0.33319
G01 X-14.98178 Y105.71314Z-0.33387
G01 X-14.98178 Y104.71314Z-0.33815
G04 P0 ( dwell for no time -- G64 should not smooth over this point )
G00 Z5.00000 ( retract )

G00 X-17.52178 Y104.71314 ( rapid move to begin. )
G01 F300.00000
G01 Z-0.34199
G04 P0 ( dwell for no time -- G64 should not smooth over this point )
G01 F600.00000
G01 X-17.52178 Y104.71314Z-0.34199
G01 X-17.52178 Y105.71314Z-0.33777
G01 X-17.53872 Y105.87953Z-0.33709
G01 X-17.59526 Y106.05886Z-0.33642
G01 X-17.69072 Y106.22088Z-0.33588
G01 X-17.81116 Y106.35139Z-0.33552
G01 X-17.94680 Y106.44925Z-0.33532
G01 X-18.10913 Y106.52154Z-0.33526
G01 X-18.29338 Y106.55903Z-0.33539
G01 X-18.47098 Y106.55685Z-0.33568
G01 X-18.63445 Y106.52154Z-0.33608
G01 X-18.80557 Y106.44357Z-0.33667
G01 X-18.94055 Y106.34481Z-0.33729
G01 X-19.05945 Y106.21276Z-0.33803
G01 X-19.14829 Y106.05886Z-0.33881
G01 X-19.20049 Y105.89998Z-0.33955
G01 X-19.22124 Y105.72360Z-0.34032
G01 X-19.22178 Y104.71314Z-0.34455
G01 X-19.20486 Y104.54674Z-0.34522
G01 X-19.14829 Y104.36742Z-0.34589
G01 X-19.05287 Y104.20539Z-0.34642
G01 X-18.94055 Y104.08147Z-0.34678
G01 X-18.80557 Y103.98271Z-0.34699
G01 X-18.63445 Y103.90473Z-0.34706
G01 X-18.45018 Y103.86724Z-0.34694
G01 X-18.27260 Y103.86943Z-0.34667
G01 X-18.10913 Y103.90473Z-0.34628
G01 X-17.93801 Y103.98271Z-0.34569
G01 X-17.79562 Y104.08886Z-0.34503
G01 X-17.68411 Y104.21352Z-0.34434
G01 X-17.59526 Y104.36742Z-0.34356
G01 X-17.54307 Y104.52630Z-0.34281
G01 X-17.52178 Y104.71314Z-0.34199
G04 P0 ( dwell for no time -- G64 should not smooth over this point )
G00 Z5.00000 ( retract )

G00 X-20.06178 Y104.71314 ( rapid move to begin. )
G01 F300.00000
G01 Z-0.34582
G04 P0 ( dwell for no time -- G64 should not smooth over this point )
G01 F600.00000
G01 X-20.06178 Y104.71314Z-0.34582
G01 X-20.06178 Y105.71314Z-0.34166
G01 X-20.07872 Y105.87953Z-0.34099
G01 X-20.13526 Y106.05886Z-0.34033
G01 X-20.23072 Y106.22088Z-0.33980
G01 X-20.34303 Y106.34481Z-0.33946
G01 X-20.49612 Y106.45400Z-0.33924
G01 X-20.64913 Y106.52154Z-0.33920
G01 X-20.83338 Y106.55903Z-0.33933
G01 X-21.01098 Y106.55685Z-0.33961
G01 X-21.17445 Y106.52154Z-0.34001
G01 X-21.33678 Y106.44925Z-0.34056
G01 X-21.47242 Y106.35139Z-0.34118
G01 X-21.59945 Y106.21276Z-0.34195
G01 X-21.68829 Y106.05886Z-0.34272
G01 X-21.74049 Y105.89998Z-0.34346
G01 X-21.76124 Y105.72360Z-0.34422
G01 X-21.76178 Y104.71314Z-0.34839
G01 X-21.74486 Y104.54674Z-0.34905
G01 X-21.68829 Y104.36742Z-0.34970
G01 X-21.59287 Y104.20539Z-0.35023
G01 X-21.48794 Y104.08886Z-0.35055
G01 X-21.34557 Y103.98271Z-0.35078
G01 X-21.17445 Y103.90473Z-0.35085
G01 X-20.99018 Y103.86724Z-0.35073
G01 X-20.81260 Y103.86943Z-0.35045
G01 X-20.64913 Y103.90473Z-0.35006
G01 X-20.49612 Y103.97227Z-0.34956
G01 X-20.35116 Y104.07489Z-0.34891
G01 X-20.21842 Y104.22231Z-0.34810
G01 X-20.13526 Y104.36742Z-0.34737
G01 X-20.08307 Y104.52630Z-0.34663
G01 X-20.06178 Y104.71314Z-0.34582
G04 P0 ( dwell for no time -- G64 should not smooth over this point )
G00 Z5.00000 ( retract )

G00 X-22.60178 Y104.71314 ( rapid move to begin. )
G01 F300.00000
G01 Z-0.34966
G04 P0 ( dwell for no time -- G64 should not smooth over this point )
G01 F600.00000
G01 X-22.60178 Y104.71314Z-0.34966
G01 X-22.60178 Y105.71314Z-0.34555
G01 X-22.61872 Y105.87953Z-0.34489
G01 X-22.67526 Y106.05886Z-0.34424
G01 X-22.77072 Y106.22088Z-0.34372
G01 X-22.88303 Y106.34481Z-0.34339
G01 X-23.03612 Y106.45400Z-0.34318
G01 X-23.18913 Y106.52154Z-0.34313
G01 X-23.37338 Y106.55903Z-0.34327
G01 X-23.55098 Y106.55685Z-0.34355
G01 X-23.71445 Y106.52154Z-0.34395
G01 X-23.87678 Y106.44925Z-0.34450
G01 X-24.01242 Y106.35139Z-0.34511
G01 X-24.13945 Y106.21276Z-0.34587
G01 X-24.22829 Y106.05886Z-0.34663
G01 X-24.28049 Y105.89998Z-0.34736
G01 X-24.30124 Y105.72360Z-0.34811
G01 X-24.30178 Y104.71314Z-0.35222
G01 X-24.28486 Y104.54674Z-0.35287
G01 X-24.22829 Y104.36742Z-0.35352
G01 X-24.13287 Y104.20539Z-0.35404
G01 X-24.02794 Y104.08886Z-0.35435
G01 X-23.88557 Y103.98271Z-0.35457
G01 X-23.71445 Y103.90473Z-0.35464
G01 X-23.53018 Y103.86724Z-0.35452
G01 X-23.35260 Y103.86943Z-0.35424
G01 X-23.18913 Y103.90473Z-0.35385
G01 X-23.03612 Y103.97227Z-0.35335
G01 X-22.89116 Y104.07489Z-0.35271
G01 X-22.75842 Y104.22231Z-0.35191
G01 X-22.67526 Y104.36742Z-0.35119
G01 X-22.62307 Y104.52630Z-0.35046
G01 X-22.60178 Y104.71314Z-0.34966
G04 P0 ( dwell for no time -- G64 should not smooth over this point )
G00 Z5.00000 ( retract )

G00 X-25.14178 Y104.71314 ( rapid move to begin. )
G01 F300.00000
G01 Z-0.35349
G04 P0 ( dwell for no time -- G64 should not smooth over this point )
G01 F600.00000
G01 X-25.14178 Y104.71314Z-0.35349
G01 X-25.14178 Y105.71314Z-0.34944
G01 X-25.15872 Y105.87953Z-0.34879
G01 X-25.21526 Y106.05886Z-0.34815
G01 X-25.31072 Y106.22088Z-0.34764
G01 X-25.43116 Y106.35139Z-0.34730
G01 X-25.56680 Y106.44925Z-0.34711
G01 X-25.72913 Y106.52154Z-0.34707
G01 X-25.91338 Y106.55903Z-0.34721
G01 X-26.09098 Y106.55685Z-0.34749
G01 X-26.25445 Y106.52154Z-0.34788
G01 X-26.41678 Y106.44925Z-0.34843
G01 X-26.55242 Y106.35139Z-0.34903
G01 X-26.67945 Y106.21276Z-0.34978
G01 X-26.76829 Y106.05886Z-0.35054
G01 X-26.82049 Y105.89998Z-0.35126
G01 X-26.84124 Y105.72360Z-0.35200
G01 X-26.84178 Y104.71314Z-0.35606
G01 X-26.82486 Y104.54674Z-0.35670
G01 X-26.76829 Y104.36742Z-0.35733
G01 X-26.67287 Y104.20539Z-0.35784
G01 X-26.56794 Y104.08886Z-0.35815
G01 X-26.42557 Y103.98271Z-0.35837
G01 X-26.25445 Y103.90473Z-0.35843
G01 X-26.07018 Y103.86724Z-0.35830
G01 X-25.89260 Y103.86943Z-0.35803
G01 X-25.72913 Y103.90473Z-0.35764
G01 X-25.56680 Y103.97702Z-0.35711
G01 X-25.43116 Y104.07489Z-0.35651
G01 X-25.29842 Y104.22231Z-0.35571
G01 X-25.21526 Y104.36742Z-0.35500
G01 X-25.16307 Y104.52630Z-0.35428
G01 X-25.14178 Y104.71314Z-0.35349
G04 P0 ( dwell for no time -- G64 should not smooth over this point )
G00 Z5.00000 ( retract )

G00 X-27.68178 Y104.71314 ( rapid move to begin. )
G01 F300.00000
G01 Z-0.35732
G04 P0 ( dwell for no time -- G64 should not smooth over this point )
G01 F600.00000
G01 X-27.68178 Y104.71314Z-0.35732
G01 X-27.68178 Y105.71314Z-0.35333
G01 X-27.69872 Y105.87953Z-0.35269
G01 X-27.75526 Y106.05886Z-0.35206
G01 X-27.85072 Y106.22088Z-0.35156
G01 X-27.96303 Y106.34481Z-0.35124
G01 X-28.11612 Y106.45400Z-0.35104
G01 X-28.27924 Y106.52424Z-0.35101
G01 X-28.44294 Y106.55847Z-0.35113
G01 X-28.62064 Y106.55847Z-0.35141
G01 X-28.79445 Y106.52154Z-0.35182
G01 X-28.94746 Y106.45400Z-0.35233
G01 X-29.09242 Y106.35139Z-0.35296
G01 X-29.21945 Y106.21276Z-0.35370
G01 X-29.30829 Y106.05886Z-0.35445
G01 X-29.36049 Y105.89998Z-0.35516
G01 X-29.38124 Y105.72360Z-0.35589
G01 X-29.38178 Y104.71314Z-0.35989
G01 X-29.36486 Y104.54674Z-0.36052
G01 X-29.30829 Y104.36742Z-0.36115
G01 X-29.21287 Y104.20539Z-0.36165
G01 X-29.10794 Y104.08886Z-0.36195
G01 X-28.96557 Y103.98271Z-0.36216
G01 X-28.79445 Y103.90473Z-0.36222
G01 X-28.62064 Y103.86780Z-0.36210
G01 X-28.45338 Y103.86724Z-0.36186
G01 X-28.25935 Y103.90849Z-0.36140
G01 X-28.10680 Y103.97702Z-0.36090
G01 X-27.97116 Y104.07489Z-0.36031
G01 X-27.83842 Y104.22231Z-0.35952
G01 X-27.75526 Y104.36742Z-0.35882
G01 X-27.70307 Y104.52630Z-0.35810
G01 X-27.68178 Y104.71314Z-0.35732
G04 P0 ( dwell for no time -- G64 should not smooth over this point )
G00 Z5.00000 ( retract )

G00 X-32.76178 Y104.71314 ( rapid move to begin. )
G01 F300.00000
G01 Z-0.36499
G04 P0 ( dwell for no time -- G64 should not smooth over this point )
G01 F600.00000
G01 X-32.76178 Y104.71314Z-0.36499
G01 X-32.76178 Y105.71314Z-0.36111
G01 X-32.77872 Y105.87953Z-0.36049
G01 X-32.83526 Y106.05886Z-0.35988
G01 X-32.93072 Y106.22088Z-0.35940
G01 X-33.05116 Y106.35139Z-0.35908
G01 X-33.19612 Y106.45400Z-0.35890
G01 X-33.34913 Y106.52154Z-0.35888
G01 X-33.52294 Y106.55847Z-0.35901
G01 X-33.70064 Y106.55847Z-0.35928
G01 X-33.87445 Y106.52154Z-0.35969
G01 X-34.02746 Y106.45400Z-0.36019
G01 X-34.17242 Y106.35139Z-0.36081
G01 X-34.29945 Y106.21276Z-0.36154
G01 X-34.38829 Y106.05886Z-0.36227
G01 X-34.44321 Y105.88987Z-0.36300
G01 X-34.46124 Y105.72360Z-0.36367
G01 X-34.46178 Y104.71314Z-0.36756
G01 X-34.44486 Y104.54674Z-0.36817
G01 X-34.38829 Y104.36742Z-0.36878
G01 X-34.29287 Y104.20539Z-0.36926
G01 X-34.18794 Y104.08886Z-0.36955
G01 X-34.04557 Y103.98271Z-0.36975
G01 X-33.87445 Y103.90473Z-0.36979
G01 X-33.69018 Y103.86724Z-0.36966
G01 X-33.52294 Y103.86780Z-0.36941
G01 X-33.34913 Y103.90473Z-0.36901
G01 X-33.17801 Y103.98271Z-0.36845
G01 X-33.03562 Y104.08886Z-0.36783
G01 X-32.92411 Y104.21352Z-0.36718
G01 X-32.83526 Y104.36742Z-0.36645
G01 X-32.78307 Y104.52630Z-0.36575
G01 X-32.76178 Y104.71314Z-0.36499
G04 P0 ( dwell for no time -- G64 should not smooth over this point )
G00 Z5.00000 ( retract )

G00 X-35.30178 Y104.71314 ( rapid move to begin. )
G01 F300.00000
G01 Z-0.36883
G04 P0 ( dwell for no time -- G64 should not smooth over this point )
G01 F600.00000
G01 X-35.30178 Y104.71314Z-0.36883
G01 X-35.30178 Y105.71314Z-0.36500
G01 X-35.31872 Y105.87953Z-0.36436
G01 X-35.37526 Y106.05886Z-0.36360
G01 X-35.46411 Y106.21276Z-0.36290
G01 X-35.59116 Y106.35139Z-0.36220
G01 X-35.71801 Y106.44357Z-0.36169
G01 X-35.80180 Y106.48327Z-0.36143
G01 X-35.80226 Y107.22322Z-0.35861
G01 X-35.82512 Y107.33810Z-0.35814
G01 X-35.86663 Y107.41575Z-0.35780
G01 X-39.40025 Y110.95320Z-0.34046 ;segmented line. Max segment length set to 5
G01 X-42.75381 Y114.31040Z-0.32504
G01 X-42.81525 Y114.35897Z-0.32481
G01 X-42.92348 Y114.40380Z-0.32455
G01 X-47.92348 Y114.40538Z-0.31982 ;segmented line. Max segment length set to 5
G01 X-52.92348 Y114.40696Z-0.31509 ;segmented line. Max segment length set to 5
G01 X-57.92348 Y114.40854Z-0.30903 ;segmented line. Max segment length set to 5
G01 X-62.92348 Y114.41011Z-0.29757 ;segmented line. Max segment length set to 5
G01 X-67.92348 Y114.41169Z-0.28610 ;segmented line. Max segment length set to 5
G01 X-71.83719 Y114.41292Z-0.27712
G01 X-71.83742 Y119.41292Z-0.25947 ;segmented line. Max segment length set to 5
G01 X-71.83765 Y124.41292Z-0.22404 ;segmented line. Max segment length set to 5
G01 X-71.83767 Y124.96702Z-0.21980
G01 X-71.86053 Y125.08191Z-0.21887
G01 X-71.90201 Y125.15953Z-0.21818
G01 X-72.39579 Y125.66075Z-0.21319
G01 X-72.39579 Y130.66075Z-0.17508 ;segmented line. Max segment length set to 5
G01 X-72.39579 Y135.66075Z-0.13698 ;segmented line. Max segment length set to 5
G01 X-72.39579 Y140.27710Z-0.10180
G01 X-72.23932 Y140.34916Z-0.10154
G01 X-72.08791 Y140.45919Z-0.10098
G01 X-71.94712 Y140.61228Z-0.10008
G01 X-71.84123 Y140.79130Z-0.09891
G01 X-71.77219 Y140.99851Z-0.09756
G01 X-71.75045 Y141.20545Z-0.09760
G01 X-71.75098 Y143.00661Z-0.09759
G01 X-71.77488 Y143.21321Z-0.09755
G01 X-71.84123 Y143.41032Z-0.09743
G01 X-71.93483 Y143.57242Z-0.09725
G01 X-72.07976 Y143.73585Z-0.09699
G01 X-72.25743 Y143.86292Z-0.09666
G01 X-72.43821 Y143.94280Z-0.09632
G01 X-72.63140 Y143.98441Z-0.09597
G01 X-72.86018 Y143.98441Z-0.09554
G01 X-73.05337 Y143.94280Z-0.09519
G01 X-73.23414 Y143.86292Z-0.09485
G01 X-73.40366 Y143.74242Z-0.09454
G01 X-73.54445 Y143.58934Z-0.09428
G01 X-73.65034 Y143.41032Z-0.09408
G01 X-73.72103 Y143.19277Z-0.09395
G01 X-73.74115 Y142.99615Z-0.09391
G01 X-73.74115 Y141.20545Z-0.09391
G01 X-73.71669 Y140.98840Z-0.09396
G01 X-73.65509 Y140.80062Z-0.09547
G01 X-73.55675 Y140.62920Z-0.09695
G01 X-73.40366 Y140.45919Z-0.09853
G01 X-73.25225 Y140.34916Z-0.09965
G01 X-73.09579 Y140.27710Z-0.10049
G01 X-73.09579 Y135.27710Z-0.13847 ;segmented line. Max segment length set to 5
G01 X-73.09579 Y130.27710Z-0.17646 ;segmented line. Max segment length set to 5
G01 X-73.09579 Y125.86580Z-0.20998
G01 X-73.92619 Y125.86580Z-0.20803
G01 X-74.02487 Y126.01221Z-0.20669
G01 X-74.14859 Y126.12580Z-0.20554
G01 X-74.29487 Y126.20837Z-0.20457
G01 X-74.44536 Y126.25498Z-0.20387
G01 X-74.59180 Y126.26981Z-0.20341
G01 X-75.89979 Y126.26981Z-0.20035
G01 X-76.04623 Y126.25498Z-0.20012
G01 X-76.19669 Y126.20837Z-0.20012
G01 X-76.33421 Y126.13151Z-0.20037
G01 X-76.46670 Y126.01221Z-0.20096
G01 X-76.55753 Y125.88348Z-0.20171
G01 X-76.61960 Y125.73870Z-0.20264
G01 X-76.64965 Y125.59463Z-0.20365
G01 X-76.65021 Y125.44744Z-0.20475
G01 X-76.61313 Y125.27304Z-0.20614
G01 X-76.54706 Y125.13004Z-0.20737
G01 X-76.46012 Y125.01130Z-0.20846
G01 X-76.35110 Y124.91239Z-0.20946
G01 X-76.21580 Y124.83174Z-0.21039
G01 X-76.04623 Y124.77665Z-0.21121
G01 X-75.89979 Y124.76182Z-0.21167
G01 X-74.59180 Y124.76182Z-0.21479
G01 X-74.43503 Y124.77828Z-0.21504
G01 X-74.27577 Y124.83174Z-0.21502
G01 X-74.14046 Y124.91239Z-0.21473
G01 X-74.02487 Y125.01942Z-0.21420
G01 X-73.92619 Y125.16580Z-0.21332
G01 X-72.89078 Y125.16583Z-0.21578
G01 X-72.53719 Y124.81221Z-0.21932
G01 X-72.53719 Y119.81221Z-0.25629 ;segmented line. Max segment length set to 5
G01 X-72.53719 Y114.81221Z-0.27410 ;segmented line. Max segment length set to 5
G01 X-72.53719 Y114.20789Z-0.27625
G01 X-76.07272 Y110.67236Z-0.28132 ;segmented line. Max segment length set to 5
G01 X-79.60825 Y107.13683Z-0.28619 ;segmented line. Max segment length set to 5
G01 X-83.14378 Y103.60130Z-0.28926 ;segmented line. Max segment length set to 5
G01 X-86.67931 Y100.06577Z-0.29371 ;segmented line. Max segment length set to 5
G01 X-90.21484 Y96.53024Z-0.28903 ;segmented line. Max segment length set to 5
G01 X-93.75037 Y92.99471Z-0.28201 ;segmented line. Max segment length set to 5
G01 X-97.28590 Y89.45918Z-0.27610 ;segmented line. Max segment length set to 5
G01 X-100.75575 Y85.98933Z-0.27117
G01 X-105.75575 Y85.98931Z-0.25839 ;segmented line. Max segment length set to 5
G01 X-110.57318 Y85.98930Z-0.24607
G01 X-110.69790 Y85.96598Z-0.24580
G01 X-110.77552 Y85.92448Z-0.24570
G01 X-111.86965 Y84.82494Z-0.24552
G01 X-111.90026 Y84.76360Z-0.24560
G01 X-111.92312 Y84.64871Z-0.24582
G01 X-111.92357 Y83.92560Z-0.24754
G01 X-112.10229 Y83.84364Z-0.24733
G01 X-112.26121 Y83.72817Z-0.24724
G01 X-112.40823 Y83.56817Z-0.24730
G01 X-112.52725 Y83.36200Z-0.24753
G01 X-112.59230 Y83.15471Z-0.24790
G01 X-112.61339 Y82.94884Z-0.24836
G01 X-112.61339 Y81.06924Z-0.25300
G01 X-112.59230 Y80.86340Z-0.25355
G01 X-112.52725 Y80.65609Z-0.25419
G01 X-112.40823 Y80.44994Z-0.25492
G01 X-112.26121 Y80.28995Z-0.25558
G01 X-112.10229 Y80.17445Z-0.25616
G01 X-111.92357 Y80.09251Z-0.25669
G01 X-111.92357 Y79.72912Z-0.25755
G01 X-116.37218 Y79.72912Z-0.24957
G01 X-116.49689 Y79.70577Z-0.24941
G01 X-116.57452 Y79.66427Z-0.24940
G01 X-120.11055 Y76.12923Z-0.25266 ;segmented line. Max segment length set to 5
G01 X-123.64658 Y72.59419Z-0.24975 ;segmented line. Max segment length set to 5
G01 X-127.18261 Y69.05915Z-0.24286 ;segmented line. Max segment length set to 5
G01 X-130.71864 Y65.52411Z-0.23818 ;segmented line. Max segment length set to 5
G01 X-134.25467 Y61.98907Z-0.23572 ;segmented line. Max segment length set to 5
G01 X-137.79070 Y58.45403Z-0.23547 ;segmented line. Max segment length set to 5
G01 X-141.32673 Y54.91899Z-0.23178 ;segmented line. Max segment length set to 5
G01 X-143.33047 Y52.91581Z-0.22887
G01 X-143.91124 Y52.91578Z-0.22697
G01 X-143.96207 Y53.02460Z-0.22659
G01 X-144.06036 Y53.15990Z-0.22601
G01 X-144.20677 Y53.29391Z-0.22527
G01 X-144.36039 Y53.38324Z-0.22459
G01 X-144.53854 Y53.44344Z-0.22388
G01 X-144.73578 Y53.46582Z-0.22319
G01 X-145.53580 Y53.46582Z-0.22055
G01 X-145.73303 Y53.44344Z-0.21995
G01 X-145.91119 Y53.38324Z-0.21948
G01 X-146.06480 Y53.29391Z-0.21916
G01 X-146.20461 Y53.16803Z-0.21896
G01 X-146.31997 Y53.00649Z-0.21891
G01 X-146.39173 Y52.84393Z-0.21900
G01 X-146.43140 Y52.64944Z-0.21927
G01 X-146.42922 Y52.46140Z-0.21966
G01 X-146.39173 Y52.28769Z-0.22014
G01 X-146.31997 Y52.12513Z-0.22071
G01 X-146.21121 Y51.97172Z-0.22137
G01 X-146.06480 Y51.83771Z-0.22212
G01 X-145.91119 Y51.74837Z-0.22279
G01 X-145.73303 Y51.68818Z-0.22349
G01 X-145.53580 Y51.66580Z-0.22417
G01 X-144.73578 Y51.66580Z-0.22674
G01 X-144.53854 Y51.68818Z-0.22733
G01 X-144.36039 Y51.74837Z-0.22778
G01 X-144.19864 Y51.84428Z-0.22812
G01 X-144.06036 Y51.97172Z-0.22832
G01 X-143.96207 Y52.10702Z-0.22837
G01 X-143.91124 Y52.21581Z-0.22832
G01 X-143.53550 Y52.21581Z-0.22954
G01 X-143.53550 Y51.63357Z-0.23066
G01 X-144.33847 Y50.83060Z-0.22965
G01 X-144.53854 Y50.90344Z-0.22887
G01 X-144.73578 Y50.92582Z-0.22820
G01 X-145.54624 Y50.92526Z-0.22562
G01 X-145.72290 Y50.90614Z-0.22509
G01 X-145.89208 Y50.85175Z-0.22467
G01 X-146.06480 Y50.75391Z-0.22432
G01 X-146.21121 Y50.61990Z-0.22412
G01 X-146.31997 Y50.46649Z-0.22409
G01 X-146.38799 Y50.31371Z-0.22419
G01 X-146.43140 Y50.10944Z-0.22447
G01 X-146.42922 Y49.92140Z-0.22486
G01 X-146.39173 Y49.74769Z-0.22534
G01 X-146.31997 Y49.58513Z-0.22589
G01 X-146.19722 Y49.41620Z-0.22662
G01 X-146.06480 Y49.29771Z-0.22727
G01 X-145.91119 Y49.20837Z-0.22793
G01 X-145.72290 Y49.14548Z-0.22864
G01 X-145.53580 Y49.12580Z-0.22926
G01 X-144.73578 Y49.12580Z-0.23175
G01 X-144.51068 Y49.15724Z-0.23238
G01 X-144.51068 Y48.35437Z-0.23396
G01 X-144.73578 Y48.38582Z-0.23320
G01 X-145.53580 Y48.38582Z-0.23075
G01 X-145.71256 Y48.36779Z-0.23024
G01 X-145.91119 Y48.30324Z-0.22976
G01 X-146.06480 Y48.21391Z-0.22947
G01 X-146.21121 Y48.07990Z-0.22930
G01 X-146.31997 Y47.92649Z-0.22928
G01 X-146.39173 Y47.76393Z-0.22939
G01 X-146.42922 Y47.59022Z-0.22963
G01 X-146.43140 Y47.40218Z-0.23001
G01 X-146.38799 Y47.19791Z-0.23056
G01 X-146.30951 Y47.02702Z-0.23115
G01 X-146.20461 Y46.88359Z-0.23175
G01 X-146.06480 Y46.75771Z-0.23243
G01 X-145.91119 Y46.66837Z-0.23307
G01 X-145.72290 Y46.60548Z-0.23376
G01 X-145.53580 Y46.58580Z-0.23436
G01 X-144.72534 Y46.58636Z-0.23678
G01 X-144.53854 Y46.60818Z-0.23730
G01 X-144.37949 Y46.65986Z-0.23767
G01 X-144.20677 Y46.75771Z-0.23800
G01 X-144.06036 Y46.89172Z-0.23818
G01 X-143.96207 Y47.02702Z-0.23821
G01 X-143.91124 Y47.13581Z-0.23816
G01 X-143.53550 Y47.13581Z-0.23929
G01 X-143.53550 Y46.98857Z-0.23957
G01 X-144.44586 Y46.07086Z-0.23863
G01 X-144.50159 Y45.94630Z-0.23871
G01 X-144.51068 Y45.81437Z-0.23894
G01 X-144.73578 Y45.84582Z-0.23821
G01 X-145.53580 Y45.84582Z-0.23585
G01 X-145.71256 Y45.82779Z-0.23536
G01 X-145.89208 Y45.77175Z-0.23494
G01 X-146.06480 Y45.67391Z-0.23463
G01 X-146.21121 Y45.53990Z-0.23447
G01 X-146.31997 Y45.38649Z-0.23446
G01 X-146.38799 Y45.23371Z-0.23458
G01 X-146.43140 Y45.02944Z-0.23487
G01 X-146.42922 Y44.84140Z-0.23526
G01 X-146.39173 Y44.66769Z-0.23572
G01 X-146.31997 Y44.50513Z-0.23626
G01 X-146.21121 Y44.35172Z-0.23689
G01 X-146.06480 Y44.21771Z-0.23759
G01 X-145.91119 Y44.12837Z-0.23821
G01 X-145.71256 Y44.06383Z-0.23891
G01 X-145.53580 Y44.04580Z-0.23946
G01 X-144.73578 Y44.04580Z-0.24176
G01 X-144.53854 Y44.06818Z-0.24229
G01 X-144.36974 Y44.12362Z-0.24266
G01 X-144.19864 Y44.22428Z-0.24296
G01 X-144.06036 Y44.35172Z-0.24311
G01 X-143.96207 Y44.48702Z-0.24313
G01 X-143.91124 Y44.59581Z-0.24307
G01 X-143.53550 Y44.59581Z-0.24416
G01 X-143.53550 Y39.59581Z-0.25375 ;segmented line. Max segment length set to 5
G01 X-143.53550 Y34.59581Z-0.24530 ;segmented line. Max segment length set to 5
G01 X-143.53550 Y29.59581Z-0.20701 ;segmented line. Max segment length set to 5
G01 X-143.53550 Y26.41637Z-0.18266
G01 X-144.16184 Y25.77715Z-0.17603
G01 X-144.19244 Y25.71581Z-0.17547
G01 X-144.21530 Y25.60090Z-0.17453
G01 X-144.21579 Y24.86786Z-0.16890
G01 X-144.34017 Y24.81388Z-0.16814
G01 X-144.49333 Y24.70339Z-0.16686
G01 X-144.62777 Y24.55734Z-0.16536
G01 X-144.73740 Y24.36743Z-0.16360
G01 X-144.79666 Y24.17799Z-0.16197
G01 X-144.81579 Y23.99080Z-0.16048
G01 X-144.79666 Y23.80362Z-0.15910
G01 X-144.72889 Y23.59509Z-0.15768
G01 X-144.62777 Y23.42427Z-0.15666
G01 X-144.50146 Y23.28483Z-0.15595
G01 X-144.34017 Y23.16773Z-0.15550
G01 X-144.21579 Y23.11376Z-0.15544
G01 X-144.21579 Y22.32786Z-0.14941
G01 X-144.34017 Y22.27388Z-0.14864
G01 X-144.49333 Y22.16339Z-0.14736
G01 X-144.64004 Y22.00043Z-0.14568
G01 X-144.73740 Y21.82743Z-0.14408
G01 X-144.79232 Y21.65844Z-0.14262
G01 X-144.81523 Y21.46126Z-0.14104
G01 X-144.79232 Y21.24318Z-0.13943
G01 X-144.73740 Y21.07419Z-0.13829
G01 X-144.64004 Y20.90119Z-0.13724
G01 X-144.49333 Y20.73822Z-0.13641
G01 X-144.34017 Y20.62773Z-0.13601
G01 X-144.21579 Y20.57376Z-0.13595
G01 X-144.21579 Y19.78786Z-0.12992
G01 X-144.34017 Y19.73388Z-0.12915
G01 X-144.49333 Y19.62339Z-0.12785
G01 X-144.62777 Y19.47734Z-0.12634
G01 X-144.73740 Y19.28743Z-0.12456
G01 X-144.79666 Y19.09799Z-0.12293
G01 X-144.81579 Y18.91080Z-0.12143
G01 X-144.79232 Y18.70318Z-0.11991
G01 X-144.72889 Y18.51509Z-0.11865
G01 X-144.62777 Y18.34427Z-0.11763
G01 X-144.50146 Y18.20483Z-0.11693
G01 X-144.34957 Y18.09378Z-0.11653
G01 X-144.15935 Y18.00729Z-0.11643
G01 X-143.95462 Y17.96546Z-0.11671
G01 X-143.75615 Y17.96764Z-0.11731
G01 X-143.57223 Y18.00729Z-0.11816
G01 X-143.38201 Y18.09378Z-0.11938
G01 X-143.23011 Y18.20483Z-0.12068
G01 X-143.10380 Y18.34427Z-0.12212
G01 X-142.99417 Y18.53419Z-0.12390
G01 X-142.93492 Y18.72362Z-0.12552
G01 X-142.91579 Y18.91080Z-0.12701
G01 X-142.93926 Y19.11844Z-0.12853
G01 X-142.99417 Y19.28743Z-0.12966
G01 X-143.09153 Y19.46043Z-0.13069
G01 X-143.23824 Y19.62339Z-0.13151
G01 X-143.39140 Y19.73388Z-0.13191
G01 X-143.51579 Y19.78786Z-0.13196
G01 X-143.51579 Y20.57376Z-0.13798
G01 X-143.39140 Y20.62773Z-0.13875
G01 X-143.23824 Y20.73822Z-0.14004
G01 X-143.09153 Y20.90119Z-0.14171
G01 X-142.99417 Y21.07419Z-0.14332
G01 X-142.93926 Y21.24318Z-0.14477
G01 X-142.91579 Y21.45080Z-0.14642
G01 X-142.93926 Y21.65844Z-0.14794
G01 X-142.99417 Y21.82743Z-0.14908
G01 X-143.09153 Y22.00043Z-0.15012
G01 X-143.23824 Y22.16339Z-0.15095
G01 X-143.39140 Y22.27388Z-0.15136
G01 X-143.51579 Y22.32786Z-0.15141
G01 X-143.51579 Y23.11376Z-0.15743
G01 X-143.39140 Y23.16773Z-0.15820
G01 X-143.23824 Y23.27822Z-0.15948
G01 X-143.09153 Y23.44119Z-0.16114
G01 X-142.99417 Y23.61419Z-0.16274
G01 X-142.93926 Y23.78318Z-0.16418
G01 X-142.91579 Y23.99080Z-0.16584
G01 X-142.93926 Y24.19844Z-0.16736
G01 X-142.99417 Y24.36743Z-0.16850
G01 X-143.09153 Y24.54043Z-0.16955
G01 X-143.23824 Y24.70339Z-0.17038
G01 X-143.39140 Y24.81388Z-0.17080
G01 X-143.51579 Y24.86786Z-0.17086
G01 X-143.51579 Y25.44614Z-0.17529
G01 X-142.93141 Y26.03120Z-0.18139
G01 X-142.85882 Y26.14670Z-0.18248
G01 X-142.83550 Y26.27141Z-0.18349
G01 X-142.83550 Y31.27141Z-0.22171 ;segmented line. Max segment length set to 5
G01 X-142.83550 Y36.27141Z-0.25992 ;segmented line. Max segment length set to 5
G01 X-142.83550 Y41.27141Z-0.25247 ;segmented line. Max segment length set to 5
G01 X-142.83550 Y44.94580Z-0.24553
G01 X-142.85882 Y45.07051Z-0.24523
G01 X-142.90032 Y45.14813Z-0.24496
G01 X-142.98315 Y45.23099Z-0.24456
G01 X-143.06080 Y45.27247Z-0.24426
G01 X-143.18549 Y45.29581Z-0.24385
G01 X-143.81068 Y45.29581Z-0.24201
G01 X-143.81068 Y45.72349Z-0.24118
G01 X-142.88942 Y46.65758Z-0.24214
G01 X-142.85882 Y46.71889Z-0.24212
G01 X-142.83596 Y46.83380Z-0.24197
G01 X-142.83550 Y47.48582Z-0.24074
G01 X-142.85882 Y47.61051Z-0.24043
G01 X-142.90032 Y47.68813Z-0.24016
G01 X-142.98315 Y47.77099Z-0.23975
G01 X-143.06080 Y47.81247Z-0.23944
G01 X-143.18549 Y47.83581Z-0.23901
G01 X-143.81068 Y47.83581Z-0.23711
G01 X-143.81068 Y50.02582Z-0.23288
G01 X-143.87886 Y50.30027Z-0.23213
G01 X-142.93799 Y51.24111Z-0.23332
G01 X-142.86634 Y51.34581Z-0.23335
G01 X-142.83550 Y51.48861Z-0.23318
G01 X-142.83547 Y52.42084Z-0.23142
G01 X-139.29994 Y55.95637Z-0.23679 ;segmented line. Max segment length set to 5
G01 X-135.76441 Y59.49190Z-0.23893 ;segmented line. Max segment length set to 5
G01 X-132.22888 Y63.02743Z-0.24013 ;segmented line. Max segment length set to 5
G01 X-128.69335 Y66.56297Z-0.24355 ;segmented line. Max segment length set to 5
G01 X-125.15782 Y70.09850Z-0.24918 ;segmented line. Max segment length set to 5
G01 X-121.62229 Y73.63403Z-0.25636 ;segmented line. Max segment length set to 5
G01 X-118.08676 Y77.16956Z-0.25341 ;segmented line. Max segment length set to 5
G01 X-116.22720 Y79.02912Z-0.25187
G01 X-111.71857 Y79.02912Z-0.25957
G01 X-108.18252 Y75.49410Z-0.27120 ;segmented line. Max segment length set to 5
G01 X-104.64647 Y71.95908Z-0.28070 ;segmented line. Max segment length set to 5
G01 X-101.11042 Y68.42406Z-0.28854 ;segmented line. Max segment length set to 5
G01 X-97.57437 Y64.88904Z-0.29532 ;segmented line. Max segment length set to 5
G01 X-94.03832 Y61.35402Z-0.30066 ;segmented line. Max segment length set to 5
G01 X-90.50227 Y57.81900Z-0.30434 ;segmented line. Max segment length set to 5
G01 X-86.96622 Y54.28398Z-0.30640 ;segmented line. Max segment length set to 5
G01 X-86.07262 Y53.39064Z-0.30686
G01 X-85.99500 Y53.34916Z-0.30689
G01 X-85.87028 Y53.32582Z-0.30695
G01 X-80.87028 Y53.32582Z-0.30904 ;segmented line. Max segment length set to 5
G01 X-78.83537 Y53.32582Z-0.30989
G01 X-78.73012 Y53.17128Z-0.30993
G01 X-78.60421 Y53.06011Z-0.30998
G01 X-78.46669 Y52.98325Z-0.31017
G01 X-78.33667 Y52.94101Z-0.31041
G01 X-78.16979 Y52.92180Z-0.31072
G01 X-76.86179 Y52.92180Z-0.31312
G01 X-76.71536 Y52.93664Z-0.31339
G01 X-76.56487 Y52.98325Z-0.31367
G01 X-76.41046 Y53.07240Z-0.31396
G01 X-76.30144 Y53.17128Z-0.31417
G01 X-76.19619 Y53.32582Z-0.31439
G01 X-75.60244 Y53.32579Z-0.31549
G01 X-72.06691 Y49.79026Z-0.32079 ;segmented line. Max segment length set to 5
G01 X-68.53138 Y46.25473Z-0.32470 ;segmented line. Max segment length set to 5
G01 X-66.25168 Y43.97503Z-0.32649
G01 X-66.25168 Y38.97503Z-0.32308 ;segmented line. Max segment length set to 5
G01 X-66.25168 Y33.97503Z-0.31120 ;segmented line. Max segment length set to 5
G01 X-66.25168 Y28.97503Z-0.29089 ;segmented line. Max segment length set to 5
G01 X-66.25168 Y23.97503Z-0.27057 ;segmented line. Max segment length set to 5
G01 X-66.25168 Y18.97503Z-0.25026 ;segmented line. Max segment length set to 5
G01 X-66.25168 Y17.64489Z-0.24485
G01 X-67.18025 Y16.71634Z-0.24164
G01 X-67.32547 Y16.78184Z-0.24199
G01 X-67.55081 Y16.82977Z-0.24232
G01 X-67.78076 Y16.82977Z-0.24245
G01 X-68.01548 Y16.77821Z-0.24239
G01 X-68.22457 Y16.68273Z-0.24214
G01 X-68.40923 Y16.54588Z-0.24172
G01 X-68.56140 Y16.37359Z-0.24115
G01 X-68.66592 Y16.19254Z-0.24051
G01 X-68.70291 Y16.08581Z-0.24012
G01 X-73.70291 Y16.08581Z-0.24339 ;segmented line. Max segment length set to 5
G01 X-75.29748 Y16.08581Z-0.24444
G01 X-75.44031 Y16.05497Z-0.24443
G01 X-75.49982 Y16.02099Z-0.24435
G01 X-75.60246 Y15.92581Z-0.24410
G01 X-76.19619 Y15.92581Z-0.24450
G01 X-76.29487 Y16.07219Z-0.24505
G01 X-76.41859 Y16.18581Z-0.24550
G01 X-76.56487 Y16.26838Z-0.24586
G01 X-76.70502 Y16.31334Z-0.24610
G01 X-76.86179 Y16.32980Z-0.24625
G01 X-78.16979 Y16.32980Z-0.24708
G01 X-78.33667 Y16.31062Z-0.24713
G01 X-78.46669 Y16.26838Z-0.24708
G01 X-78.60421 Y16.19150Z-0.24692
G01 X-78.73669 Y16.07219Z-0.24661
G01 X-78.83540 Y15.92581Z-0.24620
G01 X-80.65051 Y15.92579Z-0.24702
G01 X-84.18718 Y19.46018Z-0.25894 ;segmented line. Max segment length set to 5
G01 X-87.72385 Y22.99457Z-0.27004 ;segmented line. Max segment length set to 5
G01 X-91.26053 Y26.52896Z-0.28031 ;segmented line. Max segment length set to 5
G01 X-92.18315 Y27.45099Z-0.28285
G01 X-92.26080 Y27.49247Z-0.28297
G01 X-92.37568 Y27.51533Z-0.28304
G01 X-93.11124 Y27.51581Z-0.28309
G01 X-93.15638 Y27.61581Z-0.28335
G01 X-93.26036 Y27.75990Z-0.28374
G01 X-93.39864 Y27.88733Z-0.28408
G01 X-93.56039 Y27.98324Z-0.28434
G01 X-93.73854 Y28.04344Z-0.28450
G01 X-93.93578 Y28.06582Z-0.28457
G01 X-94.74624 Y28.06526Z-0.28461
G01 X-94.93303 Y28.04344Z-0.28456
G01 X-95.09208 Y27.99175Z-0.28444
G01 X-95.25602 Y27.89963Z-0.28421
G01 X-95.39722 Y27.77542Z-0.28390
G01 X-95.51997 Y27.60649Z-0.28348
G01 X-95.59173 Y27.44393Z-0.28307
G01 X-95.63140 Y27.24944Z-0.28257
G01 X-95.62922 Y27.06140Z-0.28210
G01 X-95.59173 Y26.88769Z-0.28165
G01 X-95.51997 Y26.72513Z-0.28123
G01 X-95.41121 Y26.57172Z-0.28083
G01 X-95.27293 Y26.44428Z-0.28049
G01 X-95.11119 Y26.34837Z-0.28023
G01 X-94.91256 Y26.28383Z-0.28004
G01 X-94.73580 Y26.26580Z-0.27998
G01 X-93.93578 Y26.26580Z-0.27989
G01 X-93.73854 Y26.28818Z-0.27993
G01 X-93.56039 Y26.34837Z-0.28007
G01 X-93.39864 Y26.44428Z-0.28030
G01 X-93.26036 Y26.57172Z-0.28062
G01 X-93.16207 Y26.70702Z-0.28097
G01 X-93.11124 Y26.81581Z-0.28125
G01 X-92.53044 Y26.81578Z-0.28119
G01 X-88.99490 Y23.28025Z-0.27111 ;segmented line. Max segment length set to 5
G01 X-85.45936 Y19.74472Z-0.26019 ;segmented line. Max segment length set to 5
G01 X-81.92382 Y16.20919Z-0.24844 ;segmented line. Max segment length set to 5
G01 X-81.04296 Y15.32833Z-0.24539
G01 X-80.93829 Y15.25665Z-0.24512
G01 X-80.79549 Y15.22582Z-0.24496
G01 X-78.83540 Y15.22582Z-0.24403
G01 X-78.73669 Y15.07941Z-0.24353
G01 X-78.61297 Y14.96582Z-0.24312
G01 X-78.46669 Y14.88325Z-0.24276
G01 X-78.31622 Y14.83664Z-0.24250
G01 X-78.16979 Y14.82180Z-0.24235
G01 X-76.86179 Y14.82180Z-0.24136
G01 X-76.69492 Y14.84101Z-0.24130
G01 X-76.56487 Y14.88325Z-0.24134
G01 X-76.42738 Y14.96011Z-0.24149
G01 X-76.29487 Y15.07941Z-0.24178
G01 X-76.19619 Y15.22582Z-0.24219
G01 X-75.39891 Y15.23110Z-0.24164
G01 X-75.27145 Y15.27974Z-0.24171
G01 X-75.15253 Y15.38581Z-0.24198
G01 X-70.15253 Y15.38581Z-0.23844 ;segmented line. Max segment length set to 5
G01 X-68.70291 Y15.38581Z-0.23741
G01 X-68.66592 Y15.27908Z-0.23697
G01 X-68.56140 Y15.09803Z-0.23619
G01 X-68.40923 Y14.92574Z-0.23541
G01 X-68.20646 Y14.77842Z-0.23468
G01 X-67.99559 Y14.68693Z-0.23416
G01 X-67.77032 Y14.64129Z-0.23381
G01 X-67.55081 Y14.64184Z-0.23365
G01 X-67.33598 Y14.68693Z-0.23366
G01 X-67.12511 Y14.77842Z-0.23386
G01 X-66.93789 Y14.91177Z-0.23426
G01 X-66.77017 Y15.09803Z-0.23488
G01 X-66.65714 Y15.29818Z-0.23561
G01 X-66.58818 Y15.51743Z-0.23644
G01 X-66.56578 Y15.73580Z-0.23731
G01 X-66.58818 Y15.95419Z-0.23821
G01 X-66.68338 Y16.22325Z-0.23935
G01 X-65.64762 Y17.25969Z-0.24295
G01 X-65.57502 Y17.37521Z-0.24338
G01 X-65.55168 Y17.49990Z-0.24388
G01 X-65.55168 Y22.49990Z-0.26447 ;segmented line. Max segment length set to 5
G01 X-65.55168 Y27.49990Z-0.28506 ;segmented line. Max segment length set to 5
G01 X-65.55168 Y32.49990Z-0.30564 ;segmented line. Max segment length set to 5
G01 X-65.55168 Y37.49990Z-0.32276 ;segmented line. Max segment length set to 5
G01 X-65.55168 Y42.49990Z-0.32636 ;segmented line. Max segment length set to 5
G01 X-65.55168 Y44.12002Z-0.32753
G01 X-65.56080 Y44.19782Z-0.32757
G01 X-65.60563 Y44.30605Z-0.32759
G01 X-69.13880 Y47.84395Z-0.32464 ;segmented line. Max segment length set to 5
G01 X-72.67196 Y51.38185Z-0.32030 ;segmented line. Max segment length set to 5
G01 X-75.21001 Y53.92330Z-0.31633
G01 X-75.31468 Y53.99498Z-0.31615
G01 X-75.45748 Y54.02581Z-0.31588
G01 X-76.19619 Y54.02581Z-0.31448
G01 X-76.30144 Y54.18032Z-0.31430
G01 X-76.42738 Y54.29150Z-0.31407
G01 X-76.56487 Y54.36838Z-0.31382
G01 X-76.69492 Y54.41062Z-0.31357
G01 X-76.86179 Y54.42980Z-0.31326
G01 X-78.16979 Y54.42980Z-0.31075
G01 X-78.32656 Y54.41334Z-0.31045
G01 X-78.48579 Y54.35987Z-0.31014
G01 X-78.62110 Y54.27923Z-0.30997
G01 X-78.73012 Y54.18032Z-0.30993
G01 X-78.83537 Y54.02581Z-0.30988
G01 X-83.83537 Y54.02581Z-0.30776 ;segmented line. Max segment length set to 5
G01 X-85.72530 Y54.02581Z-0.30695
G01 X-89.26083 Y57.56134Z-0.30501 ;segmented line. Max segment length set to 5
G01 X-92.79636 Y61.09687Z-0.30168 ;segmented line. Max segment length set to 5
G01 X-96.33189 Y64.63240Z-0.29670 ;segmented line. Max segment length set to 5
G01 X-99.86742 Y68.16794Z-0.29005 ;segmented line. Max segment length set to 5
G01 X-103.40295 Y71.70347Z-0.28249 ;segmented line. Max segment length set to 5
G01 X-106.93848 Y75.23900Z-0.27335 ;segmented line. Max segment length set to 5
G01 X-110.47401 Y78.77453Z-0.26226 ;segmented line. Max segment length set to 5
G01 X-111.22357 Y79.52409Z-0.25928
G01 X-111.22357 Y80.09251Z-0.25797
G01 X-111.05370 Y80.16876Z-0.25811
G01 X-110.88596 Y80.28995Z-0.25815
G01 X-110.73239 Y80.45807Z-0.25806
G01 X-110.61994 Y80.65609Z-0.25783
G01 X-110.55652 Y80.85307Z-0.25751
G01 X-110.53379 Y81.06924Z-0.25708
G01 X-110.53379 Y82.94884Z-0.25291
G01 X-110.55652 Y83.16505Z-0.25238
G01 X-110.62845 Y83.38110Z-0.25174
G01 X-110.73897 Y83.56817Z-0.25107
G01 X-110.88596 Y83.72817Z-0.25038
G01 X-111.05370 Y83.84935Z-0.24972
G01 X-111.22360 Y83.92560Z-0.24915
G01 X-111.22357 Y84.49395Z-0.24785
G01 X-110.42822 Y85.28930Z-0.24798
G01 X-105.42822 Y85.28930Z-0.26034 ;segmented line. Max segment length set to 5
G01 X-100.61079 Y85.28930Z-0.27225
G01 X-100.48608 Y85.31264Z-0.27253
G01 X-100.40846 Y85.35415Z-0.27268
G01 X-96.87246 Y88.88922Z-0.27753 ;segmented line. Max segment length set to 5
G01 X-93.33646 Y92.42429Z-0.28342 ;segmented line. Max segment length set to 5
G01 X-89.80046 Y95.95936Z-0.29042 ;segmented line. Max segment length set to 5
G01 X-86.26446 Y99.49442Z-0.29731 ;segmented line. Max segment length set to 5
G01 X-82.72846 Y103.02949Z-0.29283 ;segmented line. Max segment length set to 5
G01 X-79.19246 Y106.56455Z-0.28974 ;segmented line. Max segment length set to 5
G01 X-75.65646 Y110.09961Z-0.28432 ;segmented line. Max segment length set to 5
G01 X-72.12046 Y113.63467Z-0.27923 ;segmented line. Max segment length set to 5
G01 X-72.04219 Y113.71292Z-0.27913
G01 X-67.04219 Y113.71292Z-0.29044 ;segmented line. Max segment length set to 5
G01 X-62.04219 Y113.71292Z-0.30174 ;segmented line. Max segment length set to 5
G01 X-57.04219 Y113.71292Z-0.31305 ;segmented line. Max segment length set to 5
G01 X-52.04219 Y113.71292Z-0.31807 ;segmented line. Max segment length set to 5
G01 X-47.04219 Y113.71292Z-0.32295 ;segmented line. Max segment length set to 5
G01 X-43.14627 Y113.71292Z-0.32675
G01 X-39.61074 Y110.17739Z-0.34306 ;segmented line. Max segment length set to 5
G01 X-36.50178 Y107.06843Z-0.35831
G01 X-36.50178 Y106.48324Z-0.36052
G01 X-36.58557 Y106.44357Z-0.36056
G01 X-36.71242 Y106.35139Z-0.36074
G01 X-36.83945 Y106.21276Z-0.36110
G01 X-36.92829 Y106.05886Z-0.36156
G01 X-36.98486 Y105.87953Z-0.36216
G01 X-37.00178 Y105.71314Z-0.36276
G01 X-37.00124 Y104.70267Z-0.36656
G01 X-36.98321 Y104.53641Z-0.36721
G01 X-36.93205 Y104.37717Z-0.36787
G01 X-36.83287 Y104.20539Z-0.36866
G01 X-36.72794 Y104.08886Z-0.36924
G01 X-36.58557 Y103.98271Z-0.36984
G01 X-36.41445 Y103.90473Z-0.37038
G01 X-36.23018 Y103.86724Z-0.37078
G01 X-36.06294 Y103.86780Z-0.37101
G01 X-35.88913 Y103.90473Z-0.37112
G01 X-35.71801 Y103.98271Z-0.37106
G01 X-35.57562 Y104.08886Z-0.37086
G01 X-35.46411 Y104.21352Z-0.37054
G01 X-35.37526 Y104.36742Z-0.37007
G01 X-35.32307 Y104.52630Z-0.36954
G01 X-35.30178 Y104.71314Z-0.36883
G04 P0 ( dwell for no time -- G64 should not smooth over this point )
G00 Z5.00000 ( retract )

G00 X-37.84178 Y104.71314 ( rapid move to begin. )
G01 F300.00000
G01 Z-0.36536
G04 P0 ( dwell for no time -- G64 should not smooth over this point )
G01 F600.00000
G01 X-37.84178 Y104.71314Z-0.36536
G01 X-37.84178 Y105.71314Z-0.36165
G01 X-37.85872 Y105.87953Z-0.36101
G01 X-37.91526 Y106.05886Z-0.36026
G01 X-38.01072 Y106.22088Z-0.35954
G01 X-38.13116 Y106.35139Z-0.35890
G01 X-38.27612 Y106.45400Z-0.35833
G01 X-38.42913 Y106.52154Z-0.35788
G01 X-38.60294 Y106.55847Z-0.35752
G01 X-38.78064 Y106.55847Z-0.35729
G01 X-38.95445 Y106.52154Z-0.35720
G01 X-39.10746 Y106.45400Z-0.35725
G01 X-39.25242 Y106.35139Z-0.35744
G01 X-39.37945 Y106.21276Z-0.35778
G01 X-39.46829 Y106.05886Z-0.35822
G01 X-39.52321 Y105.88987Z-0.35877
G01 X-39.54124 Y105.72360Z-0.35935
G01 X-39.54178 Y104.71314Z-0.36303
G01 X-39.52486 Y104.54674Z-0.36366
G01 X-39.46829 Y104.36742Z-0.36439
G01 X-39.37287 Y104.20539Z-0.36511
G01 X-39.26055 Y104.08147Z-0.36572
G01 X-39.12557 Y103.98271Z-0.36627
G01 X-38.95445 Y103.90473Z-0.36680
G01 X-38.77018 Y103.86724Z-0.36719
G01 X-38.60294 Y103.86780Z-0.36743
G01 X-38.42913 Y103.90473Z-0.36754
G01 X-38.25801 Y103.98271Z-0.36749
G01 X-38.11562 Y104.08886Z-0.36730
G01 X-38.00411 Y104.21352Z-0.36699
G01 X-37.91526 Y104.36742Z-0.36654
G01 X-37.86307 Y104.52630Z-0.36603
G01 X-37.84178 Y104.71314Z-0.36536
G04 P0 ( dwell for no time -- G64 should not smooth over this point )
G00 Z5.00000 ( retract )

G00 X-42.92178 Y104.71314 ( rapid move to begin. )
G01 F300.00000
G01 Z-0.35838
G04 P0 ( dwell for no time -- G64 should not smooth over this point )
G01 F600.00000
G01 X-42.92178 Y104.71314Z-0.35838
G01 X-42.92178 Y105.71314Z-0.35489
G01 X-42.93872 Y105.87953Z-0.35429
G01 X-42.99526 Y106.05886Z-0.35359
G01 X-43.09072 Y106.22088Z-0.35290
G01 X-43.20303 Y106.34481Z-0.35232
G01 X-43.35612 Y106.45400Z-0.35174
G01 X-43.50913 Y106.52154Z-0.35131
G01 X-43.68294 Y106.55847Z-0.35096
G01 X-43.86064 Y106.55847Z-0.35073
G01 X-44.03445 Y106.52154Z-0.35063
G01 X-44.18746 Y106.45400Z-0.35066
G01 X-44.33242 Y106.35139Z-0.35083
G01 X-44.45945 Y106.21276Z-0.35114
G01 X-44.54829 Y106.05886Z-0.35155
G01 X-44.60321 Y105.88987Z-0.35205
G01 X-44.62124 Y105.72360Z-0.35260
G01 X-44.62178 Y104.71314Z-0.35605
G01 X-44.60486 Y104.54674Z-0.35664
G01 X-44.54829 Y104.36742Z-0.35733
G01 X-44.45287 Y104.20539Z-0.35802
G01 X-44.34794 Y104.08886Z-0.35856
G01 X-44.20557 Y103.98271Z-0.35913
G01 X-44.03445 Y103.90473Z-0.35964
G01 X-43.85018 Y103.86724Z-0.36002
G01 X-43.68294 Y103.86780Z-0.36026
G01 X-43.50913 Y103.90473Z-0.36038
G01 X-43.35612 Y103.97227Z-0.36036
G01 X-43.21116 Y104.07489Z-0.36020
G01 X-43.07842 Y104.22231Z-0.35988
G01 X-42.99526 Y104.36742Z-0.35949
G01 X-42.94307 Y104.52630Z-0.35901
G01 X-42.92178 Y104.71314Z-0.35838
G04 P0 ( dwell for no time -- G64 should not smooth over this point )
G00 Z5.00000 ( retract )

G00 X-45.46178 Y104.71314 ( rapid move to begin. )
G01 F300.00000
G01 Z-0.35489
G04 P0 ( dwell for no time -- G64 should not smooth over this point )
G01 F600.00000
G01 X-45.46178 Y104.71314Z-0.35489
G01 X-45.46178 Y105.71314Z-0.35151
G01 X-45.47872 Y105.87953Z-0.35093
G01 X-45.53526 Y106.05886Z-0.35025
G01 X-45.63072 Y106.22088Z-0.34958
G01 X-45.75116 Y106.35139Z-0.34898
G01 X-45.89612 Y106.45400Z-0.34845
G01 X-46.04913 Y106.52154Z-0.34802
G01 X-46.22294 Y106.55847Z-0.34768
G01 X-46.40064 Y106.55847Z-0.34745
G01 X-46.57445 Y106.52154Z-0.34734
G01 X-46.72746 Y106.45400Z-0.34737
G01 X-46.87242 Y106.35139Z-0.34752
G01 X-46.99945 Y106.21276Z-0.34782
G01 X-47.08829 Y106.05886Z-0.34821
G01 X-47.14321 Y105.88987Z-0.34869
G01 X-47.16124 Y105.72360Z-0.34922
G01 X-47.16178 Y104.71314Z-0.35256
G01 X-47.14486 Y104.54674Z-0.35313
G01 X-47.08829 Y104.36742Z-0.35380
G01 X-46.99287 Y104.20539Z-0.35447
G01 X-46.88794 Y104.08886Z-0.35500
G01 X-46.74557 Y103.98271Z-0.35556
G01 X-46.57445 Y103.90473Z-0.35606
G01 X-46.39018 Y103.86724Z-0.35644
G01 X-46.22294 Y103.86780Z-0.35667
G01 X-46.04913 Y103.90473Z-0.35680
G01 X-45.87801 Y103.98271Z-0.35678
G01 X-45.73562 Y104.08886Z-0.35662
G01 X-45.62411 Y104.21352Z-0.35635
G01 X-45.53526 Y104.36742Z-0.35596
G01 X-45.48307 Y104.52630Z-0.35549
G01 X-45.46178 Y104.71314Z-0.35489
G04 P0 ( dwell for no time -- G64 should not smooth over this point )
G00 Z5.00000 ( retract )

G00 X-48.00178 Y104.71314 ( rapid move to begin. )
G01 F300.00000
G01 Z-0.35140
G04 P0 ( dwell for no time -- G64 should not smooth over this point )
G01 F600.00000
G01 X-48.00178 Y104.71314Z-0.35140
G01 X-48.00178 Y105.71314Z-0.34814
G01 X-48.01872 Y105.87953Z-0.34757
G01 X-48.07526 Y106.05886Z-0.34691
G01 X-48.17072 Y106.22088Z-0.34626
G01 X-48.28303 Y106.34481Z-0.34571
G01 X-48.43612 Y106.45400Z-0.34515
G01 X-48.58913 Y106.52154Z-0.34474
G01 X-48.76294 Y106.55847Z-0.34439
G01 X-48.94064 Y106.55847Z-0.34416
G01 X-49.11445 Y106.52154Z-0.34406
G01 X-49.26746 Y106.45400Z-0.34408
G01 X-49.41242 Y106.35139Z-0.34422
G01 X-49.53945 Y106.21276Z-0.34450
G01 X-49.62829 Y106.05886Z-0.34487
G01 X-49.68321 Y105.88987Z-0.34534
G01 X-49.70124 Y105.72360Z-0.34584
G01 X-49.70178 Y104.71314Z-0.34907
G01 X-49.68486 Y104.54674Z-0.34962
G01 X-49.62829 Y104.36742Z-0.35027
G01 X-49.53287 Y104.20539Z-0.35092
G01 X-49.42794 Y104.08886Z-0.35144
G01 X-49.28557 Y103.98271Z-0.35198
G01 X-49.11445 Y103.90473Z-0.35248
G01 X-48.93018 Y103.86724Z-0.35286
G01 X-48.76294 Y103.86780Z-0.35309
G01 X-48.58913 Y103.90473Z-0.35322
G01 X-48.41801 Y103.98271Z-0.35320
G01 X-48.27562 Y104.08886Z-0.35306
G01 X-48.16411 Y104.21352Z-0.35281
G01 X-48.07526 Y104.36742Z-0.35243
G01 X-48.02307 Y104.52630Z-0.35198
G01 X-48.00178 Y104.71314Z-0.35140
G04 P0 ( dwell for no time -- G64 should not smooth over this point )
G00 Z5.00000 ( retract )

G00 X-50.54178 Y104.71314 ( rapid move to begin. )
G01 F300.00000
G01 Z-0.34791
G04 P0 ( dwell for no time -- G64 should not smooth over this point )
G01 F600.00000
G01 X-50.54178 Y104.71314Z-0.34791
G01 X-50.54178 Y105.71314Z-0.34476
G01 X-50.55872 Y105.87953Z-0.34421
G01 X-50.61526 Y106.05886Z-0.34357
G01 X-50.71072 Y106.22088Z-0.34294
G01 X-50.83116 Y106.35139Z-0.34237
G01 X-50.97612 Y106.45400Z-0.34186
G01 X-51.12913 Y106.52154Z-0.34145
G01 X-51.30294 Y106.55847Z-0.34111
G01 X-51.48064 Y106.55847Z-0.34088
G01 X-51.65445 Y106.52154Z-0.34077
G01 X-51.80746 Y106.45400Z-0.34078
G01 X-51.95242 Y106.35139Z-0.34091
G01 X-52.07945 Y106.21276Z-0.34117
G01 X-52.16829 Y106.05886Z-0.34153
G01 X-52.22321 Y105.88987Z-0.34198
G01 X-52.24124 Y105.72360Z-0.34247
G01 X-52.24178 Y104.71314Z-0.34558
G01 X-52.22486 Y104.54674Z-0.34611
G01 X-52.16829 Y104.36742Z-0.34674
G01 X-52.07287 Y104.20539Z-0.34738
G01 X-51.96055 Y104.08147Z-0.34792
G01 X-51.82557 Y103.98271Z-0.34841
G01 X-51.65445 Y103.90473Z-0.34889
G01 X-51.47018 Y103.86724Z-0.34927
G01 X-51.30294 Y103.86780Z-0.34951
G01 X-51.12913 Y103.90473Z-0.34964
G01 X-50.95801 Y103.98271Z-0.34963
G01 X-50.81562 Y104.08886Z-0.34950
G01 X-50.70411 Y104.21352Z-0.34926
G01 X-50.61526 Y104.36742Z-0.34890
G01 X-50.56307 Y104.52630Z-0.34847
G01 X-50.54178 Y104.71314Z-0.34791
G04 P0 ( dwell for no time -- G64 should not smooth over this point )
G00 Z5.00000 ( retract )

G00 X-53.97045 Y141.20545 ( rapid move to begin. )
G01 F300.00000
G01 Z-0.12706
G04 P0 ( dwell for no time -- G64 should not smooth over this point )
G01 F600.00000
G01 X-53.97045 Y141.20545Z-0.12706
G01 X-53.97045 Y142.99615Z-0.12706
G01 X-53.99488 Y143.21321Z-0.12704
G01 X-54.06123 Y143.41032Z-0.12699
G01 X-54.16712 Y143.58934Z-0.12692
G01 X-54.29976 Y143.73585Z-0.12683
G01 X-54.46811 Y143.85815Z-0.12671
G01 X-54.64843 Y143.93905Z-0.12659
G01 X-54.86174 Y143.98606Z-0.12644
G01 X-55.05937 Y143.98659Z-0.12630
G01 X-55.27337 Y143.94280Z-0.12615
G01 X-55.45414 Y143.86292Z-0.12603
G01 X-55.63181 Y143.73585Z-0.12590
G01 X-55.77675 Y143.57242Z-0.12580
G01 X-55.87509 Y143.40100Z-0.12574
G01 X-55.94103 Y143.19277Z-0.12569
G01 X-55.96115 Y142.99615Z-0.12568
G01 X-55.96115 Y141.20545Z-0.12568
G01 X-55.93669 Y140.98840Z-0.12569
G01 X-55.87034 Y140.79130Z-0.12731
G01 X-55.77675 Y140.62920Z-0.12870
G01 X-55.63920 Y140.47316Z-0.13006
G01 X-55.45414 Y140.33870Z-0.13129
G01 X-55.27337 Y140.25881Z-0.13206
G01 X-55.08018 Y140.21721Z-0.13253
G01 X-54.87220 Y140.21502Z-0.13270
G01 X-54.66832 Y140.25612Z-0.13250
G01 X-54.45932 Y140.34916Z-0.13189
G01 X-54.29976 Y140.46577Z-0.13105
G01 X-54.16712 Y140.61228Z-0.12995
G01 X-54.05275 Y140.81037Z-0.12842
G01 X-53.99054 Y141.00885Z-0.12704
G01 X-53.97045 Y141.20545Z-0.12706
G04 P0 ( dwell for no time -- G64 should not smooth over this point )
G00 Z5.00000 ( retract )

G00 X-59.05045 Y141.20545 ( rapid move to begin. )
G01 F300.00000
G01 Z-0.12109
G04 P0 ( dwell for no time -- G64 should not smooth over this point )
G01 F600.00000
G01 X-59.05045 Y141.20545Z-0.12109
G01 X-59.05045 Y142.99615Z-0.12109
G01 X-59.07219 Y143.20311Z-0.12105
G01 X-59.14123 Y143.41032Z-0.12092
G01 X-59.24054 Y143.58121Z-0.12074
G01 X-59.37976 Y143.73585Z-0.12048
G01 X-59.55743 Y143.86292Z-0.12015
G01 X-59.73821 Y143.94280Z-0.11982
G01 X-59.93140 Y143.98441Z-0.11946
G01 X-60.13937 Y143.98659Z-0.11907
G01 X-60.35337 Y143.94280Z-0.11868
G01 X-60.53414 Y143.86292Z-0.11834
G01 X-60.71181 Y143.73585Z-0.11801
G01 X-60.85675 Y143.57242Z-0.11775
G01 X-60.95509 Y143.40100Z-0.11756
G01 X-61.02103 Y143.19277Z-0.11744
G01 X-61.04115 Y142.99615Z-0.11741
G01 X-61.04115 Y141.20545Z-0.11741
G01 X-61.01669 Y140.98840Z-0.11745
G01 X-60.95034 Y140.79130Z-0.11912
G01 X-60.85675 Y140.62920Z-0.12059
G01 X-60.71920 Y140.47316Z-0.12210
G01 X-60.53414 Y140.33870Z-0.12352
G01 X-60.35337 Y140.25881Z-0.12450
G01 X-60.16018 Y140.21721Z-0.12520
G01 X-59.95220 Y140.21502Z-0.12561
G01 X-59.74832 Y140.25612Z-0.12566
G01 X-59.53932 Y140.34916Z-0.12530
G01 X-59.37976 Y140.46577Z-0.12466
G01 X-59.24054 Y140.62041Z-0.12367
G01 X-59.14123 Y140.79130Z-0.12248
G01 X-59.07488 Y140.98840Z-0.12104
G01 X-59.05045 Y141.20545Z-0.12109
G04 P0 ( dwell for no time -- G64 should not smooth over this point )
G00 Z5.00000 ( retract )

G00 X-73.84138 Y120.36744 ( rapid move to begin. )
G01 F300.00000
G01 Z-0.24986
G04 P0 ( dwell for no time -- G64 should not smooth over this point )
G01 F600.00000
G01 X-73.84138 Y120.36744Z-0.24986
G01 X-73.87844 Y120.19304Z-0.25109
G01 X-73.93881 Y120.05880Z-0.25185
G01 X-74.03886 Y119.92388Z-0.25208
G01 X-74.14859 Y119.82581Z-0.25216
G01 X-74.29487 Y119.74323Z-0.25209
G01 X-74.44536 Y119.69665Z-0.25188
G01 X-74.59180 Y119.68182Z-0.25157
G01 X-75.89979 Y119.68182Z-0.24826
G01 X-76.05656 Y119.69828Z-0.24781
G01 X-76.19669 Y119.74323Z-0.24728
G01 X-76.34297 Y119.82581Z-0.24661
G01 X-76.46670 Y119.93942Z-0.24587
G01 X-76.56540 Y120.08580Z-0.24507
G01 X-81.56540 Y120.08580Z-0.22818 ;segmented line. Max segment length set to 5
G01 X-86.56540 Y120.08580Z-0.20853 ;segmented line. Max segment length set to 5
G01 X-91.56540 Y120.08580Z-0.18888 ;segmented line. Max segment length set to 5
G01 X-96.56540 Y120.08580Z-0.16922 ;segmented line. Max segment length set to 5
G01 X-101.56540 Y120.08580Z-0.14574 ;segmented line. Max segment length set to 5
G01 X-106.56540 Y120.08580Z-0.11220 ;segmented line. Max segment length set to 5
G01 X-111.56540 Y120.08580Z-0.07867 ;segmented line. Max segment length set to 5
G01 X-116.56540 Y120.08580Z-0.04513 ;segmented line. Max segment length set to 5
G01 X-121.56540 Y120.08580Z-0.01160 ;segmented line. Max segment length set to 5
G01 X-126.56540 Y120.08580Z0.03623 ;segmented line. Max segment length set to 5
G01 X-130.79133 Y120.08580Z0.07727
G01 X-133.57387 Y117.30323Z0.08009
G01 X-133.57387 Y116.73707Z0.07517
G01 X-133.38248 Y116.64946Z0.07261
G01 X-133.21924 Y116.53087Z0.07004
G01 X-133.05640 Y116.35002Z0.06695
G01 X-132.95076 Y116.16592Z0.06437
G01 X-132.88464 Y115.96425Z0.06201
G01 X-132.85922 Y115.74314Z0.05986
G01 X-132.85866 Y113.80228Z0.04310
G01 X-132.88030 Y113.59115Z0.04147
G01 X-132.95076 Y113.36903Z0.04020
G01 X-133.05640 Y113.18495Z0.03957
G01 X-133.24903 Y112.98247Z0.03956
G01 X-133.10832 Y112.82692Z0.03694
G01 X-133.00969 Y112.65717Z0.03458
G01 X-132.93941 Y112.44089Z0.03207
G01 X-132.91944 Y112.24559Z0.03020
G01 X-132.93941 Y112.05031Z0.02870
G01 X-133.00969 Y111.83400Z0.02746
G01 X-133.10832 Y111.66428Z0.02688
G01 X-133.23928 Y111.51803Z0.02678
G01 X-133.42328 Y111.38435Z0.02727
G01 X-133.60283 Y111.30500Z0.02818
G01 X-133.79473 Y111.26365Z0.02954
G01 X-134.02216 Y111.26365Z0.03157
G01 X-134.21405 Y111.30500Z0.03364
G01 X-134.39361 Y111.38435Z0.03595
G01 X-134.57021 Y111.51061Z0.03863
G01 X-134.70196 Y111.65613Z0.04109
G01 X-134.80717 Y111.83400Z0.04360
G01 X-134.87745 Y112.05031Z0.04614
G01 X-134.89744 Y112.24559Z0.04804
G01 X-134.87311 Y112.46133Z0.04972
G01 X-134.80717 Y112.65717Z0.05085
G01 X-134.71426 Y112.81813Z0.05143
G01 X-134.58088 Y112.96951Z0.05155
G01 X-134.64403 Y113.01808Z0.05255
G01 X-134.77905 Y113.16804Z0.05509
G01 X-134.89698 Y113.36903Z0.05794
G01 X-134.96307 Y113.57070Z0.06032
G01 X-134.98853 Y113.79184Z0.06250
G01 X-134.98906 Y115.73268Z0.07963
G01 X-134.96307 Y115.96425Z0.08143
G01 X-134.89698 Y116.16592Z0.08259
G01 X-134.78563 Y116.35879Z0.08325
G01 X-134.64403 Y116.51688Z0.08331
G01 X-134.45647 Y116.65518Z0.08276
G01 X-134.27387 Y116.73707Z0.08176
G01 X-134.26861 Y117.50679Z0.08845
G01 X-134.24306 Y117.59102Z0.08895
G01 X-134.17796 Y117.68842Z0.08918
G01 X-131.18378 Y120.68329Z0.08738
G01 X-131.07911 Y120.75497Z0.08711
G01 X-130.99486 Y120.78052Z0.08656
G01 X-125.99486 Y120.78101Z0.03774 ;segmented line. Max segment length set to 5
G01 X-120.99486 Y120.78149Z-0.00862 ;segmented line. Max segment length set to 5
G01 X-115.99486 Y120.78198Z-0.04222 ;segmented line. Max segment length set to 5
G01 X-110.99486 Y120.78246Z-0.07583 ;segmented line. Max segment length set to 5
G01 X-105.99486 Y120.78295Z-0.10943 ;segmented line. Max segment length set to 5
G01 X-100.99486 Y120.78343Z-0.14304 ;segmented line. Max segment length set to 5
G01 X-95.99486 Y120.78392Z-0.16521 ;segmented line. Max segment length set to 5
G01 X-90.99486 Y120.78440Z-0.18517 ;segmented line. Max segment length set to 5
G01 X-85.99486 Y120.78489Z-0.20513 ;segmented line. Max segment length set to 5
G01 X-80.99486 Y120.78537Z-0.22508 ;segmented line. Max segment length set to 5
G01 X-76.56540 Y120.78580Z-0.23983
G01 X-76.46670 Y120.93221Z-0.23898
G01 X-76.34297 Y121.04580Z-0.23844
G01 X-76.19669 Y121.12837Z-0.23819
G01 X-76.05656 Y121.17333Z-0.23821
G01 X-75.89979 Y121.18981Z-0.23848
G01 X-74.59180 Y121.18981Z-0.24175
G01 X-74.43503 Y121.17333Z-0.24227
G01 X-74.29487 Y121.12837Z-0.24296
G01 X-74.14859 Y121.04580Z-0.24395
G01 X-74.03886 Y120.94773Z-0.24497
G01 X-73.93881 Y120.81280Z-0.24624
G01 X-73.87844 Y120.67859Z-0.24741
G01 X-73.84191 Y120.51463Z-0.24875
G01 X-73.84138 Y120.36744Z-0.24986
G04 P0 ( dwell for no time -- G64 should not smooth over this point )
G00 Z5.00000 ( retract )

G00 X-72.83749 Y117.30191 ( rapid move to begin. )
G01 F300.00000
G01 Z-0.26450
G04 P0 ( dwell for no time -- G64 should not smooth over this point )
G01 F600.00000
G01 X-72.83749 Y117.30191Z-0.26450
G01 X-72.83749 Y122.30191Z-0.23769 ;segmented line. Max segment length set to 5
G01 X-72.83749 Y122.97582Z-0.23257
G01 X-72.86081 Y123.10050Z-0.23156
G01 X-72.90231 Y123.17815Z-0.23087
G01 X-73.00145 Y123.27188Z-0.22992
G01 X-73.12891 Y123.32052Z-0.22924
G01 X-73.92619 Y123.32580Z-0.22725
G01 X-74.02487 Y123.47221Z-0.22591
G01 X-74.15738 Y123.59151Z-0.22468
G01 X-74.29487 Y123.66837Z-0.22377
G01 X-74.43503 Y123.71333Z-0.22309
G01 X-74.58133 Y123.72926Z-0.22261
G01 X-75.89979 Y123.72981Z-0.21941
G01 X-76.05656 Y123.71333Z-0.21916
G01 X-76.19669 Y123.66837Z-0.21916
G01 X-76.34297 Y123.58580Z-0.21942
G01 X-76.46670 Y123.47221Z-0.21997
G01 X-76.56540 Y123.32580Z-0.22082
G01 X-77.15913 Y123.32583Z-0.21938
G01 X-77.47579 Y123.64249Z-0.21625
G01 X-77.47579 Y128.64249Z-0.17899 ;segmented line. Max segment length set to 5
G01 X-77.47579 Y133.64249Z-0.14172 ;segmented line. Max segment length set to 5
G01 X-77.47579 Y138.64249Z-0.10446 ;segmented line. Max segment length set to 5
G01 X-77.47579 Y140.27710Z-0.09228
G01 X-77.31932 Y140.34916Z-0.09204
G01 X-77.16791 Y140.45919Z-0.09150
G01 X-77.02712 Y140.61228Z-0.09062
G01 X-76.91648 Y140.80062Z-0.08942
G01 X-76.85488 Y140.98840Z-0.08815
G01 X-76.83045 Y141.20545Z-0.08820
G01 X-76.83045 Y142.99615Z-0.08820
G01 X-76.85488 Y143.21321Z-0.08815
G01 X-76.91648 Y143.40100Z-0.08804
G01 X-77.01483 Y143.57242Z-0.08786
G01 X-77.15976 Y143.73585Z-0.08759
G01 X-77.33743 Y143.86292Z-0.08726
G01 X-77.51821 Y143.94280Z-0.08693
G01 X-77.73220 Y143.98659Z-0.08653
G01 X-77.94018 Y143.98441Z-0.08615
G01 X-78.13337 Y143.94280Z-0.08579
G01 X-78.31414 Y143.86292Z-0.08545
G01 X-78.49181 Y143.73585Z-0.08513
G01 X-78.62445 Y143.58934Z-0.08463
G01 X-78.73883 Y143.39124Z-0.08397
G01 X-78.80103 Y143.19277Z-0.08361
G01 X-78.82115 Y142.99615Z-0.08349
G01 X-78.82115 Y141.20545Z-0.08349
G01 X-78.79669 Y140.98840Z-0.08363
G01 X-78.73509 Y140.80062Z-0.08536
G01 X-78.62445 Y140.61228Z-0.08739
G01 X-78.48366 Y140.45919Z-0.08904
G01 X-78.33225 Y140.34916Z-0.09014
G01 X-78.17579 Y140.27710Z-0.09097
G01 X-78.17422 Y135.27710Z-0.12812 ;segmented line. Max segment length set to 5
G01 X-78.17265 Y130.27710Z-0.16527 ;segmented line. Max segment length set to 5
G01 X-78.17108 Y125.27710Z-0.20242 ;segmented line. Max segment length set to 5
G01 X-78.17050 Y123.43893Z-0.21607
G01 X-78.14495 Y123.35471Z-0.21676
G01 X-78.07988 Y123.25730Z-0.21765
G01 X-77.49011 Y122.67975Z-0.22339
G01 X-77.42880 Y122.64915Z-0.22377
G01 X-77.31389 Y122.62629Z-0.22422
G01 X-76.56540 Y122.62580Z-0.22606
G01 X-76.46012 Y122.47130Z-0.22748
G01 X-76.35110 Y122.37239Z-0.22849
G01 X-76.21580 Y122.29174Z-0.22943
G01 X-76.05656 Y122.23828Z-0.23022
G01 X-75.89979 Y122.22182Z-0.23073
G01 X-74.59180 Y122.22182Z-0.23396
G01 X-74.44536 Y122.23665Z-0.23422
G01 X-74.29487 Y122.28323Z-0.23424
G01 X-74.14046 Y122.37239Z-0.23394
G01 X-74.02487 Y122.47942Z-0.23342
G01 X-73.92619 Y122.62580Z-0.23255
G01 X-73.53749 Y122.62580Z-0.23351
G01 X-73.53749 Y117.62580Z-0.26164 ;segmented line. Max segment length set to 5
G01 X-73.53749 Y117.44690Z-0.26229
G01 X-77.07302 Y113.91136Z-0.26701 ;segmented line. Max segment length set to 5
G01 X-80.60855 Y110.37582Z-0.27021 ;segmented line. Max segment length set to 5
G01 X-84.14408 Y106.84029Z-0.27284 ;segmented line. Max segment length set to 5
G01 X-87.67961 Y103.30476Z-0.27685 ;segmented line. Max segment length set to 5
G01 X-91.21514 Y99.76922Z-0.28224 ;segmented line. Max segment length set to 5
G01 X-94.75067 Y96.23369Z-0.27719 ;segmented line. Max segment length set to 5
G01 X-98.28620 Y92.69816Z-0.27093 ;segmented line. Max segment length set to 5
G01 X-101.82173 Y89.16263Z-0.26477 ;segmented line. Max segment length set to 5
G01 X-102.67866 Y88.30570Z-0.26333
G01 X-107.67866 Y88.30015Z-0.24915 ;segmented line. Max segment length set to 5
G01 X-110.87458 Y88.29661Z-0.24009
G01 X-110.98281 Y88.25178Z-0.23988
G01 X-111.04428 Y88.20319Z-0.23982
G01 X-114.25854 Y84.98892Z-0.23932
G01 X-116.49103 Y84.98892Z-0.23388
G01 X-120.02656 Y88.52445Z-0.21335 ;segmented line. Max segment length set to 5
G01 X-123.56209 Y92.05999Z-0.18328 ;segmented line. Max segment length set to 5
G01 X-127.09762 Y95.59552Z-0.14359 ;segmented line. Max segment length set to 5
G01 X-130.63315 Y99.13105Z-0.10085 ;segmented line. Max segment length set to 5
G01 X-134.16868 Y102.66658Z-0.04234 ;segmented line. Max segment length set to 5
G01 X-136.11387 Y104.61177Z-0.00910
G01 X-136.11387 Y105.17788Z-0.00405
G01 X-135.92248 Y105.26549Z-0.00487
G01 X-135.75924 Y105.38411Z-0.00519
G01 X-135.60869 Y105.54804Z-0.00500
G01 X-135.49076 Y105.74903Z-0.00421
G01 X-135.42030 Y105.97115Z-0.00284
G01 X-135.39866 Y106.18228Z-0.00115
G01 X-135.39866 Y108.11268Z0.01595
G01 X-135.42464 Y108.34425Z0.01822
G01 X-135.49076 Y108.54595Z0.02059
G01 X-135.60869 Y108.74691Z0.02340
G01 X-135.75124 Y108.90439Z0.02604
G01 X-135.81380 Y108.95022Z0.02699
G01 X-135.65489 Y109.11613Z0.02708
G01 X-135.54118 Y109.31310Z0.02783
G01 X-135.48375 Y109.48986Z0.02889
G01 X-135.45997 Y109.69515Z0.03051
G01 X-135.48375 Y109.92133Z0.03272
G01 X-135.54969 Y110.11717Z0.03504
G01 X-135.65489 Y110.29504Z0.03755
G01 X-135.77928 Y110.43317Z0.03987
G01 X-135.94517 Y110.55638Z0.04244
G01 X-136.14283 Y110.64620Z0.04500
G01 X-136.35550 Y110.68971Z0.04727
G01 X-136.56216 Y110.68752Z0.04909
G01 X-136.75405 Y110.64620Z0.05042
G01 X-136.94293 Y110.56210Z0.05134
G01 X-137.10208 Y110.44714Z0.05172
G01 X-137.24196 Y110.29504Z0.05158
G01 X-137.35194 Y110.10785Z0.05087
G01 X-137.41311 Y109.92133Z0.04972
G01 X-137.43688 Y109.69515Z0.04789
G01 X-137.41311 Y109.48986Z0.04582
G01 X-137.35568 Y109.31310Z0.04372
G01 X-137.24196 Y109.11613Z0.04095
G01 X-137.09868 Y108.96157Z0.03830
G01 X-137.18403 Y108.89688Z0.03846
G01 X-137.33135 Y108.73002Z0.03824
G01 X-137.43698 Y108.54595Z0.03750
G01 X-137.50742 Y108.32380Z0.03610
G01 X-137.52906 Y108.11268Z0.03438
G01 X-137.52906 Y106.18228Z0.01691
G01 X-137.50742 Y105.97115Z0.01482
G01 X-137.43698 Y105.74903Z0.01222
G01 X-137.31905 Y105.54804Z0.00941
G01 X-137.16848 Y105.38411Z0.00666
G01 X-137.00526 Y105.26549Z0.00422
G01 X-136.81387 Y105.17788Z0.00183
G01 X-136.80861 Y104.40824Z-0.00513
G01 X-136.78306 Y104.32399Z-0.00610
G01 X-136.71138 Y104.21931Z-0.00764
G01 X-133.17585 Y100.68378Z-0.06763 ;segmented line. Max segment length set to 5
G01 X-129.64032 Y97.14825Z-0.11766 ;segmented line. Max segment length set to 5
G01 X-126.10479 Y93.61272Z-0.15911 ;segmented line. Max segment length set to 5
G01 X-122.56926 Y90.07719Z-0.19752 ;segmented line. Max segment length set to 5
G01 X-119.03373 Y86.54166Z-0.22264 ;segmented line. Max segment length set to 5
G01 X-116.88348 Y84.39141Z-0.23471
G01 X-116.76070 Y84.31224Z-0.23524
G01 X-116.63598 Y84.28890Z-0.23560
G01 X-114.46360 Y84.28890Z-0.24071
G01 X-114.46360 Y83.92560Z-0.24168
G01 X-114.63350 Y83.84935Z-0.24150
G01 X-114.80121 Y83.72817Z-0.24145
G01 X-114.94823 Y83.56817Z-0.24155
G01 X-115.05875 Y83.38110Z-0.24182
G01 X-115.13068 Y83.16505Z-0.24226
G01 X-115.15339 Y82.94884Z-0.24281
G01 X-115.15339 Y81.06924Z-0.24803
G01 X-115.13230 Y80.86340Z-0.24864
G01 X-115.06725 Y80.65609Z-0.24934
G01 X-114.96052 Y80.46686Z-0.25007
G01 X-114.81676 Y80.30394Z-0.25079
G01 X-114.64229 Y80.17445Z-0.25146
G01 X-114.42481 Y80.07763Z-0.25213
G01 X-114.21183 Y80.03460Z-0.25263
G01 X-113.99456 Y80.03679Z-0.25302
G01 X-113.79228 Y80.08035Z-0.25328
G01 X-113.58491 Y80.17445Z-0.25342
G01 X-113.41783 Y80.29653Z-0.25341
G01 X-113.27897 Y80.44994Z-0.25328
G01 X-113.15994 Y80.65609Z-0.25298
G01 X-113.09489 Y80.86340Z-0.25258
G01 X-113.07379 Y81.06924Z-0.25210
G01 X-113.07379 Y82.94884Z-0.24736
G01 X-113.09489 Y83.15471Z-0.24679
G01 X-113.15994 Y83.36200Z-0.24612
G01 X-113.27897 Y83.56817Z-0.24533
G01 X-113.42596 Y83.72817Z-0.24458
G01 X-113.58491 Y83.84364Z-0.24392
G01 X-113.76357 Y83.92558Z-0.24330
G01 X-113.76357 Y84.49393Z-0.24182
G01 X-110.65179 Y87.60573Z-0.24226
G01 X-105.65179 Y87.60572Z-0.25603 ;segmented line. Max segment length set to 5
G01 X-102.53368 Y87.60571Z-0.26461
G01 X-102.40899 Y87.62905Z-0.26493
G01 X-102.33136 Y87.67055Z-0.26509
G01 X-98.79538 Y91.20563Z-0.27100 ;segmented line. Max segment length set to 5
G01 X-95.25940 Y94.74071Z-0.27695 ;segmented line. Max segment length set to 5
G01 X-91.72342 Y98.27579Z-0.28401 ;segmented line. Max segment length set to 5
G01 X-88.18744 Y101.81087Z-0.28184 ;segmented line. Max segment length set to 5
G01 X-84.65146 Y105.34595Z-0.27744 ;segmented line. Max segment length set to 5
G01 X-81.11548 Y108.88103Z-0.27443 ;segmented line. Max segment length set to 5
G01 X-77.57950 Y112.41611Z-0.27152 ;segmented line. Max segment length set to 5
G01 X-74.04352 Y115.95119Z-0.26648 ;segmented line. Max segment length set to 5
G01 X-72.94001 Y117.05442Z-0.26514
G01 X-72.86081 Y117.17720Z-0.26489
G01 X-72.83749 Y117.30191Z-0.26450
G04 P0 ( dwell for no time -- G64 should not smooth over this point )
G00 Z5.00000 ( retract )

G00 X-73.84138 Y117.82744 ( rapid move to begin. )
G01 F300.00000
G01 Z-0.26017
G04 P0 ( dwell for no time -- G64 should not smooth over this point )
G01 F600.00000
G01 X-73.84138 Y117.82744Z-0.26017
G01 X-73.84191 Y117.97463Z-0.25964
G01 X-73.87844 Y118.13859Z-0.25895
G01 X-73.93881 Y118.27280Z-0.25832
G01 X-74.02487 Y118.39221Z-0.25767
G01 X-74.15738 Y118.51151Z-0.25691
G01 X-74.29487 Y118.58837Z-0.25629
G01 X-74.42492 Y118.63061Z-0.25582
G01 X-74.59180 Y118.64981Z-0.25533
G01 X-75.89979 Y118.64981Z-0.25209
G01 X-76.04623 Y118.63498Z-0.25178
G01 X-76.19669 Y118.58837Z-0.25158
G01 X-76.35110 Y118.49922Z-0.25153
G01 X-76.46012 Y118.40034Z-0.25163
G01 X-76.56540 Y118.24580Z-0.25195
G01 X-77.15910 Y118.24580Z-0.25049
G01 X-77.68346 Y118.76267Z-0.24724
G01 X-77.76108 Y118.80417Z-0.24689
G01 X-77.88579 Y118.82751Z-0.24649
G01 X-82.88579 Y118.82746Z-0.22811 ;segmented line. Max segment length set to 5
G01 X-87.88579 Y118.82741Z-0.20881 ;segmented line. Max segment length set to 5
G01 X-92.88579 Y118.82737Z-0.18950 ;segmented line. Max segment length set to 5
G01 X-97.88579 Y118.82732Z-0.17020 ;segmented line. Max segment length set to 5
G01 X-102.88579 Y118.82728Z-0.14362 ;segmented line. Max segment length set to 5
G01 X-107.88579 Y118.82723Z-0.11085 ;segmented line. Max segment length set to 5
G01 X-112.88579 Y118.82719Z-0.07808 ;segmented line. Max segment length set to 5
G01 X-117.88579 Y118.82714Z-0.04532 ;segmented line. Max segment length set to 5
G01 X-122.88579 Y118.82710Z-0.00926 ;segmented line. Max segment length set to 5
G01 X-127.88579 Y118.82705Z0.03874 ;segmented line. Max segment length set to 5
G01 X-130.36438 Y118.82703Z0.06253
G01 X-130.49740 Y118.79668Z0.06356
G01 X-130.59481 Y118.73158Z0.06394
G01 X-131.66905 Y117.65055Z0.06503
G01 X-131.71055 Y117.57291Z0.06476
G01 X-131.73341 Y117.45802Z0.06399
G01 X-131.73387 Y116.73707Z0.05784
G01 X-131.91647 Y116.65518Z0.05886
G01 X-132.08848 Y116.53087Z0.05942
G01 X-132.23905 Y116.36691Z0.05943
G01 X-132.35698 Y116.16592Z0.05881
G01 X-132.42307 Y115.96425Z0.05769
G01 X-132.44906 Y115.73268Z0.05594
G01 X-132.44906 Y113.80228Z0.03935
G01 X-132.42742 Y113.59115Z0.03733
G01 X-132.35698 Y113.36903Z0.03478
G01 X-132.25135 Y113.18495Z0.03224
G01 X-132.10403 Y113.01808Z0.02947
G01 X-132.04088 Y112.96951Z0.02848
G01 X-132.17426 Y112.81813Z0.02839
G01 X-132.27194 Y112.64785Z0.02782
G01 X-132.33745 Y112.44089Z0.02663
G01 X-132.35688 Y112.23515Z0.02504
G01 X-132.33311 Y112.02986Z0.02306
G01 X-132.27568 Y111.85310Z0.02103
G01 X-132.16196 Y111.65613Z0.01832
G01 X-132.03021 Y111.51061Z0.01590
G01 X-131.87172 Y111.39479Z0.01349
G01 X-131.67405 Y111.30500Z0.01095
G01 X-131.48216 Y111.26365Z0.00889
G01 X-131.27550 Y111.26146Z0.00702
G01 X-131.07294 Y111.30228Z0.00556
G01 X-130.86517 Y111.39479Z0.00449
G01 X-130.70667 Y111.51061Z0.00405
G01 X-130.57489 Y111.65613Z0.00409
G01 X-130.46118 Y111.85310Z0.00473
G01 X-130.40375 Y112.02986Z0.00570
G01 X-130.37997 Y112.23515Z0.00722
G01 X-130.40375 Y112.46133Z0.00934
G01 X-130.46494 Y112.64785Z0.01146
G01 X-130.56263 Y112.81813Z0.01378
G01 X-130.70901 Y112.98247Z0.01649
G01 X-130.51640 Y113.18495Z0.01645
G01 X-130.41076 Y113.36903Z0.01704
G01 X-130.34030 Y113.59115Z0.01826
G01 X-130.31866 Y113.80228Z0.01984
G01 X-130.31866 Y115.73268Z0.03608
G01 X-130.34030 Y115.94380Z0.03805
G01 X-130.41076 Y116.16592Z0.04058
G01 X-130.52869 Y116.36691Z0.04338
G01 X-130.67924 Y116.53087Z0.04617
G01 X-130.85127 Y116.65518Z0.04884
G01 X-131.03387 Y116.73707Z0.05125
G01 X-131.03387 Y117.30323Z0.05605
G01 X-130.20962 Y118.12751Z0.05517
G01 X-125.20962 Y118.12751Z0.00748 ;segmented line. Max segment length set to 5
G01 X-120.20962 Y118.12751Z-0.03531 ;segmented line. Max segment length set to 5
G01 X-115.20962 Y118.12751Z-0.06765 ;segmented line. Max segment length set to 5
G01 X-110.20962 Y118.12751Z-0.09999 ;segmented line. Max segment length set to 5
G01 X-105.20962 Y118.12751Z-0.13233 ;segmented line. Max segment length set to 5
G01 X-100.20962 Y118.12751Z-0.16468 ;segmented line. Max segment length set to 5
G01 X-95.20962 Y118.12751Z-0.18385 ;segmented line. Max segment length set to 5
G01 X-90.20962 Y118.12751Z-0.20296 ;segmented line. Max segment length set to 5
G01 X-85.20962 Y118.12751Z-0.22208 ;segmented line. Max segment length set to 5
G01 X-80.20962 Y118.12751Z-0.24119 ;segmented line. Max segment length set to 5
G01 X-78.03075 Y118.12751Z-0.24879
G01 X-77.55158 Y117.64832Z-0.25178
G01 X-77.44691 Y117.57664Z-0.25231
G01 X-77.30408 Y117.54580Z-0.25277
G01 X-76.56540 Y117.54580Z-0.25457
G01 X-76.46670 Y117.39942Z-0.25536
G01 X-76.33421 Y117.28012Z-0.25612
G01 X-76.19669 Y117.20323Z-0.25674
G01 X-76.06667 Y117.16099Z-0.25721
G01 X-75.89979 Y117.14182Z-0.25769
G01 X-74.59180 Y117.14182Z-0.26084
G01 X-74.43503 Y117.15828Z-0.26116
G01 X-74.29487 Y117.20323Z-0.26134
G01 X-74.14046 Y117.29239Z-0.26138
G01 X-74.03886 Y117.38388Z-0.26130
G01 X-73.94450 Y117.51004Z-0.26107
G01 X-73.87844 Y117.65304Z-0.26071
G01 X-73.84138 Y117.82744Z-0.26017
G04 P0 ( dwell for no time -- G64 should not smooth over this point )
G00 Z5.00000 ( retract )

G00 X-87.13866 Y113.80228 ( rapid move to begin. )
G01 F300.00000
G01 Z-0.23331
G04 P0 ( dwell for no time -- G64 should not smooth over this point )
G01 F600.00000
G01 X-87.13866 Y113.80228Z-0.23331
G01 X-87.13866 Y115.73268Z-0.22501
G01 X-87.16195 Y115.95414Z-0.22397
G01 X-87.23551 Y116.17527Z-0.22274
G01 X-87.34211 Y116.35879Z-0.22155
G01 X-87.49924 Y116.53087Z-0.22023
G01 X-87.68059 Y116.65993Z-0.21899
G01 X-87.87470 Y116.74575Z-0.21789
G01 X-88.08219 Y116.79041Z-0.21692
G01 X-88.30475 Y116.79259Z-0.21608
G01 X-88.53304 Y116.74575Z-0.21542
G01 X-88.72715 Y116.65993Z-0.21507
G01 X-88.91663 Y116.52427Z-0.21496
G01 X-89.06563 Y116.35879Z-0.21514
G01 X-89.17698 Y116.16592Z-0.21557
G01 X-89.24742 Y115.94380Z-0.21629
G01 X-89.26906 Y115.73268Z-0.21715
G01 X-89.26906 Y113.80228Z-0.22568
G01 X-89.24307 Y113.57070Z-0.22679
G01 X-89.17698 Y113.36903Z-0.22792
G01 X-89.06563 Y113.17617Z-0.22917
G01 X-88.92403 Y113.01808Z-0.23037
G01 X-88.86088 Y112.96951Z-0.23080
G01 X-88.98857 Y112.82692Z-0.23098
G01 X-89.08717 Y112.65717Z-0.23138
G01 X-89.15311 Y112.46133Z-0.23201
G01 X-89.17688 Y112.25605Z-0.23283
G01 X-89.15583 Y112.03997Z-0.23386
G01 X-89.09568 Y111.85310Z-0.23490
G01 X-88.98857 Y111.66428Z-0.23610
G01 X-88.85760 Y111.51803Z-0.23720
G01 X-88.69172 Y111.39479Z-0.23831
G01 X-88.49405 Y111.30500Z-0.23939
G01 X-88.30216 Y111.26365Z-0.24023
G01 X-88.09550 Y111.26146Z-0.24095
G01 X-87.89294 Y111.30228Z-0.24147
G01 X-87.70328 Y111.38435Z-0.24177
G01 X-87.53480 Y111.50403Z-0.24183
G01 X-87.38263 Y111.67304Z-0.24163
G01 X-87.28118 Y111.85310Z-0.24120
G01 X-87.22106 Y112.03997Z-0.24061
G01 X-87.19997 Y112.23515Z-0.23984
G01 X-87.21941 Y112.44089Z-0.23888
G01 X-87.28969 Y112.65717Z-0.23771
G01 X-87.38832 Y112.82692Z-0.23663
G01 X-87.52934 Y112.98224Z-0.23546
G01 X-87.34211 Y113.17617Z-0.23528
G01 X-87.23551 Y113.35971Z-0.23487
G01 X-87.16195 Y113.58081Z-0.23418
G01 X-87.13866 Y113.80228Z-0.23331
G04 P0 ( dwell for no time -- G64 should not smooth over this point )
G00 Z5.00000 ( retract )

G00 X-89.67866 Y113.80228 ( rapid move to begin. )
G01 F300.00000
G01 Z-0.22421
G04 P0 ( dwell for no time -- G64 should not smooth over this point )
G01 F600.00000
G01 X-89.67866 Y113.80228Z-0.22421
G01 X-89.67866 Y115.73268Z-0.21563
G01 X-89.70464 Y115.96425Z-0.21451
G01 X-89.77551 Y116.17527Z-0.21331
G01 X-89.88211 Y116.35879Z-0.21209
G01 X-90.03924 Y116.53087Z-0.21074
G01 X-90.22059 Y116.65993Z-0.20949
G01 X-90.41470 Y116.74575Z-0.20838
G01 X-90.62219 Y116.79041Z-0.20740
G01 X-90.84475 Y116.79259Z-0.20655
G01 X-91.07304 Y116.74575Z-0.20591
G01 X-91.26715 Y116.65993Z-0.20557
G01 X-91.45663 Y116.52427Z-0.20548
G01 X-91.60563 Y116.35879Z-0.20567
G01 X-91.71223 Y116.17527Z-0.20611
G01 X-91.78579 Y115.95414Z-0.20685
G01 X-91.80906 Y115.73268Z-0.20777
G01 X-91.80906 Y113.80228Z-0.21658
G01 X-91.78579 Y113.58081Z-0.21767
G01 X-91.71223 Y113.35971Z-0.21894
G01 X-91.60563 Y113.17617Z-0.22015
G01 X-91.46403 Y113.01808Z-0.22138
G01 X-91.40088 Y112.96951Z-0.22182
G01 X-91.52857 Y112.82692Z-0.22201
G01 X-91.62717 Y112.65717Z-0.22244
G01 X-91.69311 Y112.46133Z-0.22310
G01 X-91.71744 Y112.24559Z-0.22400
G01 X-91.69311 Y112.02986Z-0.22506
G01 X-91.63194 Y111.84333Z-0.22613
G01 X-91.52857 Y111.66428Z-0.22730
G01 X-91.39760 Y111.51803Z-0.22842
G01 X-91.23172 Y111.39479Z-0.22955
G01 X-91.03405 Y111.30500Z-0.23064
G01 X-90.84216 Y111.26365Z-0.23148
G01 X-90.63550 Y111.26146Z-0.23220
G01 X-90.43294 Y111.30228Z-0.23272
G01 X-90.24328 Y111.38435Z-0.23300
G01 X-90.07480 Y111.50403Z-0.23305
G01 X-89.92263 Y111.67304Z-0.23282
G01 X-89.82118 Y111.85310Z-0.23238
G01 X-89.76106 Y112.03997Z-0.23175
G01 X-89.73997 Y112.23515Z-0.23096
G01 X-89.75941 Y112.44089Z-0.22997
G01 X-89.82969 Y112.65717Z-0.22877
G01 X-89.92832 Y112.82692Z-0.22766
G01 X-90.06901 Y112.98247Z-0.22647
G01 X-89.88211 Y113.17617Z-0.22627
G01 X-89.77076 Y113.36903Z-0.22581
G01 X-89.70464 Y113.57070Z-0.22515
G01 X-89.67866 Y113.80228Z-0.22421
G04 P0 ( dwell for no time -- G64 should not smooth over this point )
G00 Z5.00000 ( retract )

G00 X-92.21866 Y113.80228 ( rapid move to begin. )
G01 F300.00000
G01 Z-0.21511
G04 P0 ( dwell for no time -- G64 should not smooth over this point )
G01 F600.00000
G01 X-92.21866 Y113.80228Z-0.21511
G01 X-92.21866 Y115.73268Z-0.20626
G01 X-92.24464 Y115.96425Z-0.20510
G01 X-92.31551 Y116.17527Z-0.20387
G01 X-92.42211 Y116.35879Z-0.20263
G01 X-92.57924 Y116.53087Z-0.20126
G01 X-92.76059 Y116.65993Z-0.19998
G01 X-92.95470 Y116.74575Z-0.19886
G01 X-93.16219 Y116.79041Z-0.19788
G01 X-93.38475 Y116.79259Z-0.19703
G01 X-93.61304 Y116.74575Z-0.19640
G01 X-93.80715 Y116.65993Z-0.19607
G01 X-93.98848 Y116.53087Z-0.19599
G01 X-94.14563 Y116.35879Z-0.19621
G01 X-94.25223 Y116.17527Z-0.19668
G01 X-94.32579 Y115.95414Z-0.19745
G01 X-94.34906 Y115.73268Z-0.19840
G01 X-94.34906 Y113.80228Z-0.20748
G01 X-94.32579 Y113.58081Z-0.20860
G01 X-94.25223 Y113.35971Z-0.20990
G01 X-94.14563 Y113.17617Z-0.21114
G01 X-94.00403 Y113.01808Z-0.21238
G01 X-93.94088 Y112.96951Z-0.21283
G01 X-94.06857 Y112.82692Z-0.21305
G01 X-94.16717 Y112.65717Z-0.21350
G01 X-94.23311 Y112.46133Z-0.21419
G01 X-94.25744 Y112.24559Z-0.21511
G01 X-94.23311 Y112.02986Z-0.21621
G01 X-94.16717 Y111.83400Z-0.21736
G01 X-94.06857 Y111.66428Z-0.21850
G01 X-93.93760 Y111.51803Z-0.21964
G01 X-93.77172 Y111.39479Z-0.22078
G01 X-93.57405 Y111.30500Z-0.22189
G01 X-93.38216 Y111.26365Z-0.22274
G01 X-93.17550 Y111.26146Z-0.22346
G01 X-92.97294 Y111.30228Z-0.22397
G01 X-92.78328 Y111.38435Z-0.22424
G01 X-92.61480 Y111.50403Z-0.22427
G01 X-92.46263 Y111.67304Z-0.22402
G01 X-92.36118 Y111.85310Z-0.22355
G01 X-92.30375 Y112.02986Z-0.22294
G01 X-92.27944 Y112.24559Z-0.22203
G01 X-92.29941 Y112.44089Z-0.22107
G01 X-92.36969 Y112.65717Z-0.21983
G01 X-92.46832 Y112.82692Z-0.21870
G01 X-92.60934 Y112.98224Z-0.21749
G01 X-92.42211 Y113.17617Z-0.21726
G01 X-92.31076 Y113.36903Z-0.21677
G01 X-92.24464 Y113.57070Z-0.21608
G01 X-92.21866 Y113.80228Z-0.21511
G04 P0 ( dwell for no time -- G64 should not smooth over this point )
G00 Z5.00000 ( retract )

G00 X-94.75866 Y113.80228 ( rapid move to begin. )
G01 F300.00000
G01 Z-0.20601
G04 P0 ( dwell for no time -- G64 should not smooth over this point )
G01 F600.00000
G01 X-94.75866 Y113.80228Z-0.20601
G01 X-94.75866 Y115.73268Z-0.19689
G01 X-94.78195 Y115.95414Z-0.19576
G01 X-94.85551 Y116.17527Z-0.19444
G01 X-94.96869 Y116.36691Z-0.19311
G01 X-95.11111 Y116.52427Z-0.19183
G01 X-95.30059 Y116.65993Z-0.19048
G01 X-95.49470 Y116.74575Z-0.18935
G01 X-95.70219 Y116.79041Z-0.18836
G01 X-95.92475 Y116.79259Z-0.18751
G01 X-96.15304 Y116.74575Z-0.18688
G01 X-96.34715 Y116.65993Z-0.18657
G01 X-96.52848 Y116.53087Z-0.18651
G01 X-96.68563 Y116.35879Z-0.18675
G01 X-96.79223 Y116.17527Z-0.18725
G01 X-96.86579 Y115.95414Z-0.18804
G01 X-96.88906 Y115.73268Z-0.18903
G01 X-96.88906 Y113.80228Z-0.19837
G01 X-96.86579 Y113.58081Z-0.19953
G01 X-96.79223 Y113.35971Z-0.20086
G01 X-96.68563 Y113.17617Z-0.20213
G01 X-96.54403 Y113.01808Z-0.20339
G01 X-96.48088 Y112.96951Z-0.20385
G01 X-96.60857 Y112.82692Z-0.20409
G01 X-96.70717 Y112.65717Z-0.20456
G01 X-96.77311 Y112.46133Z-0.20527
G01 X-96.79688 Y112.25605Z-0.20618
G01 X-96.77583 Y112.03997Z-0.20730
G01 X-96.71568 Y111.85310Z-0.20841
G01 X-96.60857 Y111.66428Z-0.20970
G01 X-96.47760 Y111.51803Z-0.21086
G01 X-96.31172 Y111.39479Z-0.21202
G01 X-96.11405 Y111.30500Z-0.21314
G01 X-95.92216 Y111.26365Z-0.21399
G01 X-95.71550 Y111.26146Z-0.21472
G01 X-95.51294 Y111.30228Z-0.21522
G01 X-95.32328 Y111.38435Z-0.21548
G01 X-95.15480 Y111.50403Z-0.21550
G01 X-95.00263 Y111.67304Z-0.21522
G01 X-94.90494 Y111.84333Z-0.21475
G01 X-94.84375 Y112.02986Z-0.21408
G01 X-94.81944 Y112.24559Z-0.21315
G01 X-94.83941 Y112.44089Z-0.21216
G01 X-94.90969 Y112.65717Z-0.21089
G01 X-95.00832 Y112.82692Z-0.20973
G01 X-95.14934 Y112.98224Z-0.20850
G01 X-94.96211 Y113.17617Z-0.20824
G01 X-94.85551 Y113.35971Z-0.20775
G01 X-94.78195 Y113.58081Z-0.20697
G01 X-94.75866 Y113.80228Z-0.20601
G04 P0 ( dwell for no time -- G64 should not smooth over this point )
G00 Z5.00000 ( retract )

G00 X-97.29866 Y113.80228 ( rapid move to begin. )
G01 F300.00000
G01 Z-0.19691
G04 P0 ( dwell for no time -- G64 should not smooth over this point )
G01 F600.00000
G01 X-97.29866 Y113.80228Z-0.19691
G01 X-97.29866 Y115.73268Z-0.18752
G01 X-97.32195 Y115.95414Z-0.18635
G01 X-97.39551 Y116.17527Z-0.18500
G01 X-97.50211 Y116.35879Z-0.18371
G01 X-97.65924 Y116.53087Z-0.18229
G01 X-97.84059 Y116.65993Z-0.18098
G01 X-98.03470 Y116.74575Z-0.17983
G01 X-98.24219 Y116.79041Z-0.17884
G01 X-98.46475 Y116.79259Z-0.17799
G01 X-98.69304 Y116.74575Z-0.17737
G01 X-98.88715 Y116.65993Z-0.17706
G01 X-99.07663 Y116.52427Z-0.17703
G01 X-99.21905 Y116.36691Z-0.17728
G01 X-99.33223 Y116.17527Z-0.17781
G01 X-99.40579 Y115.95414Z-0.17864
G01 X-99.42906 Y115.73268Z-0.17966
G01 X-99.42906 Y113.80228Z-0.18927
G01 X-99.40579 Y113.58081Z-0.19046
G01 X-99.33223 Y113.35971Z-0.19182
G01 X-99.22563 Y113.17617Z-0.19311
G01 X-99.08403 Y113.01808Z-0.19440
G01 X-99.02088 Y112.96951Z-0.19487
G01 X-99.14857 Y112.82692Z-0.19512
G01 X-99.24717 Y112.65717Z-0.19562
G01 X-99.31311 Y112.46133Z-0.19636
G01 X-99.33688 Y112.25605Z-0.19730
G01 X-99.31583 Y112.03997Z-0.19845
G01 X-99.25568 Y111.85310Z-0.19959
G01 X-99.14857 Y111.66428Z-0.20090
G01 X-99.01760 Y111.51803Z-0.20208
G01 X-98.85172 Y111.39479Z-0.20326
G01 X-98.65405 Y111.30500Z-0.20438
G01 X-98.46216 Y111.26365Z-0.20525
G01 X-98.25550 Y111.26146Z-0.20597
G01 X-98.05294 Y111.30228Z-0.20647
G01 X-97.86328 Y111.38435Z-0.20672
G01 X-97.69480 Y111.50403Z-0.20672
G01 X-97.54263 Y111.67304Z-0.20642
G01 X-97.44118 Y111.85310Z-0.20589
G01 X-97.38106 Y112.03997Z-0.20519
G01 X-97.35997 Y112.23515Z-0.20432
G01 X-97.37941 Y112.44089Z-0.20325
G01 X-97.44969 Y112.65717Z-0.20194
G01 X-97.54832 Y112.82692Z-0.20077
G01 X-97.68934 Y112.98224Z-0.19951
G01 X-97.50211 Y113.17617Z-0.19923
G01 X-97.39551 Y113.35971Z-0.19872
G01 X-97.32195 Y113.58081Z-0.19790
G01 X-97.29866 Y113.80228Z-0.19691
G04 P0 ( dwell for no time -- G64 should not smooth over this point )
G00 Z5.00000 ( retract )

G00 X-99.83866 Y113.80228 ( rapid move to begin. )
G01 F300.00000
G01 Z-0.18781
G04 P0 ( dwell for no time -- G64 should not smooth over this point )
G01 F600.00000
G01 X-99.83866 Y113.80228Z-0.18781
G01 X-99.83866 Y115.73268Z-0.17814
G01 X-99.86195 Y115.95414Z-0.17695
G01 X-99.93551 Y116.17527Z-0.17557
G01 X-100.04211 Y116.35879Z-0.17425
G01 X-100.19924 Y116.53087Z-0.17277
G01 X-100.38059 Y116.65993Z-0.17098
G01 X-100.57470 Y116.74575Z-0.16932
G01 X-100.78219 Y116.79041Z-0.16779
G01 X-101.00475 Y116.79259Z-0.16637
G01 X-101.23304 Y116.74575Z-0.16517
G01 X-101.42715 Y116.65993Z-0.16439
G01 X-101.61663 Y116.52427Z-0.16391
G01 X-101.76563 Y116.35879Z-0.16384
G01 X-101.87698 Y116.16592Z-0.16415
G01 X-101.94742 Y115.94380Z-0.16488
G01 X-101.96906 Y115.73268Z-0.16585
G01 X-101.96906 Y113.80228Z-0.17596
G01 X-101.94307 Y113.57070Z-0.17733
G01 X-101.87698 Y113.36903Z-0.17878
G01 X-101.76563 Y113.17617Z-0.18044
G01 X-101.62403 Y113.01808Z-0.18209
G01 X-101.56088 Y112.96951Z-0.18271
G01 X-101.68857 Y112.82692Z-0.18271
G01 X-101.78717 Y112.65717Z-0.18302
G01 X-101.85311 Y112.46133Z-0.18366
G01 X-101.87688 Y112.25605Z-0.18460
G01 X-101.85583 Y112.03997Z-0.18585
G01 X-101.79568 Y111.85310Z-0.18717
G01 X-101.68857 Y111.66428Z-0.18876
G01 X-101.55760 Y111.51803Z-0.19027
G01 X-101.39172 Y111.39479Z-0.19184
G01 X-101.19405 Y111.30500Z-0.19342
G01 X-101.00216 Y111.26365Z-0.19472
G01 X-100.79550 Y111.26146Z-0.19589
G01 X-100.59294 Y111.30228Z-0.19683
G01 X-100.40328 Y111.38435Z-0.19748
G01 X-100.23480 Y111.50403Z-0.19783
G01 X-100.08263 Y111.67304Z-0.19762
G01 X-99.98118 Y111.85310Z-0.19707
G01 X-99.92106 Y112.03997Z-0.19634
G01 X-99.89997 Y112.23515Z-0.19544
G01 X-99.91941 Y112.44089Z-0.19434
G01 X-99.98969 Y112.65717Z-0.19301
G01 X-100.08832 Y112.82692Z-0.19181
G01 X-100.22934 Y112.98224Z-0.19043
G01 X-100.04211 Y113.17617Z-0.19022
G01 X-99.93551 Y113.35971Z-0.18968
G01 X-99.86195 Y113.58081Z-0.18883
G01 X-99.83866 Y113.80228Z-0.18781
G04 P0 ( dwell for no time -- G64 should not smooth over this point )
G00 Z5.00000 ( retract )

G00 X-102.37866 Y113.80228 ( rapid move to begin. )
G01 F300.00000
G01 Z-0.17353
G04 P0 ( dwell for no time -- G64 should not smooth over this point )
G01 F600.00000
G01 X-102.37866 Y113.80228Z-0.17353
G01 X-102.37866 Y115.73268Z-0.16332
G01 X-102.40195 Y115.95414Z-0.16200
G01 X-102.47551 Y116.17527Z-0.16037
G01 X-102.58211 Y116.35879Z-0.15873
G01 X-102.73924 Y116.53087Z-0.15683
G01 X-102.92059 Y116.65993Z-0.15500
G01 X-103.11470 Y116.74575Z-0.15332
G01 X-103.32219 Y116.79041Z-0.15177
G01 X-103.54475 Y116.79259Z-0.15036
G01 X-103.77304 Y116.74575Z-0.14917
G01 X-103.96715 Y116.65993Z-0.14842
G01 X-104.16403 Y116.51688Z-0.14797
G01 X-104.31135 Y116.35002Z-0.14797
G01 X-104.41698 Y116.16592Z-0.14833
G01 X-104.48742 Y115.94380Z-0.14912
G01 X-104.50906 Y115.73268Z-0.15016
G01 X-104.50906 Y113.80228Z-0.16087
G01 X-104.48307 Y113.57070Z-0.16231
G01 X-104.41698 Y113.36903Z-0.16382
G01 X-104.29905 Y113.16804Z-0.16562
G01 X-104.16403 Y113.01808Z-0.16724
G01 X-104.10088 Y112.96951Z-0.16788
G01 X-104.23426 Y112.81813Z-0.16793
G01 X-104.32717 Y112.65717Z-0.16828
G01 X-104.39311 Y112.46133Z-0.16898
G01 X-104.41744 Y112.24559Z-0.17004
G01 X-104.39311 Y112.02986Z-0.17137
G01 X-104.33194 Y111.84333Z-0.17275
G01 X-104.23426 Y111.67304Z-0.17425
G01 X-104.09021 Y111.51061Z-0.17596
G01 X-103.93172 Y111.39479Z-0.17749
G01 X-103.73405 Y111.30500Z-0.17910
G01 X-103.54216 Y111.26365Z-0.18041
G01 X-103.33550 Y111.26146Z-0.18158
G01 X-103.13294 Y111.30228Z-0.18250
G01 X-102.94328 Y111.38435Z-0.18313
G01 X-102.77480 Y111.50403Z-0.18345
G01 X-102.62263 Y111.67304Z-0.18341
G01 X-102.52118 Y111.85310Z-0.18303
G01 X-102.46106 Y112.03997Z-0.18238
G01 X-102.43997 Y112.23515Z-0.18147
G01 X-102.45941 Y112.44089Z-0.18027
G01 X-102.52969 Y112.65717Z-0.17871
G01 X-102.62832 Y112.82692Z-0.17724
G01 X-102.76901 Y112.98247Z-0.17559
G01 X-102.58211 Y113.17617Z-0.17565
G01 X-102.47551 Y113.35971Z-0.17530
G01 X-102.40195 Y113.58081Z-0.17456
G01 X-102.37866 Y113.80228Z-0.17353
G04 P0 ( dwell for no time -- G64 should not smooth over this point )
G00 Z5.00000 ( retract )

G00 X-104.91866 Y113.80228 ( rapid move to begin. )
G01 F300.00000
G01 Z-0.15844
G04 P0 ( dwell for no time -- G64 should not smooth over this point )
G01 F600.00000
G01 X-104.91866 Y113.80228Z-0.15844
G01 X-104.91866 Y115.73268Z-0.14763
G01 X-104.94464 Y115.96425Z-0.14617
G01 X-105.01551 Y116.17527Z-0.14455
G01 X-105.12869 Y116.36691Z-0.14276
G01 X-105.27111 Y116.52427Z-0.14098
G01 X-105.46059 Y116.65993Z-0.13903
G01 X-105.65470 Y116.74575Z-0.13732
G01 X-105.86219 Y116.79041Z-0.13575
G01 X-106.08475 Y116.79259Z-0.13434
G01 X-106.31304 Y116.74575Z-0.13317
G01 X-106.50715 Y116.65993Z-0.13244
G01 X-106.70403 Y116.51688Z-0.13204
G01 X-106.85135 Y116.35002Z-0.13209
G01 X-106.95698 Y116.16592Z-0.13250
G01 X-107.02742 Y115.94380Z-0.13337
G01 X-107.04906 Y115.73268Z-0.13447
G01 X-107.04906 Y113.80228Z-0.14578
G01 X-107.02307 Y113.57070Z-0.14729
G01 X-106.95698 Y113.36903Z-0.14886
G01 X-106.83905 Y113.16804Z-0.15073
G01 X-106.70403 Y113.01808Z-0.15239
G01 X-106.64088 Y112.96951Z-0.15304
G01 X-106.76857 Y112.82692Z-0.15313
G01 X-106.86717 Y112.65717Z-0.15354
G01 X-106.93311 Y112.46133Z-0.15431
G01 X-106.95744 Y112.24559Z-0.15543
G01 X-106.93311 Y112.02986Z-0.15683
G01 X-106.87194 Y111.84333Z-0.15827
G01 X-106.76857 Y111.66428Z-0.15990
G01 X-106.63760 Y111.51803Z-0.16149
G01 X-106.47172 Y111.39479Z-0.16315
G01 X-106.27405 Y111.30500Z-0.16478
G01 X-106.08216 Y111.26365Z-0.16610
G01 X-105.87550 Y111.26146Z-0.16728
G01 X-105.67294 Y111.30228Z-0.16819
G01 X-105.48328 Y111.38435Z-0.16879
G01 X-105.31480 Y111.50403Z-0.16906
G01 X-105.16263 Y111.67304Z-0.16897
G01 X-105.06494 Y111.84333Z-0.16857
G01 X-105.00375 Y112.02986Z-0.16788
G01 X-104.97944 Y112.24559Z-0.16681
G01 X-104.99941 Y112.44089Z-0.16559
G01 X-105.06969 Y112.65717Z-0.16397
G01 X-105.16832 Y112.82692Z-0.16245
G01 X-105.30901 Y112.98247Z-0.16075
G01 X-105.12869 Y113.16804Z-0.16076
G01 X-105.01076 Y113.36903Z-0.16032
G01 X-104.94464 Y113.57070Z-0.15958
G01 X-104.91866 Y113.80228Z-0.15844
G04 P0 ( dwell for no time -- G64 should not smooth over this point )
G00 Z5.00000 ( retract )

G00 X-107.45866 Y113.80228 ( rapid move to begin. )
G01 F300.00000
G01 Z-0.14334
G04 P0 ( dwell for no time -- G64 should not smooth over this point )
G01 F600.00000
G01 X-107.45866 Y113.80228Z-0.14334
G01 X-107.45866 Y115.73268Z-0.13194
G01 X-107.48464 Y115.96425Z-0.13041
G01 X-107.55551 Y116.17527Z-0.12872
G01 X-107.66869 Y116.36691Z-0.12688
G01 X-107.81111 Y116.52427Z-0.12505
G01 X-108.00059 Y116.65993Z-0.12305
G01 X-108.19470 Y116.74575Z-0.12131
G01 X-108.42297 Y116.79259Z-0.11959
G01 X-108.64555 Y116.79041Z-0.11820
G01 X-108.85304 Y116.74575Z-0.11717
G01 X-109.05647 Y116.65518Z-0.11644
G01 X-109.24403 Y116.51688Z-0.11610
G01 X-109.38563 Y116.35879Z-0.11619
G01 X-109.49698 Y116.16592Z-0.11668
G01 X-109.56742 Y115.94380Z-0.11761
G01 X-109.58906 Y115.73268Z-0.11878
G01 X-109.58906 Y113.80228Z-0.13068
G01 X-109.56307 Y113.57070Z-0.13227
G01 X-109.49698 Y113.36903Z-0.13390
G01 X-109.37905 Y113.16804Z-0.13583
G01 X-109.24403 Y113.01808Z-0.13754
G01 X-109.18088 Y112.96951Z-0.13821
G01 X-109.31426 Y112.81813Z-0.13836
G01 X-109.40717 Y112.65717Z-0.13881
G01 X-109.47311 Y112.46133Z-0.13963
G01 X-109.49744 Y112.24559Z-0.14082
G01 X-109.47311 Y112.02986Z-0.14228
G01 X-109.41194 Y111.84333Z-0.14378
G01 X-109.31426 Y111.67304Z-0.14538
G01 X-109.17021 Y111.51061Z-0.14719
G01 X-109.01172 Y111.39479Z-0.14880
G01 X-108.81405 Y111.30500Z-0.15046
G01 X-108.62216 Y111.26365Z-0.15179
G01 X-108.41550 Y111.26146Z-0.15297
G01 X-108.21294 Y111.30228Z-0.15386
G01 X-108.02328 Y111.38435Z-0.15444
G01 X-107.85480 Y111.50403Z-0.15468
G01 X-107.70263 Y111.67304Z-0.15454
G01 X-107.60494 Y111.84333Z-0.15409
G01 X-107.54375 Y112.02986Z-0.15333
G01 X-107.51944 Y112.24559Z-0.15219
G01 X-107.53941 Y112.44089Z-0.15092
G01 X-107.60969 Y112.65717Z-0.14924
G01 X-107.71489 Y112.83504Z-0.14757
G01 X-107.84901 Y112.98247Z-0.14591
G01 X-107.66869 Y113.16804Z-0.14586
G01 X-107.55076 Y113.36903Z-0.14536
G01 X-107.48464 Y113.57070Z-0.14456
G01 X-107.45866 Y113.80228Z-0.14334
G04 P0 ( dwell for no time -- G64 should not smooth over this point )
G00 Z5.00000 ( retract )

G00 X-109.99866 Y113.80228 ( rapid move to begin. )
G01 F300.00000
G01 Z-0.12825
G04 P0 ( dwell for no time -- G64 should not smooth over this point )
G01 F600.00000
G01 X-109.99866 Y113.80228Z-0.12825
G01 X-109.99866 Y115.73268Z-0.11625
G01 X-110.02464 Y115.96425Z-0.11465
G01 X-110.09551 Y116.17527Z-0.11289
G01 X-110.20869 Y116.36691Z-0.11099
G01 X-110.35111 Y116.52427Z-0.10911
G01 X-110.54059 Y116.65993Z-0.10707
G01 X-110.73470 Y116.74575Z-0.10531
G01 X-110.96297 Y116.79259Z-0.10358
G01 X-111.18555 Y116.79041Z-0.10219
G01 X-111.39304 Y116.74575Z-0.10116
G01 X-111.59647 Y116.65518Z-0.10046
G01 X-111.78403 Y116.51688Z-0.10017
G01 X-111.93135 Y116.35002Z-0.10033
G01 X-112.03698 Y116.16592Z-0.10086
G01 X-112.10742 Y115.94380Z-0.10186
G01 X-112.12906 Y115.73268Z-0.10309
G01 X-112.12906 Y113.80228Z-0.11559
G01 X-112.10307 Y113.57070Z-0.11725
G01 X-112.03698 Y113.36903Z-0.11894
G01 X-111.91905 Y113.16804Z-0.12093
G01 X-111.78403 Y113.01808Z-0.12269
G01 X-111.72088 Y112.96951Z-0.12337
G01 X-111.85426 Y112.81813Z-0.12357
G01 X-111.94717 Y112.65717Z-0.12407
G01 X-112.01311 Y112.46133Z-0.12495
G01 X-112.03744 Y112.24559Z-0.12620
G01 X-112.01311 Y112.02986Z-0.12774
G01 X-111.95194 Y111.84333Z-0.12929
G01 X-111.84196 Y111.65613Z-0.13113
G01 X-111.70208 Y111.50403Z-0.13290
G01 X-111.54293 Y111.38910Z-0.13454
G01 X-111.35405 Y111.30500Z-0.13614
G01 X-111.16216 Y111.26365Z-0.13748
G01 X-110.95550 Y111.26146Z-0.13866
G01 X-110.75294 Y111.30228Z-0.13955
G01 X-110.56328 Y111.38435Z-0.14010
G01 X-110.39480 Y111.50403Z-0.14030
G01 X-110.24263 Y111.67304Z-0.14011
G01 X-110.14494 Y111.84333Z-0.13960
G01 X-110.08375 Y112.02986Z-0.13879
G01 X-110.05944 Y112.24559Z-0.13758
G01 X-110.07941 Y112.44089Z-0.13625
G01 X-110.14969 Y112.65717Z-0.13450
G01 X-110.25489 Y112.83504Z-0.13277
G01 X-110.38901 Y112.98247Z-0.13107
G01 X-110.20869 Y113.16804Z-0.13096
G01 X-110.09076 Y113.36903Z-0.13040
G01 X-110.02464 Y113.57070Z-0.12954
G01 X-109.99866 Y113.80228Z-0.12825
G04 P0 ( dwell for no time -- G64 should not smooth over this point )
G00 Z5.00000 ( retract )

G00 X-112.53866 Y113.80228 ( rapid move to begin. )
G01 F300.00000
G01 Z-0.11316
G04 P0 ( dwell for no time -- G64 should not smooth over this point )
G01 F600.00000
G01 X-112.53866 Y113.80228Z-0.11316
G01 X-112.53866 Y115.73268Z-0.10056
G01 X-112.56464 Y115.96425Z-0.09889
G01 X-112.63551 Y116.17527Z-0.09707
G01 X-112.74869 Y116.36691Z-0.09510
G01 X-112.89111 Y116.52427Z-0.09318
G01 X-113.08059 Y116.65993Z-0.09110
G01 X-113.27470 Y116.74575Z-0.08931
G01 X-113.50297 Y116.79259Z-0.08756
G01 X-113.72555 Y116.79041Z-0.08617
G01 X-113.93304 Y116.74575Z-0.08516
G01 X-114.13647 Y116.65518Z-0.08449
G01 X-114.32403 Y116.51688Z-0.08424
G01 X-114.46563 Y116.35879Z-0.08442
G01 X-114.57698 Y116.16592Z-0.08503
G01 X-114.64742 Y115.94380Z-0.08610
G01 X-114.66906 Y115.73268Z-0.08740
G01 X-114.66906 Y113.80228Z-0.10050
G01 X-114.64307 Y113.57070Z-0.10223
G01 X-114.57698 Y113.36903Z-0.10398
G01 X-114.45905 Y113.16804Z-0.10604
G01 X-114.32403 Y113.01808Z-0.10784
G01 X-114.26088 Y112.96951Z-0.10854
G01 X-114.39426 Y112.81813Z-0.10878
G01 X-114.48717 Y112.65717Z-0.10933
G01 X-114.55311 Y112.46133Z-0.11027
G01 X-114.57744 Y112.24559Z-0.11159
G01 X-114.55311 Y112.02986Z-0.11319
G01 X-114.48717 Y111.83400Z-0.11490
G01 X-114.38857 Y111.66428Z-0.11660
G01 X-114.25021 Y111.51061Z-0.11843
G01 X-114.09172 Y111.39479Z-0.12010
G01 X-113.89405 Y111.30500Z-0.12182
G01 X-113.70216 Y111.26365Z-0.12318
G01 X-113.49550 Y111.26146Z-0.12435
G01 X-113.29294 Y111.30228Z-0.12523
G01 X-113.10328 Y111.38435Z-0.12575
G01 X-112.93480 Y111.50403Z-0.12592
G01 X-112.78263 Y111.67304Z-0.12567
G01 X-112.68494 Y111.84333Z-0.12511
G01 X-112.62375 Y112.02986Z-0.12424
G01 X-112.59944 Y112.24559Z-0.12297
G01 X-112.61941 Y112.44089Z-0.12158
G01 X-112.68969 Y112.65717Z-0.11976
G01 X-112.79489 Y112.83504Z-0.11798
G01 X-112.92901 Y112.98247Z-0.11623
G01 X-112.74869 Y113.16804Z-0.11607
G01 X-112.63076 Y113.36903Z-0.11545
G01 X-112.56464 Y113.57070Z-0.11452
G01 X-112.53866 Y113.80228Z-0.11316
G04 P0 ( dwell for no time -- G64 should not smooth over this point )
G00 Z5.00000 ( retract )

G00 X-117.61866 Y113.80228 ( rapid move to begin. )
G01 F300.00000
G01 Z-0.08297
G04 P0 ( dwell for no time -- G64 should not smooth over this point )
G01 F600.00000
G01 X-117.61866 Y113.80228Z-0.08297
G01 X-117.61866 Y115.73268Z-0.06918
G01 X-117.64464 Y115.96425Z-0.06736
G01 X-117.71551 Y116.17527Z-0.06541
G01 X-117.82869 Y116.36691Z-0.06333
G01 X-117.97924 Y116.53087Z-0.06121
G01 X-118.15127 Y116.65518Z-0.05924
G01 X-118.35470 Y116.74575Z-0.05730
G01 X-118.58297 Y116.79259Z-0.05553
G01 X-118.80555 Y116.79041Z-0.05414
G01 X-119.01304 Y116.74575Z-0.05316
G01 X-119.21647 Y116.65518Z-0.05254
G01 X-119.40403 Y116.51688Z-0.05238
G01 X-119.55135 Y116.35002Z-0.05268
G01 X-119.65698 Y116.16592Z-0.05339
G01 X-119.72742 Y115.94380Z-0.05459
G01 X-119.74906 Y115.73268Z-0.05602
G01 X-119.74906 Y113.80228Z-0.07031
G01 X-119.72307 Y113.57070Z-0.07218
G01 X-119.65698 Y113.36903Z-0.07407
G01 X-119.53905 Y113.16804Z-0.07624
G01 X-119.40403 Y113.01808Z-0.07814
G01 X-119.34088 Y112.96951Z-0.07887
G01 X-119.47426 Y112.81813Z-0.07920
G01 X-119.56717 Y112.65717Z-0.07985
G01 X-119.63311 Y112.46133Z-0.08091
G01 X-119.65744 Y112.24559Z-0.08237
G01 X-119.63311 Y112.02986Z-0.08410
G01 X-119.56717 Y111.83400Z-0.08593
G01 X-119.46857 Y111.66428Z-0.08774
G01 X-119.33021 Y111.51061Z-0.08966
G01 X-119.17172 Y111.39479Z-0.09140
G01 X-118.97405 Y111.30500Z-0.09318
G01 X-118.78216 Y111.26365Z-0.09456
G01 X-118.57550 Y111.26146Z-0.09574
G01 X-118.37294 Y111.30228Z-0.09659
G01 X-118.18328 Y111.38435Z-0.09706
G01 X-118.01480 Y111.50403Z-0.09715
G01 X-117.86263 Y111.67304Z-0.09680
G01 X-117.76494 Y111.84333Z-0.09614
G01 X-117.70375 Y112.02986Z-0.09515
G01 X-117.67944 Y112.24559Z-0.09375
G01 X-117.69941 Y112.44089Z-0.09224
G01 X-117.76969 Y112.65717Z-0.09028
G01 X-117.87489 Y112.83504Z-0.08839
G01 X-118.00901 Y112.98247Z-0.08655
G01 X-117.82869 Y113.16804Z-0.08627
G01 X-117.71076 Y113.36903Z-0.08553
G01 X-117.64464 Y113.57070Z-0.08448
G01 X-117.61866 Y113.80228Z-0.08297
G04 P0 ( dwell for no time -- G64 should not smooth over this point )
G00 Z5.00000 ( retract )

G00 X-120.15866 Y113.80228 ( rapid move to begin. )
G01 F300.00000
G01 Z-0.06788
G04 P0 ( dwell for no time -- G64 should not smooth over this point )
G01 F600.00000
G01 X-120.15866 Y113.80228Z-0.06788
G01 X-120.15866 Y115.73268Z-0.05349
G01 X-120.18464 Y115.96425Z-0.05160
G01 X-120.25551 Y116.17527Z-0.04959
G01 X-120.36869 Y116.36691Z-0.04745
G01 X-120.51111 Y116.52427Z-0.04538
G01 X-120.70059 Y116.65993Z-0.04317
G01 X-120.89470 Y116.74575Z-0.04130
G01 X-121.12297 Y116.79259Z-0.03951
G01 X-121.34555 Y116.79041Z-0.03812
G01 X-121.55304 Y116.74575Z-0.03715
G01 X-121.75647 Y116.65518Z-0.03656
G01 X-121.94403 Y116.51688Z-0.03601
G01 X-122.08563 Y116.35879Z-0.03590
G01 X-122.19698 Y116.16592Z-0.03633
G01 X-122.26742 Y115.94380Z-0.03738
G01 X-122.28906 Y115.73268Z-0.03881
G01 X-122.28906 Y113.80228Z-0.05367
G01 X-122.26307 Y113.57070Z-0.05569
G01 X-122.19698 Y113.36903Z-0.05784
G01 X-122.07905 Y113.16804Z-0.06046
G01 X-121.94403 Y113.01808Z-0.06284
G01 X-121.88088 Y112.96951Z-0.06379
G01 X-122.01426 Y112.81813Z-0.06374
G01 X-122.10717 Y112.65717Z-0.06413
G01 X-122.17311 Y112.46133Z-0.06504
G01 X-122.19744 Y112.24559Z-0.06648
G01 X-122.17311 Y112.02986Z-0.06836
G01 X-122.11194 Y111.84333Z-0.07034
G01 X-122.01426 Y111.67304Z-0.07252
G01 X-121.87021 Y111.51061Z-0.07506
G01 X-121.71172 Y111.39479Z-0.07706
G01 X-121.51405 Y111.30500Z-0.07886
G01 X-121.32216 Y111.26365Z-0.08025
G01 X-121.11550 Y111.26146Z-0.08143
G01 X-120.91294 Y111.30228Z-0.08227
G01 X-120.72328 Y111.38435Z-0.08272
G01 X-120.55480 Y111.50403Z-0.08277
G01 X-120.40263 Y111.67304Z-0.08237
G01 X-120.30118 Y111.85310Z-0.08160
G01 X-120.24375 Y112.02986Z-0.08061
G01 X-120.21944 Y112.24559Z-0.07914
G01 X-120.23941 Y112.44089Z-0.07756
G01 X-120.30969 Y112.65717Z-0.07554
G01 X-120.40832 Y112.82692Z-0.07370
G01 X-120.54901 Y112.98247Z-0.07171
G01 X-120.36869 Y113.16804Z-0.07138
G01 X-120.25076 Y113.36903Z-0.07057
G01 X-120.18464 Y113.57070Z-0.06945
G01 X-120.15866 Y113.80228Z-0.06788
G04 P0 ( dwell for no time -- G64 should not smooth over this point )
G00 Z5.00000 ( retract )

G00 X-122.69866 Y113.80228 ( rapid move to begin. )
G01 F300.00000
G01 Z-0.04992
G04 P0 ( dwell for no time -- G64 should not smooth over this point )
G01 F600.00000
G01 X-122.69866 Y113.80228Z-0.04992
G01 X-122.69866 Y115.73268Z-0.03499
G01 X-122.72464 Y115.96425Z-0.03295
G01 X-122.79551 Y116.17527Z-0.03066
G01 X-122.90869 Y116.36691Z-0.02811
G01 X-123.05111 Y116.52427Z-0.02555
G01 X-123.24059 Y116.65993Z-0.02272
G01 X-123.43470 Y116.74575Z-0.02022
G01 X-123.66297 Y116.79259Z-0.01771
G01 X-123.88555 Y116.79041Z-0.01562
G01 X-124.09304 Y116.74575Z-0.01402
G01 X-124.29647 Y116.65518Z-0.01282
G01 X-124.48403 Y116.51688Z-0.01215
G01 X-124.63135 Y116.35002Z-0.01208
G01 X-124.73698 Y116.16592Z-0.01255
G01 X-124.80742 Y115.94380Z-0.01365
G01 X-124.82906 Y115.73268Z-0.01512
G01 X-124.82906 Y113.80228Z-0.03041
G01 X-124.80307 Y113.57070Z-0.03249
G01 X-124.73698 Y113.36903Z-0.03469
G01 X-124.61905 Y113.16804Z-0.03735
G01 X-124.48403 Y113.01808Z-0.03976
G01 X-124.42088 Y112.96951Z-0.04072
G01 X-124.55426 Y112.81813Z-0.04070
G01 X-124.64717 Y112.65717Z-0.04113
G01 X-124.71311 Y112.46133Z-0.04209
G01 X-124.73744 Y112.24559Z-0.04357
G01 X-124.71311 Y112.02986Z-0.04550
G01 X-124.65194 Y111.84333Z-0.04752
G01 X-124.54196 Y111.65613Z-0.04999
G01 X-124.40208 Y111.50403Z-0.05245
G01 X-124.24293 Y111.38910Z-0.05478
G01 X-124.05405 Y111.30500Z-0.05712
G01 X-123.86216 Y111.26365Z-0.05916
G01 X-123.65550 Y111.26146Z-0.06102
G01 X-123.45294 Y111.30228Z-0.06252
G01 X-123.26328 Y111.38435Z-0.06357
G01 X-123.09480 Y111.50403Z-0.06415
G01 X-122.94263 Y111.67304Z-0.06420
G01 X-122.84494 Y111.84333Z-0.06376
G01 X-122.78375 Y112.02986Z-0.06286
G01 X-122.75944 Y112.24559Z-0.06141
G01 X-122.77941 Y112.44089Z-0.05972
G01 X-122.84969 Y112.65717Z-0.05741
G01 X-122.95489 Y112.83504Z-0.05507
G01 X-123.08901 Y112.98247Z-0.05271
G01 X-122.90869 Y113.16804Z-0.05291
G01 X-122.79076 Y113.36903Z-0.05243
G01 X-122.72464 Y113.57070Z-0.05147
G01 X-122.69866 Y113.80228Z-0.04992
G04 P0 ( dwell for no time -- G64 should not smooth over this point )
G00 Z5.00000 ( retract )

G00 X-125.23866 Y113.80228 ( rapid move to begin. )
G01 F300.00000
G01 Z-0.02666
G04 P0 ( dwell for no time -- G64 should not smooth over this point )
G01 F600.00000
G01 X-125.23866 Y113.80228Z-0.02666
G01 X-125.23866 Y115.73268Z-0.01130
G01 X-125.26464 Y115.96425Z-0.00921
G01 X-125.33551 Y116.17527Z-0.00687
G01 X-125.44869 Y116.36691Z-0.00428
G01 X-125.59111 Y116.52427Z-0.00169
G01 X-125.78059 Y116.65993Z0.00118
G01 X-125.97470 Y116.74575Z0.00369
G01 X-126.20297 Y116.79259Z0.00622
G01 X-126.42555 Y116.79041Z0.00830
G01 X-126.63304 Y116.74575Z0.00989
G01 X-126.83647 Y116.65518Z0.01107
G01 X-127.02403 Y116.51688Z0.01172
G01 X-127.16563 Y116.35879Z0.01176
G01 X-127.27698 Y116.16592Z0.01124
G01 X-127.34742 Y115.94380Z0.01009
G01 X-127.36906 Y115.73268Z0.00857
G01 X-127.36906 Y113.80228Z-0.00716
G01 X-127.34307 Y113.57070Z-0.00928
G01 X-127.27698 Y113.36903Z-0.01153
G01 X-127.15905 Y113.16804Z-0.01424
G01 X-127.02403 Y113.01808Z-0.01669
G01 X-126.96088 Y112.96951Z-0.01765
G01 X-127.09426 Y112.81813Z-0.01767
G01 X-127.18717 Y112.65717Z-0.01814
G01 X-127.25311 Y112.46133Z-0.01913
G01 X-127.27744 Y112.24559Z-0.02067
G01 X-127.25311 Y112.02986Z-0.02265
G01 X-127.18717 Y111.83400Z-0.02483
G01 X-127.08857 Y111.66428Z-0.02710
G01 X-126.95021 Y111.51061Z-0.02958
G01 X-126.79172 Y111.39479Z-0.03194
G01 X-126.59405 Y111.30500Z-0.03443
G01 X-126.40216 Y111.26365Z-0.03648
G01 X-126.19550 Y111.26146Z-0.03834
G01 X-125.99294 Y111.30228Z-0.03982
G01 X-125.80328 Y111.38435Z-0.04086
G01 X-125.63480 Y111.50403Z-0.04141
G01 X-125.48263 Y111.67304Z-0.04142
G01 X-125.38494 Y111.84333Z-0.04094
G01 X-125.32375 Y112.02986Z-0.04001
G01 X-125.29944 Y112.24559Z-0.03851
G01 X-125.31941 Y112.44089Z-0.03677
G01 X-125.38969 Y112.65717Z-0.03441
G01 X-125.49489 Y112.83504Z-0.03204
G01 X-125.62901 Y112.98247Z-0.02964
G01 X-125.44869 Y113.16804Z-0.02980
G01 X-125.33076 Y113.36903Z-0.02927
G01 X-125.26464 Y113.57070Z-0.02827
G01 X-125.23866 Y113.80228Z-0.02666
G04 P0 ( dwell for no time -- G64 should not smooth over this point )
G00 Z5.00000 ( retract )

G00 X-127.77866 Y113.80228 ( rapid move to begin. )
G01 F300.00000
G01 Z-0.00341
G04 P0 ( dwell for no time -- G64 should not smooth over this point )
G01 F600.00000
G01 X-127.77866 Y113.80228Z-0.00341
G01 X-127.77866 Y115.73268Z0.01239
G01 X-127.80464 Y115.96425Z0.01453
G01 X-127.87551 Y116.17527Z0.01692
G01 X-127.98869 Y116.36691Z0.01955
G01 X-128.13111 Y116.52427Z0.02218
G01 X-128.32059 Y116.65993Z0.02508
G01 X-128.51470 Y116.74575Z0.02761
G01 X-128.74297 Y116.79259Z0.03015
G01 X-128.96555 Y116.79041Z0.03222
