( pcb2gcode 1.3.2 )
( Software-independent Gcode )

G94 ( Millimeters per minute feed rate. )
G21 ( Units == Millimeters. )

G90 ( Absolute coordinates. )
G00 S10000 ( RPM spindle speed. )
G64 P0.01000 ( set maximum deviation from commanded toolpath )
G01 F600.00000 ( Feedrate. )

G01 F600.00000 ( Feedrate. )
M3 ( Spindle on clockwise. )
G04 P1.00000
G04 P0 ( dwell for no time -- G64 should not smooth over this point )
G00 Z5.00000 ( retract )

G00 X10.68740 Y131.21222 ( rapid move to begin. )
G01 F300.00000
G01 Z-0.10000
G04 P0 ( dwell for no time -- G64 should not smooth over this point )
G01 F600.00000
G01 X10.68740 Y131.21222
G01 X10.68959 Y131.42020
G01 X10.73119 Y131.61339
G01 X10.81107 Y131.79416
G01 X10.93815 Y131.97184
G01 X11.10157 Y132.11677
G01 X11.27300 Y132.21512
G01 X11.46078 Y132.27671
G01 X11.67785 Y132.30115
G01 X13.46855 Y132.30115
G01 X13.68559 Y132.27671
G01 X13.88270 Y132.21037
G01 X14.04480 Y132.11677
G01 X14.21480 Y131.96368
G01 X14.33052 Y131.80348
G01 X14.41142 Y131.62317
G01 X14.45897 Y131.39940
G01 X14.45679 Y131.19142
G01 X14.41518 Y130.99823
G01 X14.32483 Y130.79935
G01 X14.20083 Y130.63239
G01 X14.05359 Y130.50057
G01 X13.86362 Y130.39277
G01 X13.67548 Y130.33221
G01 X13.46855 Y130.31045
G01 X11.67785 Y130.31045
G01 X11.46078 Y130.33491
G01 X11.27300 Y130.39650
G01 X11.10157 Y130.49485
G01 X10.93157 Y130.64794
G01 X10.81107 Y130.81746
G01 X10.73495 Y130.98845
G01 X10.68740 Y131.21222
G04 P0 ( dwell for no time -- G64 should not smooth over this point )
G00 Z5.00000 ( retract )

G00 X10.68740 Y126.13222 ( rapid move to begin. )
G01 F300.00000
G01 Z-0.10000
G04 P0 ( dwell for no time -- G64 should not smooth over this point )
G01 F600.00000
G01 X10.68740 Y126.13222
G01 X10.68959 Y126.34020
G01 X10.73119 Y126.53339
G01 X10.81107 Y126.71416
G01 X10.93815 Y126.89184
G01 X11.08466 Y127.02447
G01 X11.26368 Y127.13037
G01 X11.47089 Y127.19940
G01 X11.67785 Y127.22115
G01 X13.46855 Y127.22115
G01 X13.68559 Y127.19671
G01 X13.88270 Y127.13037
G01 X14.04480 Y127.03677
G01 X14.21480 Y126.88368
G01 X14.33530 Y126.71416
G01 X14.41142 Y126.54317
G01 X14.45897 Y126.31940
G01 X14.45679 Y126.11142
G01 X14.41518 Y125.91823
G01 X14.33530 Y125.73746
G01 X14.20822 Y125.55978
G01 X14.05359 Y125.42057
G01 X13.88270 Y125.32125
G01 X13.68559 Y125.25491
G01 X13.46855 Y125.23045
G01 X11.67785 Y125.23045
G01 X11.46078 Y125.25491
G01 X11.27300 Y125.31650
G01 X11.10157 Y125.41485
G01 X10.93815 Y125.55978
G01 X10.82154 Y125.71935
G01 X10.73495 Y125.90845
G01 X10.68740 Y126.13222
G04 P0 ( dwell for no time -- G64 should not smooth over this point )
G00 Z5.00000 ( retract )

G00 X14.98178 Y104.71314 ( rapid move to begin. )
G01 F300.00000
G01 Z-0.10000
G04 P0 ( dwell for no time -- G64 should not smooth over this point )
G01 F600.00000
G01 X14.98178 Y104.71314
G01 X14.98178 Y105.71314
G01 X14.99872 Y105.87953
G01 X15.05526 Y106.05886
G01 X15.15072 Y106.22088
G01 X15.27116 Y106.35139
G01 X15.40680 Y106.44925
G01 X15.56913 Y106.52154
G01 X15.75338 Y106.55903
G01 X15.93098 Y106.55685
G01 X16.09445 Y106.52154
G01 X16.25678 Y106.44925
G01 X16.39242 Y106.35139
G01 X16.51945 Y106.21276
G01 X16.60829 Y106.05886
G01 X16.66049 Y105.89998
G01 X16.68124 Y105.72360
G01 X16.68178 Y104.71314
G01 X16.66486 Y104.54674
G01 X16.60829 Y104.36742
G01 X16.51287 Y104.20539
G01 X16.40794 Y104.08886
G01 X16.26557 Y103.98271
G01 X16.09445 Y103.90473
G01 X15.91018 Y103.86724
G01 X15.73260 Y103.86943
G01 X15.56913 Y103.90473
G01 X15.39801 Y103.98271
G01 X15.25562 Y104.08886
G01 X15.14411 Y104.21352
G01 X15.05526 Y104.36742
G01 X15.00307 Y104.52630
G01 X14.98178 Y104.71314
G04 P0 ( dwell for no time -- G64 should not smooth over this point )
G00 Z5.00000 ( retract )

G00 X14.98178 Y56.45314 ( rapid move to begin. )
G01 F300.00000
G01 Z-0.10000
G04 P0 ( dwell for no time -- G64 should not smooth over this point )
G01 F600.00000
G01 X14.98178 Y56.45314
G01 X15.00307 Y56.26630
G01 X15.06001 Y56.09810
G01 X15.13842 Y55.96231
G01 X15.27116 Y55.81489
G01 X15.41612 Y55.71227
G01 X15.56913 Y55.64473
G01 X15.75338 Y55.60724
G01 X15.93098 Y55.60943
G01 X16.09445 Y55.64473
G01 X16.26557 Y55.72271
G01 X16.40055 Y55.82147
G01 X16.51287 Y55.94539
G01 X16.61205 Y56.11717
G01 X16.66486 Y56.28674
G01 X16.68178 Y56.45314
G01 X16.68124 Y57.46360
G01 X16.66321 Y57.62987
G01 X16.60354 Y57.80820
G01 X16.51287 Y57.96088
G01 X16.40055 Y58.08481
G01 X16.26557 Y58.18357
G01 X16.09445 Y58.26154
G01 X15.93098 Y58.29685
G01 X15.75338 Y58.29903
G01 X15.56913 Y58.26154
G01 X15.41612 Y58.19400
G01 X15.26303 Y58.08481
G01 X15.15072 Y57.96088
G01 X15.06001 Y57.80820
G01 X14.99872 Y57.61953
G01 X14.98178 Y57.45314
G01 X14.98178 Y56.45314
G04 P0 ( dwell for no time -- G64 should not smooth over this point )
G00 Z5.00000 ( retract )

G00 X17.52178 Y56.45314 ( rapid move to begin. )
G01 F300.00000
G01 Z-0.10000
G04 P0 ( dwell for no time -- G64 should not smooth over this point )
G01 F600.00000
G01 X17.52178 Y56.45314
G01 X17.54307 Y56.26630
G01 X17.60001 Y56.09810
G01 X17.67842 Y55.96231
G01 X17.81116 Y55.81489
G01 X17.95612 Y55.71227
G01 X18.10913 Y55.64473
G01 X18.29338 Y55.60724
G01 X18.47098 Y55.60943
G01 X18.63445 Y55.64473
G01 X18.80557 Y55.72271
G01 X18.94055 Y55.82147
G01 X19.05287 Y55.94539
G01 X19.15205 Y56.11717
G01 X19.20486 Y56.28674
G01 X19.22178 Y56.45314
G01 X19.22124 Y57.46360
G01 X19.20049 Y57.63998
G01 X19.14354 Y57.80820
G01 X19.05287 Y57.96088
G01 X18.94055 Y58.08481
G01 X18.80557 Y58.18357
G01 X18.63445 Y58.26154
G01 X18.47098 Y58.29685
G01 X18.29338 Y58.29903
G01 X18.10913 Y58.26154
G01 X17.95612 Y58.19400
G01 X17.80303 Y58.08481
G01 X17.69072 Y57.96088
G01 X17.60001 Y57.80820
G01 X17.53872 Y57.61953
G01 X17.52178 Y57.45314
G01 X17.52178 Y56.45314
G04 P0 ( dwell for no time -- G64 should not smooth over this point )
G00 Z5.00000 ( retract )

G00 X20.06178 Y56.45314 ( rapid move to begin. )
G01 F300.00000
G01 Z-0.10000
G04 P0 ( dwell for no time -- G64 should not smooth over this point )
G01 F600.00000
G01 X20.06178 Y56.45314
G01 X20.08307 Y56.26630
G01 X20.13526 Y56.10742
G01 X20.21842 Y55.96231
G01 X20.35116 Y55.81489
G01 X20.49612 Y55.71227
G01 X20.64913 Y55.64473
G01 X20.83338 Y55.60724
G01 X21.01098 Y55.60943
G01 X21.17445 Y55.64473
G01 X21.34557 Y55.72271
G01 X21.48055 Y55.82147
G01 X21.59287 Y55.94539
G01 X21.68829 Y56.10742
G01 X21.74486 Y56.28674
G01 X21.76178 Y56.45314
G01 X21.76124 Y57.46360
G01 X21.74049 Y57.63998
G01 X21.68829 Y57.79886
G01 X21.60516 Y57.94397
G01 X21.48055 Y58.08481
G01 X21.34557 Y58.18357
G01 X21.17445 Y58.26154
G01 X21.01098 Y58.29685
G01 X20.83338 Y58.29903
G01 X20.64913 Y58.26154
G01 X20.49612 Y58.19400
G01 X20.34303 Y58.08481
G01 X20.23072 Y57.96088
G01 X20.13526 Y57.79886
G01 X20.07872 Y57.61953
G01 X20.06178 Y57.45314
G01 X20.06178 Y56.45314
G04 P0 ( dwell for no time -- G64 should not smooth over this point )
G00 Z5.00000 ( retract )

G00 X22.60178 Y56.45314 ( rapid move to begin. )
G01 F300.00000
G01 Z-0.10000
G04 P0 ( dwell for no time -- G64 should not smooth over this point )
G01 F600.00000
G01 X22.60178 Y56.45314
G01 X22.62307 Y56.26630
G01 X22.68001 Y56.09810
G01 X22.75842 Y55.96231
G01 X22.89116 Y55.81489
G01 X23.03612 Y55.71227
G01 X23.18913 Y55.64473
G01 X23.37338 Y55.60724
G01 X23.55098 Y55.60943
G01 X23.71445 Y55.64473
G01 X23.88557 Y55.72271
G01 X24.02055 Y55.82147
G01 X24.13287 Y55.94539
G01 X24.23205 Y56.11717
G01 X24.28486 Y56.28674
G01 X24.30178 Y56.45314
G01 X24.30124 Y57.46360
G01 X24.28049 Y57.63998
G01 X24.22354 Y57.80820
G01 X24.13287 Y57.96088
G01 X24.02055 Y58.08481
G01 X23.88557 Y58.18357
G01 X23.71445 Y58.26154
G01 X23.55098 Y58.29685
G01 X23.37338 Y58.29903
G01 X23.18913 Y58.26154
G01 X23.03612 Y58.19400
G01 X22.88303 Y58.08481
G01 X22.77072 Y57.96088
G01 X22.68001 Y57.80820
G01 X22.61872 Y57.61953
G01 X22.60178 Y57.45314
G01 X22.60178 Y56.45314
G04 P0 ( dwell for no time -- G64 should not smooth over this point )
G00 Z5.00000 ( retract )

G00 X25.14178 Y56.45314 ( rapid move to begin. )
G01 F300.00000
G01 Z-0.10000
G04 P0 ( dwell for no time -- G64 should not smooth over this point )
G01 F600.00000
G01 X25.14178 Y56.45314
G01 X25.16307 Y56.26630
G01 X25.22001 Y56.09810
G01 X25.29842 Y55.96231
G01 X25.43116 Y55.81489
G01 X25.57612 Y55.71227
G01 X25.72913 Y55.64473
G01 X25.91338 Y55.60724
G01 X26.09098 Y55.60943
G01 X26.25445 Y55.64473
G01 X26.42557 Y55.72271
G01 X26.56055 Y55.82147
G01 X26.67287 Y55.94539
G01 X26.77205 Y56.11717
G01 X26.82486 Y56.28674
G01 X26.84178 Y56.45314
G01 X26.84124 Y57.46360
G01 X26.82049 Y57.63998
G01 X26.76354 Y57.80820
G01 X26.67287 Y57.96088
G01 X26.56055 Y58.08481
G01 X26.42557 Y58.18357
G01 X26.25445 Y58.26154
G01 X26.09098 Y58.29685
G01 X25.91338 Y58.29903
G01 X25.72913 Y58.26154
G01 X25.57612 Y58.19400
G01 X25.42303 Y58.08481
G01 X25.31072 Y57.96088
G01 X25.22001 Y57.80820
G01 X25.15872 Y57.61953
G01 X25.14178 Y57.45314
G01 X25.14178 Y56.45314
G04 P0 ( dwell for no time -- G64 should not smooth over this point )
G00 Z5.00000 ( retract )

G00 X27.68178 Y56.45314 ( rapid move to begin. )
G01 F300.00000
G01 Z-0.10000
G04 P0 ( dwell for no time -- G64 should not smooth over this point )
G01 F600.00000
G01 X27.68178 Y56.45314
G01 X27.70307 Y56.26630
G01 X27.76001 Y56.09810
G01 X27.83842 Y55.96231
G01 X27.97116 Y55.81489
G01 X28.09801 Y55.72271
G01 X28.25935 Y55.64849
G01 X28.45338 Y55.60724
G01 X28.62064 Y55.60780
G01 X28.79445 Y55.64473
G01 X28.96557 Y55.72271
G01 X29.10055 Y55.82147
G01 X29.21287 Y55.94539
G01 X29.31205 Y56.11717
G01 X29.36486 Y56.28674
G01 X29.38178 Y56.45314
G01 X29.38124 Y57.46360
G01 X29.36049 Y57.63998
G01 X29.30354 Y57.80820
G01 X29.21287 Y57.96088
G01 X29.10055 Y58.08481
G01 X28.96557 Y58.18357
G01 X28.79445 Y58.26154
G01 X28.62064 Y58.29847
G01 X28.44294 Y58.29847
G01 X28.27924 Y58.26424
G01 X28.11612 Y58.19400
G01 X27.96303 Y58.08481
G01 X27.85072 Y57.96088
G01 X27.76001 Y57.80820
G01 X27.69872 Y57.61953
G01 X27.68178 Y57.45314
G01 X27.68178 Y56.45314
G04 P0 ( dwell for no time -- G64 should not smooth over this point )
G00 Z5.00000 ( retract )

G00 X30.22178 Y56.45314 ( rapid move to begin. )
G01 F300.00000
G01 Z-0.10000
G04 P0 ( dwell for no time -- G64 should not smooth over this point )
G01 F600.00000
G01 X30.22178 Y56.45314
G01 X30.24307 Y56.26630
G01 X30.30001 Y56.09810
G01 X30.37842 Y55.96231
G01 X30.51116 Y55.81489
G01 X30.65612 Y55.71227
G01 X30.80913 Y55.64473
G01 X30.99338 Y55.60724
G01 X31.16064 Y55.60780
G01 X31.33445 Y55.64473
G01 X31.50557 Y55.72271
G01 X31.64055 Y55.82147
G01 X31.75287 Y55.94539
G01 X31.85205 Y56.11717
G01 X31.90486 Y56.28674
G01 X31.92178 Y56.45314
G01 X31.92124 Y57.46360
G01 X31.90321 Y57.62987
G01 X31.84354 Y57.80820
G01 X31.75287 Y57.96088
G01 X31.64055 Y58.08481
G01 X31.50557 Y58.18357
G01 X31.33445 Y58.26154
G01 X31.16064 Y58.29847
G01 X30.98294 Y58.29847
G01 X30.80913 Y58.26154
G01 X30.65612 Y58.19400
G01 X30.50303 Y58.08481
G01 X30.39072 Y57.96088
G01 X30.30001 Y57.80820
G01 X30.23872 Y57.61953
G01 X30.22178 Y57.45314
G01 X30.22178 Y56.45314
G04 P0 ( dwell for no time -- G64 should not smooth over this point )
G00 Z5.00000 ( retract )

G00 X32.76178 Y56.45314 ( rapid move to begin. )
G01 F300.00000
G01 Z-0.10000
G04 P0 ( dwell for no time -- G64 should not smooth over this point )
G01 F600.00000
G01 X32.76178 Y56.45314
G01 X32.78307 Y56.26630
G01 X32.84001 Y56.09810
G01 X32.91842 Y55.96231
G01 X33.05116 Y55.81489
G01 X33.19612 Y55.71227
G01 X33.34913 Y55.64473
G01 X33.53338 Y55.60724
G01 X33.70064 Y55.60780
G01 X33.87445 Y55.64473
G01 X34.04557 Y55.72271
G01 X34.18055 Y55.82147
G01 X34.29287 Y55.94539
G01 X34.39205 Y56.11717
G01 X34.44486 Y56.28674
G01 X34.46178 Y56.45314
G01 X34.46124 Y57.46360
G01 X34.44321 Y57.62987
G01 X34.38354 Y57.80820
G01 X34.29287 Y57.96088
G01 X34.18055 Y58.08481
G01 X34.04557 Y58.18357
G01 X33.87445 Y58.26154
G01 X33.70064 Y58.29847
G01 X33.52294 Y58.29847
G01 X33.34913 Y58.26154
G01 X33.19612 Y58.19400
G01 X33.04303 Y58.08481
G01 X32.93072 Y57.96088
G01 X32.84001 Y57.80820
G01 X32.77872 Y57.61953
G01 X32.76178 Y57.45314
G01 X32.76178 Y56.45314
G04 P0 ( dwell for no time -- G64 should not smooth over this point )
G00 Z5.00000 ( retract )

G00 X36.82179 Y56.45314 ( rapid move to begin. )
G01 F300.00000
G01 Z-0.10000
G04 P0 ( dwell for no time -- G64 should not smooth over this point )
G01 F600.00000
G01 X36.82179 Y56.45314
G01 X36.84308 Y56.26630
G01 X36.89152 Y56.11717
G01 X36.97841 Y55.96231
G01 X37.11115 Y55.81489
G01 X37.25611 Y55.71227
G01 X37.40912 Y55.64473
G01 X37.59339 Y55.60724
G01 X37.76063 Y55.60780
G01 X37.93444 Y55.64473
G01 X38.10556 Y55.72271
G01 X38.24053 Y55.82147
G01 X38.35285 Y55.94539
G01 X38.44356 Y56.09810
G01 X38.50485 Y56.28674
G01 X38.52179 Y56.45314
G01 X38.52179 Y57.45314
G01 X38.50322 Y57.62987
G01 X38.44356 Y57.80820
G01 X38.35285 Y57.96088
G01 X38.24053 Y58.08481
G01 X38.10556 Y58.18357
G01 X37.93444 Y58.26154
G01 X37.76063 Y58.29847
G01 X37.58293 Y58.29847
G01 X37.40912 Y58.26154
G01 X37.25611 Y58.19400
G01 X37.10302 Y58.08481
G01 X36.99070 Y57.96088
G01 X36.89152 Y57.78910
G01 X36.83873 Y57.61953
G01 X36.82179 Y57.45314
G01 X36.82179 Y56.45314
G04 P0 ( dwell for no time -- G64 should not smooth over this point )
G00 Z5.00000 ( retract )

G00 X39.36179 Y56.45314 ( rapid move to begin. )
G01 F300.00000
G01 Z-0.10000
G04 P0 ( dwell for no time -- G64 should not smooth over this point )
G01 F600.00000
G01 X39.36179 Y56.45314
G01 X39.38308 Y56.26630
G01 X39.43527 Y56.10742
G01 X39.51841 Y55.96231
G01 X39.65115 Y55.81489
G01 X39.79611 Y55.71227
G01 X39.94912 Y55.64473
G01 X40.13339 Y55.60724
G01 X40.30063 Y55.60780
G01 X40.47444 Y55.64473
G01 X40.64556 Y55.72271
G01 X40.78053 Y55.82147
G01 X40.89285 Y55.94539
G01 X40.98356 Y56.09810
G01 X41.04485 Y56.28674
G01 X41.06179 Y56.45314
G01 X41.06179 Y57.45314
G01 X41.04050 Y57.63998
G01 X40.98356 Y57.80820
G01 X40.89285 Y57.96088
G01 X40.78053 Y58.08481
G01 X40.64556 Y58.18357
G01 X40.47444 Y58.26154
G01 X40.30063 Y58.29847
G01 X40.12293 Y58.29847
G01 X39.94912 Y58.26154
G01 X39.79611 Y58.19400
G01 X39.64302 Y58.08481
G01 X39.53070 Y57.96088
G01 X39.43527 Y57.79886
G01 X39.37873 Y57.61953
G01 X39.36179 Y57.45314
G01 X39.36179 Y56.45314
G04 P0 ( dwell for no time -- G64 should not smooth over this point )
G00 Z5.00000 ( retract )

G00 X41.90179 Y56.45314 ( rapid move to begin. )
G01 F300.00000
G01 Z-0.10000
G04 P0 ( dwell for no time -- G64 should not smooth over this point )
G01 F600.00000
G01 X41.90179 Y56.45314
G01 X41.92308 Y56.26630
G01 X41.97152 Y56.11717
G01 X42.05841 Y55.96231
G01 X42.19115 Y55.81489
G01 X42.33611 Y55.71227
G01 X42.48912 Y55.64473
G01 X42.67339 Y55.60724
G01 X42.84063 Y55.60780
G01 X43.01444 Y55.64473
G01 X43.18556 Y55.72271
G01 X43.32053 Y55.82147
G01 X43.43285 Y55.94539
G01 X43.52356 Y56.09810
G01 X43.58485 Y56.28674
G01 X43.60179 Y56.45314
G01 X43.60179 Y57.45314
G01 X43.58322 Y57.62987
G01 X43.52356 Y57.80820
G01 X43.43285 Y57.96088
G01 X43.32053 Y58.08481
G01 X43.18556 Y58.18357
G01 X43.01444 Y58.26154
G01 X42.84063 Y58.29847
G01 X42.66293 Y58.29847
G01 X42.48912 Y58.26154
G01 X42.33611 Y58.19400
G01 X42.18302 Y58.08481
G01 X42.07070 Y57.96088
G01 X41.97152 Y57.78910
G01 X41.91873 Y57.61953
G01 X41.90179 Y57.45314
G01 X41.90179 Y56.45314
G04 P0 ( dwell for no time -- G64 should not smooth over this point )
G00 Z5.00000 ( retract )

G00 X44.44179 Y56.45314 ( rapid move to begin. )
G01 F300.00000
G01 Z-0.10000
G04 P0 ( dwell for no time -- G64 should not smooth over this point )
G01 F600.00000
G01 X44.44179 Y56.45314
G01 X44.46308 Y56.26630
G01 X44.51152 Y56.11717
G01 X44.59841 Y55.96231
G01 X44.73115 Y55.81489
G01 X44.87611 Y55.71227
G01 X45.02912 Y55.64473
G01 X45.21339 Y55.60724
G01 X45.38063 Y55.60780
G01 X45.55444 Y55.64473
G01 X45.72556 Y55.72271
G01 X45.86053 Y55.82147
G01 X45.97285 Y55.94539
G01 X46.06356 Y56.09810
G01 X46.12485 Y56.28674
G01 X46.14179 Y56.45314
G01 X46.14179 Y57.45314
G01 X46.12050 Y57.63998
G01 X46.06356 Y57.80820
G01 X45.97285 Y57.96088
G01 X45.86053 Y58.08481
G01 X45.72556 Y58.18357
G01 X45.55444 Y58.26154
G01 X45.38063 Y58.29847
G01 X45.20293 Y58.29847
G01 X45.02912 Y58.26154
G01 X44.87611 Y58.19400
G01 X44.72302 Y58.08481
G01 X44.61070 Y57.96088
G01 X44.51152 Y57.78910
G01 X44.45873 Y57.61953
G01 X44.44179 Y57.45314
G01 X44.44179 Y56.45314
G04 P0 ( dwell for no time -- G64 should not smooth over this point )
G00 Z5.00000 ( retract )

G00 X46.98179 Y56.45314 ( rapid move to begin. )
G01 F300.00000
G01 Z-0.10000
G04 P0 ( dwell for no time -- G64 should not smooth over this point )
G01 F600.00000
G01 X46.98179 Y56.45314
G01 X47.00308 Y56.26630
G01 X47.05152 Y56.11717
G01 X47.13841 Y55.96231
G01 X47.27115 Y55.81489
G01 X47.41611 Y55.71227
G01 X47.56912 Y55.64473
G01 X47.75339 Y55.60724
G01 X47.92063 Y55.60780
G01 X48.09444 Y55.64473
G01 X48.26556 Y55.72271
G01 X48.40053 Y55.82147
G01 X48.51285 Y55.94539
G01 X48.60356 Y56.09810
G01 X48.66485 Y56.28674
G01 X48.68179 Y56.45314
G01 X48.68179 Y57.45314
G01 X48.66322 Y57.62987
G01 X48.60356 Y57.80820
G01 X48.51285 Y57.96088
G01 X48.40053 Y58.08481
G01 X48.26556 Y58.18357
G01 X48.09444 Y58.26154
G01 X47.92063 Y58.29847
G01 X47.74293 Y58.29847
G01 X47.56912 Y58.26154
G01 X47.41611 Y58.19400
G01 X47.26302 Y58.08481
G01 X47.15070 Y57.96088
G01 X47.05152 Y57.78910
G01 X46.99873 Y57.61953
G01 X46.98179 Y57.45314
G01 X46.98179 Y56.45314
G04 P0 ( dwell for no time -- G64 should not smooth over this point )
G00 Z5.00000 ( retract )

G00 X49.52179 Y56.45314 ( rapid move to begin. )
G01 F300.00000
G01 Z-0.10000
G04 P0 ( dwell for no time -- G64 should not smooth over this point )
G01 F600.00000
G01 X49.52179 Y56.45314
G01 X49.54308 Y56.26630
G01 X49.59152 Y56.11717
G01 X49.67841 Y55.96231
G01 X49.81115 Y55.81489
G01 X49.95611 Y55.71227
G01 X50.10912 Y55.64473
G01 X50.29339 Y55.60724
G01 X50.46063 Y55.60780
G01 X50.63444 Y55.64473
G01 X50.80556 Y55.72271
G01 X50.94053 Y55.82147
G01 X51.05285 Y55.94539
G01 X51.14356 Y56.09810
G01 X51.20485 Y56.28674
G01 X51.22179 Y56.45314
G01 X51.22179 Y57.45314
G01 X51.20322 Y57.62987
G01 X51.14356 Y57.80820
G01 X51.05285 Y57.96088
G01 X50.94053 Y58.08481
G01 X50.80556 Y58.18357
G01 X50.63444 Y58.26154
G01 X50.46063 Y58.29847
G01 X50.28293 Y58.29847
G01 X50.10912 Y58.26154
G01 X49.95611 Y58.19400
G01 X49.80302 Y58.08481
G01 X49.69070 Y57.96088
G01 X49.59152 Y57.78910
G01 X49.53873 Y57.61953
G01 X49.52179 Y57.45314
G01 X49.52179 Y56.45314
G04 P0 ( dwell for no time -- G64 should not smooth over this point )
G00 Z5.00000 ( retract )

G00 X52.06179 Y56.45314 ( rapid move to begin. )
G01 F300.00000
G01 Z-0.10000
G04 P0 ( dwell for no time -- G64 should not smooth over this point )
G01 F600.00000
G01 X52.06179 Y56.45314
G01 X52.08308 Y56.26630
G01 X52.13527 Y56.10742
G01 X52.21841 Y55.96231
G01 X52.35115 Y55.81489
G01 X52.49611 Y55.71227
G01 X52.64912 Y55.64473
G01 X52.83339 Y55.60724
G01 X53.00063 Y55.60780
G01 X53.17444 Y55.64473
G01 X53.34556 Y55.72271
G01 X53.48053 Y55.82147
G01 X53.59285 Y55.94539
G01 X53.68831 Y56.10742
G01 X53.74485 Y56.28674
G01 X53.76179 Y56.45314
G01 X53.76179 Y57.45314
G01 X53.74050 Y57.63998
G01 X53.68831 Y57.79886
G01 X53.60515 Y57.94397
G01 X53.48053 Y58.08481
G01 X53.34556 Y58.18357
G01 X53.17444 Y58.26154
G01 X53.00063 Y58.29847
G01 X52.82293 Y58.29847
G01 X52.64912 Y58.26154
G01 X52.49611 Y58.19400
G01 X52.34302 Y58.08481
G01 X52.23070 Y57.96088
G01 X52.13527 Y57.79886
G01 X52.07873 Y57.61953
G01 X52.06179 Y57.45314
G01 X52.06179 Y56.45314
G04 P0 ( dwell for no time -- G64 should not smooth over this point )
G00 Z5.00000 ( retract )

G00 X54.60179 Y56.45314 ( rapid move to begin. )
G01 F300.00000
G01 Z-0.10000
G04 P0 ( dwell for no time -- G64 should not smooth over this point )
G01 F600.00000
G01 X54.60179 Y56.45314
G01 X54.62308 Y56.26630
G01 X54.67527 Y56.10742
G01 X54.75841 Y55.96231
G01 X54.89115 Y55.81489
G01 X55.03611 Y55.71227
G01 X55.18912 Y55.64473
G01 X55.37339 Y55.60724
G01 X55.55097 Y55.60943
G01 X55.71444 Y55.64473
G01 X55.88556 Y55.72271
G01 X56.02053 Y55.82147
G01 X56.13285 Y55.94539
G01 X56.22831 Y56.10742
G01 X56.28485 Y56.28674
G01 X56.30179 Y56.45314
G01 X56.30179 Y57.45314
G01 X56.28050 Y57.63998
G01 X56.22831 Y57.79886
G01 X56.14515 Y57.94397
G01 X56.02053 Y58.08481
G01 X55.88556 Y58.18357
G01 X55.71444 Y58.26154
G01 X55.55097 Y58.29685
G01 X55.37339 Y58.29903
G01 X55.18912 Y58.26154
G01 X55.03611 Y58.19400
G01 X54.88302 Y58.08481
G01 X54.77070 Y57.96088
G01 X54.67527 Y57.79886
G01 X54.61873 Y57.61953
G01 X54.60179 Y57.45314
G01 X54.60179 Y56.45314
G04 P0 ( dwell for no time -- G64 should not smooth over this point )
G00 Z5.00000 ( retract )

G00 X57.14179 Y56.45314 ( rapid move to begin. )
G01 F300.00000
G01 Z-0.10000
G04 P0 ( dwell for no time -- G64 should not smooth over this point )
G01 F600.00000
G01 X57.14179 Y56.45314
G01 X57.16308 Y56.26630
G01 X57.21527 Y56.10742
G01 X57.29841 Y55.96231
G01 X57.43115 Y55.81489
G01 X57.57611 Y55.71227
G01 X57.72912 Y55.64473
G01 X57.91339 Y55.60724
G01 X58.09097 Y55.60943
G01 X58.25444 Y55.64473
G01 X58.42556 Y55.72271
G01 X58.56053 Y55.82147
G01 X58.67285 Y55.94539
G01 X58.76831 Y56.10742
G01 X58.82485 Y56.28674
G01 X58.84179 Y56.45314
G01 X58.84179 Y57.45314
G01 X58.82050 Y57.63998
G01 X58.76831 Y57.79886
G01 X58.68515 Y57.94397
G01 X58.56053 Y58.08481
G01 X58.42556 Y58.18357
G01 X58.25444 Y58.26154
G01 X58.09097 Y58.29685
G01 X57.91339 Y58.29903
G01 X57.72912 Y58.26154
G01 X57.57611 Y58.19400
G01 X57.42302 Y58.08481
G01 X57.31070 Y57.96088
G01 X57.21527 Y57.79886
G01 X57.15873 Y57.61953
G01 X57.14179 Y57.45314
G01 X57.14179 Y56.45314
G04 P0 ( dwell for no time -- G64 should not smooth over this point )
G00 Z5.00000 ( retract )

G00 X59.68179 Y56.45314 ( rapid move to begin. )
G01 F300.00000
G01 Z-0.10000
G04 P0 ( dwell for no time -- G64 should not smooth over this point )
G01 F600.00000
G01 X59.68179 Y56.45314
G01 X59.70308 Y56.26630
G01 X59.75527 Y56.10742
G01 X59.83841 Y55.96231
G01 X59.97115 Y55.81489
G01 X60.11611 Y55.71227
G01 X60.26912 Y55.64473
G01 X60.45339 Y55.60724
G01 X60.63097 Y55.60943
G01 X60.79444 Y55.64473
G01 X60.96556 Y55.72271
G01 X61.10053 Y55.82147
G01 X61.21285 Y55.94539
G01 X61.30831 Y56.10742
G01 X61.36485 Y56.28674
G01 X61.38179 Y56.45314
G01 X61.38179 Y57.45314
G01 X61.36050 Y57.63998
G01 X61.30831 Y57.79886
G01 X61.22515 Y57.94397
G01 X61.10053 Y58.08481
G01 X60.96556 Y58.18357
G01 X60.79444 Y58.26154
G01 X60.63097 Y58.29685
G01 X60.45339 Y58.29903
G01 X60.26912 Y58.26154
G01 X60.11611 Y58.19400
G01 X59.96302 Y58.08481
G01 X59.85070 Y57.96088
G01 X59.75527 Y57.79886
G01 X59.69873 Y57.61953
G01 X59.68179 Y57.45314
G01 X59.68179 Y56.45314
G04 P0 ( dwell for no time -- G64 should not smooth over this point )
G00 Z5.00000 ( retract )

G00 X59.58078 Y44.31080 ( rapid move to begin. )
G01 F300.00000
G01 Z-0.10000
G04 P0 ( dwell for no time -- G64 should not smooth over this point )
G01 F600.00000
G01 X59.58078 Y44.31080
G01 X59.60318 Y44.09243
G01 X59.67214 Y43.87318
G01 X59.79086 Y43.66424
G01 X59.93734 Y43.50074
G01 X60.14011 Y43.35342
G01 X60.35098 Y43.26193
G01 X60.57625 Y43.21629
G01 X60.79576 Y43.21684
G01 X61.03048 Y43.26841
G01 X61.23957 Y43.36388
G01 X61.42423 Y43.50074
G01 X61.57071 Y43.66424
G01 X61.68943 Y43.87318
G01 X61.75839 Y44.09243
G01 X61.78080 Y44.31080
G01 X61.75839 Y44.52919
G01 X61.68943 Y44.74844
G01 X61.57071 Y44.95738
G01 X61.42423 Y45.12088
G01 X61.22146 Y45.26820
G01 X61.02070 Y45.35697
G01 X60.78532 Y45.40533
G01 X60.55548 Y45.40315
G01 X60.34087 Y45.35697
G01 X60.14011 Y45.26820
G01 X59.94473 Y45.12827
G01 X59.79086 Y44.95738
G01 X59.67214 Y44.74844
G01 X59.60318 Y44.52919
G01 X59.58078 Y44.31080
G04 P0 ( dwell for no time -- G64 should not smooth over this point )
G00 Z5.00000 ( retract )

G00 X57.04078 Y39.86580 ( rapid move to begin. )
G01 F300.00000
G01 Z-0.10000
G04 P0 ( dwell for no time -- G64 should not smooth over this point )
G01 F600.00000
G01 X57.04078 Y39.86580
G01 X57.06318 Y39.64743
G01 X57.13214 Y39.42818
G01 X57.25086 Y39.21924
G01 X57.39734 Y39.05574
G01 X57.60011 Y38.90842
G01 X57.81098 Y38.81693
G01 X58.03625 Y38.77129
G01 X58.25576 Y38.77184
G01 X58.49048 Y38.82341
G01 X58.69957 Y38.91888
G01 X58.88423 Y39.05574
G01 X59.03071 Y39.21924
G01 X59.14943 Y39.42818
G01 X59.21839 Y39.64743
G01 X59.24080 Y39.86580
G01 X59.21839 Y40.08419
G01 X59.14943 Y40.30344
G01 X59.03071 Y40.51238
G01 X58.88423 Y40.67588
G01 X58.68146 Y40.82320
G01 X58.47059 Y40.91469
G01 X58.24532 Y40.96033
G01 X58.02581 Y40.95977
G01 X57.79109 Y40.90821
G01 X57.58200 Y40.81273
G01 X57.39734 Y40.67588
G01 X57.25086 Y40.51238
G01 X57.13214 Y40.30344
G01 X57.06318 Y40.08419
G01 X57.04078 Y39.86580
G04 P0 ( dwell for no time -- G64 should not smooth over this point )
G00 Z5.00000 ( retract )

G00 X53.71579 Y23.35580 ( rapid move to begin. )
G01 F300.00000
G01 Z-0.10000
G04 P0 ( dwell for no time -- G64 should not smooth over this point )
G01 F600.00000
G01 X53.71579 Y23.35580
G01 X53.74147 Y23.10627
G01 X53.82011 Y22.85717
G01 X53.95452 Y22.62108
G01 X54.12196 Y22.43428
G01 X54.33202 Y22.27899
G01 X54.56974 Y22.17073
G01 X54.84558 Y22.11211
G01 X55.10680 Y22.11430
G01 X55.35206 Y22.16700
G01 X55.59956 Y22.27899
G01 X55.80961 Y22.43428
G01 X55.97705 Y22.62108
G01 X56.11147 Y22.85717
G01 X56.19011 Y23.10627
G01 X56.21578 Y23.35580
G01 X56.19011 Y23.60535
G01 X56.11147 Y23.85445
G01 X55.97705 Y24.09054
G01 X55.80961 Y24.27733
G01 X55.59956 Y24.43263
G01 X55.36184 Y24.54088
G01 X55.08599 Y24.59951
G01 X54.82478 Y24.59732
G01 X54.57952 Y24.54462
G01 X54.35010 Y24.44309
G01 X54.12938 Y24.28475
G01 X53.95452 Y24.09054
G01 X53.82011 Y23.85445
G01 X53.74147 Y23.60535
G01 X53.71579 Y23.35580
G04 P0 ( dwell for no time -- G64 should not smooth over this point )
G00 Z5.00000 ( retract )

G00 X53.71579 Y20.81580 ( rapid move to begin. )
G01 F300.00000
G01 Z-0.10000
G04 P0 ( dwell for no time -- G64 should not smooth over this point )
G01 F600.00000
G01 X53.71579 Y20.81580
G01 X53.74147 Y20.56627
G01 X53.82011 Y20.31717
G01 X53.95452 Y20.08108
G01 X54.12196 Y19.89428
G01 X54.33202 Y19.73899
G01 X54.56974 Y19.63073
G01 X54.84558 Y19.57211
G01 X55.10680 Y19.57430
G01 X55.35206 Y19.62700
G01 X55.59956 Y19.73899
G01 X55.80961 Y19.89428
G01 X55.97705 Y20.08108
G01 X56.11147 Y20.31717
G01 X56.19011 Y20.56627
G01 X56.21578 Y20.81580
G01 X56.19011 Y21.06535
G01 X56.11147 Y21.31445
G01 X55.97705 Y21.55054
G01 X55.80961 Y21.73733
G01 X55.59956 Y21.89263
G01 X55.36184 Y22.00088
G01 X55.08599 Y22.05951
G01 X54.82478 Y22.05732
G01 X54.57952 Y22.00462
G01 X54.33202 Y21.89263
G01 X54.12196 Y21.73733
G01 X53.95452 Y21.55054
G01 X53.82011 Y21.31445
G01 X53.74147 Y21.06535
G01 X53.71579 Y20.81580
G04 P0 ( dwell for no time -- G64 should not smooth over this point )
G00 Z5.00000 ( retract )

G00 X53.71579 Y18.27580 ( rapid move to begin. )
G01 F300.00000
G01 Z-0.10000
G04 P0 ( dwell for no time -- G64 should not smooth over this point )
G01 F600.00000
G01 X53.71579 Y18.27580
G01 X53.74147 Y18.02627
G01 X53.82011 Y17.77717
G01 X53.95452 Y17.54108
G01 X54.12196 Y17.35428
G01 X54.33202 Y17.19899
G01 X54.56974 Y17.09073
G01 X54.84558 Y17.03211
G01 X55.10680 Y17.03430
G01 X55.35206 Y17.08700
G01 X55.59956 Y17.19899
G01 X55.80961 Y17.35428
G01 X55.97705 Y17.54108
G01 X56.11147 Y17.77717
G01 X56.19011 Y18.02627
G01 X56.21578 Y18.27580
G01 X56.19011 Y18.52535
G01 X56.11147 Y18.77445
G01 X55.97705 Y19.01054
G01 X55.80961 Y19.19733
G01 X55.59956 Y19.35263
G01 X55.36184 Y19.46088
G01 X55.08599 Y19.51951
G01 X54.82478 Y19.51732
G01 X54.57952 Y19.46462
G01 X54.35010 Y19.36309
G01 X54.12938 Y19.20475
G01 X53.95452 Y19.01054
G01 X53.82011 Y18.77445
G01 X53.74147 Y18.52535
G01 X53.71579 Y18.27580
G04 P0 ( dwell for no time -- G64 should not smooth over this point )
G00 Z5.00000 ( retract )

G00 X66.56578 Y15.73580 ( rapid move to begin. )
G01 F300.00000
G01 Z-0.10000
G04 P0 ( dwell for no time -- G64 should not smooth over this point )
G01 F600.00000
G01 X66.56578 Y15.73580
G01 X66.58818 Y15.51743
G01 X66.65714 Y15.29818
G01 X66.77586 Y15.08924
G01 X66.92234 Y14.92574
G01 X67.12511 Y14.77842
G01 X67.33598 Y14.68693
G01 X67.56125 Y14.64129
G01 X67.78076 Y14.64184
G01 X68.01548 Y14.69341
G01 X68.22457 Y14.78888
G01 X68.40923 Y14.92574
G01 X68.55571 Y15.08924
G01 X68.67443 Y15.29818
G01 X68.74339 Y15.51743
G01 X68.76580 Y15.73580
G01 X68.74339 Y15.95419
G01 X68.67443 Y16.17344
G01 X68.55571 Y16.38238
G01 X68.40923 Y16.54588
G01 X68.20646 Y16.69320
G01 X67.99559 Y16.78469
G01 X67.77032 Y16.83033
G01 X67.55081 Y16.82977
G01 X67.31609 Y16.77821
G01 X67.10700 Y16.68273
G01 X66.92234 Y16.54588
G01 X66.77586 Y16.38238
G01 X66.65714 Y16.17344
G01 X66.58818 Y15.95419
G01 X66.56578 Y15.73580
G04 P0 ( dwell for no time -- G64 should not smooth over this point )
G00 Z5.00000 ( retract )

G00 X66.56578 Y18.27580 ( rapid move to begin. )
G01 F300.00000
G01 Z-0.10000
G04 P0 ( dwell for no time -- G64 should not smooth over this point )
G01 F600.00000
G01 X66.56578 Y18.27580
G01 X66.58818 Y18.05743
G01 X66.65714 Y17.83818
G01 X66.77586 Y17.62924
G01 X66.92234 Y17.46574
G01 X67.12511 Y17.31842
G01 X67.33598 Y17.22693
G01 X67.56125 Y17.18129
G01 X67.78076 Y17.18184
G01 X68.01548 Y17.23341
G01 X68.22457 Y17.32888
G01 X68.40923 Y17.46574
G01 X68.55571 Y17.62924
G01 X68.67443 Y17.83818
G01 X68.74339 Y18.05743
G01 X68.76580 Y18.27580
G01 X68.74339 Y18.49419
G01 X68.67443 Y18.71344
G01 X68.55571 Y18.92238
G01 X68.40923 Y19.08588
G01 X68.20646 Y19.23320
G01 X67.99559 Y19.32469
G01 X67.77032 Y19.37033
G01 X67.55081 Y19.36977
G01 X67.31609 Y19.31821
G01 X67.10700 Y19.22273
G01 X66.92234 Y19.08588
G01 X66.77586 Y18.92238
G01 X66.65714 Y18.71344
G01 X66.58818 Y18.49419
G01 X66.56578 Y18.27580
G04 P0 ( dwell for no time -- G64 should not smooth over this point )
G00 Z5.00000 ( retract )

G00 X66.56578 Y20.81580 ( rapid move to begin. )
G01 F300.00000
G01 Z-0.10000
G04 P0 ( dwell for no time -- G64 should not smooth over this point )
G01 F600.00000
G01 X66.56578 Y20.81580
G01 X66.58818 Y20.59743
G01 X66.65714 Y20.37818
G01 X66.77586 Y20.16924
G01 X66.92234 Y20.00574
G01 X67.12511 Y19.85842
G01 X67.33598 Y19.76693
G01 X67.56125 Y19.72129
G01 X67.78076 Y19.72184
G01 X68.01548 Y19.77341
G01 X68.22457 Y19.86888
G01 X68.40923 Y20.00574
G01 X68.55571 Y20.16924
G01 X68.67443 Y20.37818
G01 X68.74339 Y20.59743
G01 X68.76580 Y20.81580
G01 X68.74339 Y21.03419
G01 X68.67443 Y21.25344
G01 X68.55571 Y21.46238
G01 X68.40923 Y21.62588
G01 X68.20646 Y21.77320
G01 X67.99559 Y21.86469
G01 X67.77032 Y21.91033
G01 X67.55081 Y21.90977
G01 X67.31609 Y21.85821
G01 X67.10700 Y21.76273
G01 X66.92234 Y21.62588
G01 X66.77586 Y21.46238
G01 X66.65714 Y21.25344
G01 X66.58818 Y21.03419
G01 X66.56578 Y20.81580
G04 P0 ( dwell for no time -- G64 should not smooth over this point )
G00 Z5.00000 ( retract )

G00 X76.11138 Y15.50745 ( rapid move to begin. )
G01 F300.00000
G01 Z-0.10000
G04 P0 ( dwell for no time -- G64 should not smooth over this point )
G01 F600.00000
G01 X76.11138 Y15.50745
G01 X76.11356 Y15.66496
G01 X76.14470 Y15.80880
G01 X76.21450 Y15.96158
G01 X76.30886 Y16.08774
G01 X76.41859 Y16.18581
G01 X76.56487 Y16.26838
G01 X76.70502 Y16.31334
G01 X76.86179 Y16.32980
G01 X78.16979 Y16.32980
G01 X78.32656 Y16.31334
G01 X78.46669 Y16.26838
G01 X78.61297 Y16.18581
G01 X78.73669 Y16.07219
G01 X78.82753 Y15.94349
G01 X78.88313 Y15.81858
G01 X78.92021 Y15.64418
G01 X78.91803 Y15.48665
G01 X78.88688 Y15.34281
G01 X78.82278 Y15.19882
G01 X78.72272 Y15.06389
G01 X78.61297 Y14.96582
G01 X78.46669 Y14.88325
G01 X78.31622 Y14.83664
G01 X78.16979 Y14.82180
G01 X76.86179 Y14.82180
G01 X76.71536 Y14.83664
G01 X76.56487 Y14.88325
G01 X76.41046 Y14.97240
G01 X76.29487 Y15.07941
G01 X76.21450 Y15.19003
G01 X76.14470 Y15.34281
G01 X76.11138 Y15.50745
G04 P0 ( dwell for no time -- G64 should not smooth over this point )
G00 Z5.00000 ( retract )

G00 X76.11138 Y18.04745 ( rapid move to begin. )
G01 F300.00000
G01 Z-0.10000
G04 P0 ( dwell for no time -- G64 should not smooth over this point )
G01 F600.00000
G01 X76.11138 Y18.04745
G01 X76.11356 Y18.20496
G01 X76.14470 Y18.34880
G01 X76.20881 Y18.49281
G01 X76.30886 Y18.62774
G01 X76.41859 Y18.72581
G01 X76.56487 Y18.80838
G01 X76.71536 Y18.85497
G01 X76.86179 Y18.86980
G01 X78.16979 Y18.86980
G01 X78.31622 Y18.85497
G01 X78.46669 Y18.80838
G01 X78.61297 Y18.72581
G01 X78.73669 Y18.61219
G01 X78.82278 Y18.49281
G01 X78.88313 Y18.35858
G01 X78.92021 Y18.18418
G01 X78.91803 Y18.02665
G01 X78.88688 Y17.88281
G01 X78.82278 Y17.73882
G01 X78.72272 Y17.60389
G01 X78.61297 Y17.50582
G01 X78.47647 Y17.42700
G01 X78.31622 Y17.37664
G01 X78.16979 Y17.36180
G01 X76.86179 Y17.36180
G01 X76.71536 Y17.37664
G01 X76.56487 Y17.42325
G01 X76.41046 Y17.51240
G01 X76.29487 Y17.61941
G01 X76.21450 Y17.73003
G01 X76.14470 Y17.88281
G01 X76.11138 Y18.04745
G04 P0 ( dwell for no time -- G64 should not smooth over this point )
G00 Z5.00000 ( retract )

G00 X76.11138 Y20.58745 ( rapid move to begin. )
G01 F300.00000
G01 Z-0.10000
G04 P0 ( dwell for no time -- G64 should not smooth over this point )
G01 F600.00000
G01 X76.11138 Y20.58745
G01 X76.11356 Y20.74496
G01 X76.14470 Y20.88880
G01 X76.21450 Y21.04158
G01 X76.30886 Y21.16774
G01 X76.41859 Y21.26581
G01 X76.56487 Y21.34838
G01 X76.70502 Y21.39334
G01 X76.86179 Y21.40980
G01 X78.16979 Y21.40980
G01 X78.32656 Y21.39334
G01 X78.46669 Y21.34838
G01 X78.61297 Y21.26581
G01 X78.73669 Y21.15219
G01 X78.82753 Y21.02349
G01 X78.88313 Y20.89858
G01 X78.92021 Y20.72418
G01 X78.91803 Y20.56665
G01 X78.88688 Y20.42281
G01 X78.81706 Y20.27003
G01 X78.72272 Y20.14389
G01 X78.61297 Y20.04582
G01 X78.46669 Y19.96325
G01 X78.32656 Y19.91829
G01 X78.16979 Y19.90180
G01 X76.86179 Y19.90180
G01 X76.70502 Y19.91829
G01 X76.56487 Y19.96325
G01 X76.41046 Y20.05240
G01 X76.29487 Y20.15941
G01 X76.21450 Y20.27003
G01 X76.14470 Y20.42281
G01 X76.11138 Y20.58745
G04 P0 ( dwell for no time -- G64 should not smooth over this point )
G00 Z5.00000 ( retract )

G00 X76.11138 Y23.12745 ( rapid move to begin. )
G01 F300.00000
G01 Z-0.10000
G04 P0 ( dwell for no time -- G64 should not smooth over this point )
G01 F600.00000
G01 X76.11138 Y23.12745
G01 X76.11356 Y23.28496
G01 X76.14470 Y23.42880
G01 X76.21450 Y23.58158
G01 X76.30886 Y23.70774
G01 X76.41859 Y23.80581
G01 X76.55511 Y23.88462
G01 X76.69492 Y23.93062
G01 X76.86179 Y23.94980
G01 X78.16979 Y23.94980
G01 X78.31622 Y23.93497
G01 X78.46669 Y23.88838
G01 X78.61297 Y23.80581
G01 X78.73669 Y23.69219
G01 X78.82753 Y23.56349
G01 X78.88313 Y23.43858
G01 X78.92021 Y23.26418
G01 X78.91803 Y23.10665
G01 X78.88688 Y22.96281
G01 X78.82278 Y22.81882
G01 X78.72272 Y22.68389
G01 X78.61297 Y22.58582
G01 X78.46669 Y22.50325
G01 X78.31622 Y22.45664
G01 X78.16979 Y22.44180
G01 X76.86179 Y22.44180
G01 X76.71536 Y22.45664
G01 X76.56487 Y22.50325
G01 X76.41046 Y22.59240
G01 X76.29487 Y22.69941
G01 X76.21450 Y22.81003
G01 X76.14470 Y22.96281
G01 X76.11138 Y23.12745
G04 P0 ( dwell for no time -- G64 should not smooth over this point )
G00 Z5.00000 ( retract )

G00 X76.11138 Y25.66745 ( rapid move to begin. )
G01 F300.00000
G01 Z-0.10000
G04 P0 ( dwell for no time -- G64 should not smooth over this point )
G01 F600.00000
G01 X76.11138 Y25.66745
G01 X76.11356 Y25.82496
G01 X76.14470 Y25.96880
G01 X76.20881 Y26.11281
G01 X76.30886 Y26.24774
G01 X76.41859 Y26.34581
G01 X76.56487 Y26.42838
G01 X76.71536 Y26.47497
G01 X76.86179 Y26.48980
G01 X78.16979 Y26.48980
G01 X78.31622 Y26.47497
G01 X78.46669 Y26.42838
G01 X78.61297 Y26.34581
G01 X78.73669 Y26.23219
G01 X78.82278 Y26.11281
G01 X78.88313 Y25.97858
G01 X78.92021 Y25.80418
G01 X78.91803 Y25.64665
G01 X78.88688 Y25.50281
G01 X78.81706 Y25.35003
G01 X78.72272 Y25.22389
G01 X78.61297 Y25.12582
G01 X78.47647 Y25.04700
G01 X78.31622 Y24.99664
G01 X78.16979 Y24.98180
G01 X76.86179 Y24.98180
G01 X76.71536 Y24.99664
G01 X76.56487 Y25.04325
G01 X76.41046 Y25.13240
G01 X76.29487 Y25.23941
G01 X76.21450 Y25.35003
G01 X76.14470 Y25.50281
G01 X76.11138 Y25.66745
G04 P0 ( dwell for no time -- G64 should not smooth over this point )
G00 Z5.00000 ( retract )

G00 X76.11138 Y28.20745 ( rapid move to begin. )
G01 F300.00000
G01 Z-0.10000
G04 P0 ( dwell for no time -- G64 should not smooth over this point )
G01 F600.00000
G01 X76.11138 Y28.20745
G01 X76.11356 Y28.36496
G01 X76.14470 Y28.50880
G01 X76.21450 Y28.66158
G01 X76.30886 Y28.78774
G01 X76.41859 Y28.88581
G01 X76.56487 Y28.96838
G01 X76.70502 Y29.01334
G01 X76.86179 Y29.02980
G01 X78.16979 Y29.02980
G01 X78.32656 Y29.01334
G01 X78.46669 Y28.96838
G01 X78.61297 Y28.88581
G01 X78.73669 Y28.77219
G01 X78.82753 Y28.64349
G01 X78.88313 Y28.51858
G01 X78.92021 Y28.34418
G01 X78.91803 Y28.18665
G01 X78.88688 Y28.04281
G01 X78.82278 Y27.89882
G01 X78.72272 Y27.76389
G01 X78.61297 Y27.66582
G01 X78.46669 Y27.58325
G01 X78.31622 Y27.53664
G01 X78.16979 Y27.52180
G01 X76.86179 Y27.52180
G01 X76.71536 Y27.53664
G01 X76.56487 Y27.58325
G01 X76.41046 Y27.67240
G01 X76.29487 Y27.77941
G01 X76.21450 Y27.89003
G01 X76.14470 Y28.04281
G01 X76.11138 Y28.20745
G04 P0 ( dwell for no time -- G64 should not smooth over this point )
G00 Z5.00000 ( retract )

G00 X76.11138 Y30.74745 ( rapid move to begin. )
G01 F300.00000
G01 Z-0.10000
G04 P0 ( dwell for no time -- G64 should not smooth over this point )
G01 F600.00000
G01 X76.11138 Y30.74745
G01 X76.11356 Y30.90496
G01 X76.14470 Y31.04880
G01 X76.20881 Y31.19281
G01 X76.30886 Y31.32774
G01 X76.41859 Y31.42581
G01 X76.56487 Y31.50838
G01 X76.71536 Y31.55497
G01 X76.86179 Y31.56980
G01 X78.16979 Y31.56980
G01 X78.31622 Y31.55497
G01 X78.46669 Y31.50838
G01 X78.61297 Y31.42581
G01 X78.73669 Y31.31219
G01 X78.82278 Y31.19281
G01 X78.88313 Y31.05858
G01 X78.92021 Y30.88418
G01 X78.91803 Y30.72665
G01 X78.88688 Y30.58281
G01 X78.82278 Y30.43882
G01 X78.72272 Y30.30389
G01 X78.61297 Y30.20582
G01 X78.47647 Y30.12700
G01 X78.31622 Y30.07664
G01 X78.16979 Y30.06180
G01 X76.86179 Y30.06180
G01 X76.71536 Y30.07664
G01 X76.56487 Y30.12325
G01 X76.41046 Y30.21240
G01 X76.29487 Y30.31941
G01 X76.21450 Y30.43003
G01 X76.14470 Y30.58281
G01 X76.11138 Y30.74745
G04 P0 ( dwell for no time -- G64 should not smooth over this point )
G00 Z5.00000 ( retract )

G00 X67.20078 Y39.86580 ( rapid move to begin. )
G01 F300.00000
G01 Z-0.10000
G04 P0 ( dwell for no time -- G64 should not smooth over this point )
G01 F600.00000
G01 X67.20078 Y39.86580
G01 X67.22483 Y40.09452
G01 X67.29214 Y40.30344
G01 X67.41086 Y40.51238
G01 X67.55734 Y40.67588
G01 X67.76011 Y40.82320
G01 X67.97098 Y40.91469
G01 X68.19625 Y40.96033
G01 X68.41576 Y40.95977
G01 X68.65048 Y40.90821
G01 X68.85957 Y40.81273
G01 X69.04423 Y40.67588
G01 X69.19071 Y40.51238
G01 X69.30943 Y40.30344
G01 X69.37839 Y40.08419
G01 X69.40080 Y39.86580
G01 X69.37839 Y39.64743
G01 X69.30943 Y39.42818
G01 X69.19071 Y39.21924
G01 X69.04423 Y39.05574
G01 X68.84146 Y38.90842
G01 X68.63059 Y38.81693
G01 X68.40532 Y38.77129
G01 X68.18581 Y38.77184
G01 X67.95109 Y38.82341
G01 X67.74200 Y38.91888
G01 X67.55734 Y39.05574
G01 X67.41086 Y39.21924
G01 X67.29214 Y39.42818
G01 X67.22483 Y39.63709
G01 X67.20078 Y39.86580
G04 P0 ( dwell for no time -- G64 should not smooth over this point )
G00 Z5.00000 ( retract )

G00 X69.74078 Y44.31080 ( rapid move to begin. )
G01 F300.00000
G01 Z-0.10000
G04 P0 ( dwell for no time -- G64 should not smooth over this point )
G01 F600.00000
G01 X69.74078 Y44.31080
G01 X69.76318 Y44.52919
G01 X69.83214 Y44.74844
G01 X69.95086 Y44.95738
G01 X70.09734 Y45.12088
G01 X70.30011 Y45.26820
G01 X70.50087 Y45.35697
G01 X70.73625 Y45.40533
G01 X70.96610 Y45.40315
G01 X71.18070 Y45.35697
G01 X71.39957 Y45.25773
G01 X71.58423 Y45.12088
G01 X71.73071 Y44.95738
G01 X71.84943 Y44.74844
G01 X71.91839 Y44.52919
G01 X71.94080 Y44.31080
G01 X71.91839 Y44.09243
G01 X71.84943 Y43.87318
G01 X71.73071 Y43.66424
G01 X71.58423 Y43.50074
G01 X71.38146 Y43.35342
G01 X71.17059 Y43.26193
G01 X70.94532 Y43.21629
G01 X70.72581 Y43.21684
G01 X70.49109 Y43.26841
G01 X70.28200 Y43.36388
G01 X70.09734 Y43.50074
G01 X69.95086 Y43.66424
G01 X69.83214 Y43.87318
G01 X69.76318 Y44.09243
G01 X69.74078 Y44.31080
G04 P0 ( dwell for no time -- G64 should not smooth over this point )
G00 Z5.00000 ( retract )

G00 X76.11138 Y53.60745 ( rapid move to begin. )
G01 F300.00000
G01 Z-0.10000
G04 P0 ( dwell for no time -- G64 should not smooth over this point )
G01 F600.00000
G01 X76.11138 Y53.60745
G01 X76.14843 Y53.43303
G01 X76.21450 Y53.29003
G01 X76.30144 Y53.17128
G01 X76.41046 Y53.07240
G01 X76.56487 Y52.98325
G01 X76.71536 Y52.93664
G01 X76.86179 Y52.92180
G01 X78.16979 Y52.92180
G01 X78.32656 Y52.93829
G01 X78.46669 Y52.98325
G01 X78.60421 Y53.06011
G01 X78.73012 Y53.17128
G01 X78.81706 Y53.29003
G01 X78.88313 Y53.43303
G01 X78.91965 Y53.59699
G01 X78.92021 Y53.74418
G01 X78.88313 Y53.91858
G01 X78.82753 Y54.04349
G01 X78.73669 Y54.17219
G01 X78.62110 Y54.27923
G01 X78.46669 Y54.36838
G01 X78.32656 Y54.41334
G01 X78.16979 Y54.42980
G01 X76.86179 Y54.42980
G01 X76.71536 Y54.41497
G01 X76.56487 Y54.36838
G01 X76.42738 Y54.29150
G01 X76.30144 Y54.18032
G01 X76.21450 Y54.06158
G01 X76.14843 Y53.91858
G01 X76.11191 Y53.75462
G01 X76.11138 Y53.60745
G04 P0 ( dwell for no time -- G64 should not smooth over this point )
G00 Z5.00000 ( retract )

G00 X76.11138 Y51.06745 ( rapid move to begin. )
G01 F300.00000
G01 Z-0.10000
G04 P0 ( dwell for no time -- G64 should not smooth over this point )
G01 F600.00000
G01 X76.11138 Y51.06745
G01 X76.14843 Y50.89303
G01 X76.21450 Y50.75003
G01 X76.30144 Y50.63128
G01 X76.41046 Y50.53240
G01 X76.56487 Y50.44325
G01 X76.71536 Y50.39664
G01 X76.86179 Y50.38180
G01 X78.16979 Y50.38180
G01 X78.32656 Y50.39829
G01 X78.46669 Y50.44325
G01 X78.60421 Y50.52011
G01 X78.73012 Y50.63128
G01 X78.81706 Y50.75003
G01 X78.88313 Y50.89303
G01 X78.91965 Y51.05699
G01 X78.92021 Y51.20418
G01 X78.88313 Y51.37858
G01 X78.82753 Y51.50349
G01 X78.73669 Y51.63219
G01 X78.62110 Y51.73923
G01 X78.46669 Y51.82838
G01 X78.32656 Y51.87334
G01 X78.16979 Y51.88980
G01 X76.86179 Y51.88980
G01 X76.71536 Y51.87497
G01 X76.56487 Y51.82838
G01 X76.42738 Y51.75150
G01 X76.30144 Y51.64032
G01 X76.21450 Y51.52158
G01 X76.14843 Y51.37858
G01 X76.11191 Y51.21462
G01 X76.11138 Y51.06745
G04 P0 ( dwell for no time -- G64 should not smooth over this point )
G00 Z5.00000 ( retract )

G00 X76.11138 Y48.52745 ( rapid move to begin. )
G01 F300.00000
G01 Z-0.10000
G04 P0 ( dwell for no time -- G64 should not smooth over this point )
G01 F600.00000
G01 X76.11138 Y48.52745
G01 X76.14470 Y48.36281
G01 X76.21450 Y48.21003
G01 X76.29487 Y48.09941
G01 X76.41046 Y47.99240
G01 X76.56487 Y47.90325
G01 X76.71536 Y47.85664
G01 X76.86179 Y47.84180
G01 X78.16979 Y47.84180
G01 X78.31622 Y47.85664
G01 X78.47647 Y47.90700
G01 X78.61297 Y47.98582
G01 X78.72272 Y48.08389
G01 X78.81706 Y48.21003
G01 X78.88688 Y48.36281
G01 X78.91803 Y48.50665
G01 X78.92021 Y48.66418
G01 X78.88313 Y48.83858
G01 X78.82753 Y48.96349
G01 X78.73669 Y49.09219
G01 X78.61297 Y49.20581
G01 X78.46669 Y49.28838
G01 X78.32656 Y49.33334
G01 X78.16979 Y49.34980
G01 X76.86179 Y49.34980
G01 X76.70502 Y49.33334
G01 X76.56487 Y49.28838
G01 X76.41859 Y49.20581
G01 X76.30886 Y49.10774
G01 X76.21450 Y48.98158
G01 X76.14843 Y48.83858
G01 X76.11191 Y48.67462
G01 X76.11138 Y48.52745
G04 P0 ( dwell for no time -- G64 should not smooth over this point )
G00 Z5.00000 ( retract )

G00 X76.11138 Y45.98745 ( rapid move to begin. )
G01 F300.00000
G01 Z-0.10000
G04 P0 ( dwell for no time -- G64 should not smooth over this point )
G01 F600.00000
G01 X76.11138 Y45.98745
G01 X76.14470 Y45.82281
G01 X76.21450 Y45.67003
G01 X76.29487 Y45.55941
G01 X76.41046 Y45.45240
G01 X76.56487 Y45.36325
G01 X76.71536 Y45.31664
G01 X76.86179 Y45.30180
G01 X78.16979 Y45.30180
G01 X78.31622 Y45.31664
G01 X78.47647 Y45.36700
G01 X78.61297 Y45.44582
G01 X78.72272 Y45.54389
G01 X78.81706 Y45.67003
G01 X78.88688 Y45.82281
G01 X78.91803 Y45.96665
G01 X78.92021 Y46.12418
G01 X78.88313 Y46.29858
G01 X78.82753 Y46.42349
G01 X78.73669 Y46.55219
G01 X78.61297 Y46.66581
G01 X78.46669 Y46.74838
G01 X78.32656 Y46.79334
G01 X78.16979 Y46.80980
G01 X76.86179 Y46.80980
G01 X76.70502 Y46.79334
G01 X76.56487 Y46.74838
G01 X76.41859 Y46.66581
G01 X76.30886 Y46.56774
G01 X76.21450 Y46.44158
G01 X76.14843 Y46.29858
G01 X76.11191 Y46.13462
G01 X76.11138 Y45.98745
G04 P0 ( dwell for no time -- G64 should not smooth over this point )
G00 Z5.00000 ( retract )

G00 X76.11138 Y43.44745 ( rapid move to begin. )
G01 F300.00000
G01 Z-0.10000
G04 P0 ( dwell for no time -- G64 should not smooth over this point )
G01 F600.00000
G01 X76.11138 Y43.44745
G01 X76.14470 Y43.28281
G01 X76.21450 Y43.13003
G01 X76.29487 Y43.01941
G01 X76.41046 Y42.91240
G01 X76.56487 Y42.82325
G01 X76.71536 Y42.77664
G01 X76.86179 Y42.76180
G01 X78.16979 Y42.76180
G01 X78.31622 Y42.77664
G01 X78.47647 Y42.82700
G01 X78.61297 Y42.90582
G01 X78.72272 Y43.00389
G01 X78.82278 Y43.13882
G01 X78.88688 Y43.28281
G01 X78.91803 Y43.42665
G01 X78.92021 Y43.58418
G01 X78.88313 Y43.75858
G01 X78.82278 Y43.89281
G01 X78.73669 Y44.01219
G01 X78.61297 Y44.12581
G01 X78.46669 Y44.20838
G01 X78.31622 Y44.25497
G01 X78.16979 Y44.26980
G01 X76.86179 Y44.26980
G01 X76.71536 Y44.25497
G01 X76.56487 Y44.20838
G01 X76.41859 Y44.12581
G01 X76.30886 Y44.02774
G01 X76.20881 Y43.89281
G01 X76.14470 Y43.74880
G01 X76.11356 Y43.60496
G01 X76.11138 Y43.44745
G04 P0 ( dwell for no time -- G64 should not smooth over this point )
G00 Z5.00000 ( retract )

G00 X76.11138 Y40.90745 ( rapid move to begin. )
G01 F300.00000
G01 Z-0.10000
G04 P0 ( dwell for no time -- G64 should not smooth over this point )
G01 F600.00000
G01 X76.11138 Y40.90745
G01 X76.14470 Y40.74281
G01 X76.21450 Y40.59003
G01 X76.29487 Y40.47941
G01 X76.41046 Y40.37240
G01 X76.56487 Y40.28325
G01 X76.71536 Y40.23664
G01 X76.86179 Y40.22180
G01 X78.16979 Y40.22180
G01 X78.31622 Y40.23664
G01 X78.46669 Y40.28325
G01 X78.61297 Y40.36582
G01 X78.72272 Y40.46389
G01 X78.82278 Y40.59882
G01 X78.88688 Y40.74281
G01 X78.91803 Y40.88665
G01 X78.92021 Y41.04418
G01 X78.88313 Y41.21858
G01 X78.82753 Y41.34349
G01 X78.73669 Y41.47219
G01 X78.61297 Y41.58581
G01 X78.46669 Y41.66838
G01 X78.32656 Y41.71334
G01 X78.16979 Y41.72980
G01 X76.86179 Y41.72980
G01 X76.70502 Y41.71334
G01 X76.56487 Y41.66838
G01 X76.41859 Y41.58581
G01 X76.30886 Y41.48774
G01 X76.21450 Y41.36158
G01 X76.14470 Y41.20880
G01 X76.11356 Y41.06496
G01 X76.11138 Y40.90745
G04 P0 ( dwell for no time -- G64 should not smooth over this point )
G00 Z5.00000 ( retract )

G00 X76.11138 Y38.36745 ( rapid move to begin. )
G01 F300.00000
G01 Z-0.10000
G04 P0 ( dwell for no time -- G64 should not smooth over this point )
G01 F600.00000
G01 X76.11138 Y38.36745
G01 X76.14470 Y38.20281
G01 X76.21450 Y38.05003
G01 X76.29487 Y37.93941
G01 X76.41046 Y37.83240
G01 X76.56487 Y37.74325
G01 X76.71536 Y37.69664
G01 X76.86179 Y37.68180
G01 X78.16979 Y37.68180
G01 X78.31622 Y37.69664
G01 X78.47647 Y37.74700
G01 X78.61297 Y37.82582
G01 X78.72272 Y37.92389
G01 X78.81706 Y38.05003
G01 X78.88688 Y38.20281
G01 X78.91803 Y38.34665
G01 X78.92021 Y38.50418
G01 X78.88313 Y38.67858
G01 X78.82278 Y38.81281
G01 X78.73669 Y38.93219
G01 X78.61297 Y39.04581
G01 X78.46669 Y39.12838
G01 X78.31622 Y39.17497
G01 X78.16979 Y39.18980
G01 X76.86179 Y39.18980
G01 X76.71536 Y39.17497
G01 X76.56487 Y39.12838
G01 X76.41859 Y39.04581
G01 X76.30886 Y38.94774
G01 X76.20881 Y38.81281
G01 X76.14470 Y38.66880
G01 X76.11356 Y38.52496
G01 X76.11138 Y38.36745
G04 P0 ( dwell for no time -- G64 should not smooth over this point )
G00 Z5.00000 ( retract )

G00 X76.11138 Y35.82745 ( rapid move to begin. )
G01 F300.00000
G01 Z-0.10000
G04 P0 ( dwell for no time -- G64 should not smooth over this point )
G01 F600.00000
G01 X76.11138 Y35.82745
G01 X76.14470 Y35.66281
G01 X76.21450 Y35.51003
G01 X76.29487 Y35.39941
G01 X76.41046 Y35.29240
G01 X76.56487 Y35.20325
G01 X76.71536 Y35.15664
G01 X76.86179 Y35.14180
G01 X78.16979 Y35.14180
G01 X78.31622 Y35.15664
G01 X78.46669 Y35.20325
G01 X78.61297 Y35.28582
G01 X78.72272 Y35.38389
G01 X78.82278 Y35.51882
G01 X78.88688 Y35.66281
G01 X78.91803 Y35.80665
G01 X78.92021 Y35.96418
G01 X78.88313 Y36.13858
G01 X78.82753 Y36.26349
G01 X78.73669 Y36.39219
G01 X78.61297 Y36.50581
G01 X78.46669 Y36.58838
G01 X78.31622 Y36.63497
G01 X78.16979 Y36.64980
G01 X76.86179 Y36.64980
G01 X76.69492 Y36.63062
G01 X76.55511 Y36.58462
G01 X76.41859 Y36.50581
G01 X76.30886 Y36.40774
G01 X76.21450 Y36.28158
G01 X76.14470 Y36.12880
G01 X76.11356 Y35.98496
G01 X76.11138 Y35.82745
G04 P0 ( dwell for no time -- G64 should not smooth over this point )
G00 Z5.00000 ( retract )

G00 X76.11138 Y33.28745 ( rapid move to begin. )
G01 F300.00000
G01 Z-0.10000
G04 P0 ( dwell for no time -- G64 should not smooth over this point )
G01 F600.00000
G01 X76.11138 Y33.28745
G01 X76.14470 Y33.12281
G01 X76.21450 Y32.97003
G01 X76.29487 Y32.85941
G01 X76.41046 Y32.75240
G01 X76.56487 Y32.66325
G01 X76.70502 Y32.61829
G01 X76.86179 Y32.60180
G01 X78.16979 Y32.60180
G01 X78.32656 Y32.61829
G01 X78.46669 Y32.66325
G01 X78.61297 Y32.74582
G01 X78.72272 Y32.84389
G01 X78.81706 Y32.97003
G01 X78.88688 Y33.12281
G01 X78.91803 Y33.26665
G01 X78.92021 Y33.42418
G01 X78.88313 Y33.59858
G01 X78.82753 Y33.72349
G01 X78.73669 Y33.85219
G01 X78.61297 Y33.96581
G01 X78.46669 Y34.04838
G01 X78.32656 Y34.09334
G01 X78.16979 Y34.10980
G01 X76.86179 Y34.10980
G01 X76.70502 Y34.09334
G01 X76.56487 Y34.04838
G01 X76.41859 Y33.96581
G01 X76.30886 Y33.86774
G01 X76.21450 Y33.74158
G01 X76.14470 Y33.58880
G01 X76.11356 Y33.44496
G01 X76.11138 Y33.28745
G04 P0 ( dwell for no time -- G64 should not smooth over this point )
G00 Z5.00000 ( retract )

G00 X93.03578 Y49.22580 ( rapid move to begin. )
G01 F300.00000
G01 Z-0.10000
G04 P0 ( dwell for no time -- G64 should not smooth over this point )
G01 F600.00000
G01 X93.03578 Y49.22580
G01 X93.06509 Y49.15511
G01 X93.13578 Y49.12580
G01 X95.53580 Y49.12580
G01 X95.59135 Y49.14266
G01 X95.61893 Y49.17025
G01 X95.63580 Y49.22580
G01 X95.63580 Y50.82582
G01 X95.61893 Y50.88137
G01 X95.59135 Y50.90895
G01 X95.53580 Y50.92582
G01 X93.13578 Y50.92582
G01 X93.08023 Y50.90895
G01 X93.05264 Y50.88137
G01 X93.03578 Y50.82582
G01 X93.03578 Y49.22580
G04 P0 ( dwell for no time -- G64 should not smooth over this point )
G00 Z5.00000 ( retract )

G00 X93.04017 Y47.40218 ( rapid move to begin. )
G01 F300.00000
G01 Z-0.10000
G04 P0 ( dwell for no time -- G64 should not smooth over this point )
G01 F600.00000
G01 X93.04017 Y47.40218
G01 X93.07985 Y47.20769
G01 X93.16207 Y47.02702
G01 X93.26697 Y46.88359
G01 X93.39864 Y46.76428
G01 X93.56039 Y46.66837
G01 X93.73854 Y46.60818
G01 X93.92534 Y46.58636
G01 X94.74624 Y46.58636
G01 X94.92290 Y46.60548
G01 X95.11119 Y46.66837
G01 X95.27293 Y46.76428
G01 X95.40461 Y46.88359
G01 X95.51997 Y47.04513
G01 X95.59173 Y47.20769
G01 X95.62922 Y47.38140
G01 X95.63140 Y47.56944
G01 X95.59173 Y47.76393
G01 X95.50951 Y47.94460
G01 X95.40461 Y48.08803
G01 X95.27293 Y48.20733
G01 X95.10184 Y48.30799
G01 X94.93303 Y48.36344
G01 X94.74624 Y48.38526
G01 X93.92534 Y48.38526
G01 X93.73854 Y48.36344
G01 X93.56974 Y48.30799
G01 X93.41556 Y48.21963
G01 X93.26697 Y48.08803
G01 X93.15160 Y47.92649
G01 X93.07985 Y47.76393
G01 X93.04236 Y47.59022
G01 X93.04017 Y47.40218
G04 P0 ( dwell for no time -- G64 should not smooth over this point )
G00 Z5.00000 ( retract )

G00 X93.04017 Y44.86218 ( rapid move to begin. )
G01 F300.00000
G01 Z-0.10000
G04 P0 ( dwell for no time -- G64 should not smooth over this point )
G01 F600.00000
G01 X93.04017 Y44.86218
G01 X93.07985 Y44.66769
G01 X93.16207 Y44.48702
G01 X93.26697 Y44.34359
G01 X93.39864 Y44.22428
G01 X93.56974 Y44.12362
G01 X93.73854 Y44.06818
G01 X93.92534 Y44.04636
G01 X94.74624 Y44.04636
G01 X94.93303 Y44.06818
G01 X95.10184 Y44.12362
G01 X95.25602 Y44.21199
G01 X95.40461 Y44.34359
G01 X95.51997 Y44.50513
G01 X95.59173 Y44.66769
G01 X95.62922 Y44.84140
G01 X95.63140 Y45.02944
G01 X95.59173 Y45.22393
G01 X95.50951 Y45.40460
G01 X95.40461 Y45.54803
G01 X95.27293 Y45.66733
G01 X95.10184 Y45.76799
G01 X94.93303 Y45.82344
G01 X94.74624 Y45.84526
G01 X93.92534 Y45.84526
G01 X93.73854 Y45.82344
G01 X93.56974 Y45.76799
G01 X93.41556 Y45.67963
G01 X93.26697 Y45.54803
G01 X93.15160 Y45.38649
G01 X93.07985 Y45.22393
G01 X93.04236 Y45.05022
G01 X93.04017 Y44.86218
G04 P0 ( dwell for no time -- G64 should not smooth over this point )
G00 Z5.00000 ( retract )

G00 X100.66017 Y39.78218 ( rapid move to begin. )
G01 F300.00000
G01 Z-0.10000
G04 P0 ( dwell for no time -- G64 should not smooth over this point )
G01 F600.00000
G01 X100.66017 Y39.78218
G01 X100.66236 Y39.97022
G01 X100.69985 Y40.14393
G01 X100.77638 Y40.31581
G01 X100.88036 Y40.45990
G01 X101.01864 Y40.58733
G01 X101.18039 Y40.68324
G01 X101.35854 Y40.74344
G01 X101.54534 Y40.76526
G01 X102.36624 Y40.76526
G01 X102.55303 Y40.74344
G01 X102.73119 Y40.68324
G01 X102.89293 Y40.58733
G01 X103.03121 Y40.45990
G01 X103.12951 Y40.32460
G01 X103.21173 Y40.14393
G01 X103.25140 Y39.94944
G01 X103.24922 Y39.76140
G01 X103.21173 Y39.58769
G01 X103.13997 Y39.42513
G01 X103.02461 Y39.26359
G01 X102.89293 Y39.14428
G01 X102.73119 Y39.04837
G01 X102.55303 Y38.98818
G01 X102.36624 Y38.96636
G01 X101.54534 Y38.96636
G01 X101.35854 Y38.98818
G01 X101.18039 Y39.04837
G01 X101.01864 Y39.14428
G01 X100.88697 Y39.26359
G01 X100.78207 Y39.40702
G01 X100.69985 Y39.58769
G01 X100.66017 Y39.78218
G04 P0 ( dwell for no time -- G64 should not smooth over this point )
G00 Z5.00000 ( retract )

G00 X100.66017 Y42.32218 ( rapid move to begin. )
G01 F300.00000
G01 Z-0.10000
G04 P0 ( dwell for no time -- G64 should not smooth over this point )
G01 F600.00000
G01 X100.66017 Y42.32218
G01 X100.66236 Y42.51022
G01 X100.69985 Y42.68393
G01 X100.77160 Y42.84649
G01 X100.88697 Y43.00803
G01 X101.03556 Y43.13963
G01 X101.18974 Y43.22799
G01 X101.35854 Y43.28344
G01 X101.54534 Y43.30526
G01 X102.36624 Y43.30526
G01 X102.55303 Y43.28344
G01 X102.72184 Y43.22799
G01 X102.89293 Y43.12733
G01 X103.02461 Y43.00803
G01 X103.12951 Y42.86460
G01 X103.21173 Y42.68393
G01 X103.25140 Y42.48944
G01 X103.24922 Y42.30140
G01 X103.21173 Y42.12769
G01 X103.13997 Y41.96513
G01 X103.02461 Y41.80359
G01 X102.89293 Y41.68428
G01 X102.73119 Y41.58837
G01 X102.55303 Y41.52818
G01 X102.36624 Y41.50636
G01 X101.54534 Y41.50636
G01 X101.35854 Y41.52818
G01 X101.18039 Y41.58837
G01 X101.01864 Y41.68428
G01 X100.88697 Y41.80359
G01 X100.78207 Y41.94702
G01 X100.69985 Y42.12769
G01 X100.66017 Y42.32218
G04 P0 ( dwell for no time -- G64 should not smooth over this point )
G00 Z5.00000 ( retract )

G00 X100.66017 Y44.86218 ( rapid move to begin. )
G01 F300.00000
G01 Z-0.10000
G04 P0 ( dwell for no time -- G64 should not smooth over this point )
G01 F600.00000
G01 X100.66017 Y44.86218
G01 X100.66236 Y45.05022
G01 X100.70358 Y45.23371
G01 X100.78207 Y45.40460
G01 X100.88697 Y45.54803
G01 X101.03556 Y45.67963
G01 X101.18974 Y45.76799
G01 X101.35854 Y45.82344
G01 X101.54534 Y45.84526
G01 X102.36624 Y45.84526
G01 X102.55303 Y45.82344
G01 X102.72184 Y45.76799
G01 X102.89293 Y45.66733
G01 X103.02461 Y45.54803
G01 X103.12951 Y45.40460
G01 X103.21173 Y45.22393
G01 X103.25140 Y45.02944
G01 X103.24922 Y44.84140
G01 X103.21173 Y44.66769
G01 X103.13997 Y44.50513
G01 X103.02461 Y44.34359
G01 X102.87602 Y44.21199
G01 X102.72184 Y44.12362
G01 X102.55303 Y44.06818
G01 X102.36624 Y44.04636
G01 X101.54534 Y44.04636
G01 X101.35854 Y44.06818
G01 X101.18974 Y44.12362
G01 X101.01864 Y44.22428
G01 X100.88697 Y44.34359
G01 X100.78207 Y44.48702
G01 X100.69985 Y44.66769
G01 X100.66017 Y44.86218
G04 P0 ( dwell for no time -- G64 should not smooth over this point )
G00 Z5.00000 ( retract )

G00 X100.66017 Y47.40218 ( rapid move to begin. )
G01 F300.00000
G01 Z-0.10000
G04 P0 ( dwell for no time -- G64 should not smooth over this point )
G01 F600.00000
G01 X100.66017 Y47.40218
G01 X100.66073 Y47.57988
G01 X100.70358 Y47.77371
G01 X100.78207 Y47.94460
G01 X100.88697 Y48.08803
G01 X101.03556 Y48.21963
G01 X101.18974 Y48.30799
G01 X101.35854 Y48.36344
G01 X101.54534 Y48.38526
G01 X102.36624 Y48.38526
G01 X102.55303 Y48.36344
G01 X102.72184 Y48.30799
G01 X102.89293 Y48.20733
G01 X103.02461 Y48.08803
G01 X103.12951 Y47.94460
G01 X103.21173 Y47.76393
G01 X103.25140 Y47.56944
G01 X103.24922 Y47.38140
G01 X103.21173 Y47.20769
G01 X103.13997 Y47.04513
G01 X103.02461 Y46.88359
G01 X102.89293 Y46.76428
G01 X102.73119 Y46.66837
G01 X102.54290 Y46.60548
G01 X102.36624 Y46.58636
G01 X101.54534 Y46.58636
G01 X101.35854 Y46.60818
G01 X101.18039 Y46.66837
G01 X101.01864 Y46.76428
G01 X100.88697 Y46.88359
G01 X100.78207 Y47.02702
G01 X100.70358 Y47.19791
G01 X100.66017 Y47.40218
G04 P0 ( dwell for no time -- G64 should not smooth over this point )
G00 Z5.00000 ( retract )

G00 X100.66017 Y49.94218 ( rapid move to begin. )
G01 F300.00000
G01 Z-0.10000
G04 P0 ( dwell for no time -- G64 should not smooth over this point )
G01 F600.00000
G01 X100.66017 Y49.94218
G01 X100.66073 Y50.11988
G01 X100.70358 Y50.31371
G01 X100.78207 Y50.48460
G01 X100.88697 Y50.62803
G01 X101.01864 Y50.74733
G01 X101.18039 Y50.84324
G01 X101.36868 Y50.90614
G01 X101.54534 Y50.92526
G01 X102.36624 Y50.92526
G01 X102.54290 Y50.90614
G01 X102.73119 Y50.84324
G01 X102.89293 Y50.74733
G01 X103.02461 Y50.62803
G01 X103.12951 Y50.48460
G01 X103.21173 Y50.30393
G01 X103.25140 Y50.10944
G01 X103.24922 Y49.92140
G01 X103.21173 Y49.74769
G01 X103.13997 Y49.58513
G01 X103.02461 Y49.42359
G01 X102.89293 Y49.30428
G01 X102.73119 Y49.20837
G01 X102.54290 Y49.14548
G01 X102.36624 Y49.12636
G01 X101.54534 Y49.12636
G01 X101.36868 Y49.14548
G01 X101.18039 Y49.20837
G01 X101.01864 Y49.30428
G01 X100.88697 Y49.42359
G01 X100.78207 Y49.56702
G01 X100.70358 Y49.73791
G01 X100.66017 Y49.94218
G04 P0 ( dwell for no time -- G64 should not smooth over this point )
G00 Z5.00000 ( retract )

G00 X93.04017 Y42.32218 ( rapid move to begin. )
G01 F300.00000
G01 Z-0.10000
G04 P0 ( dwell for no time -- G64 should not smooth over this point )
G01 F600.00000
G01 X93.04017 Y42.32218
G01 X93.04236 Y42.51022
G01 X93.07985 Y42.68393
G01 X93.15160 Y42.84649
G01 X93.26697 Y43.00803
G01 X93.41556 Y43.13963
G01 X93.56974 Y43.22799
G01 X93.73854 Y43.28344
G01 X93.92534 Y43.30526
G01 X94.74624 Y43.30526
G01 X94.93303 Y43.28344
G01 X95.10184 Y43.22799
G01 X95.27293 Y43.12733
G01 X95.40461 Y43.00803
G01 X95.50951 Y42.86460
G01 X95.59173 Y42.68393
G01 X95.63140 Y42.48944
G01 X95.62922 Y42.30140
G01 X95.59173 Y42.12769
G01 X95.51997 Y41.96513
G01 X95.40461 Y41.80359
G01 X95.27293 Y41.68428
G01 X95.11119 Y41.58837
G01 X94.93303 Y41.52818
G01 X94.74624 Y41.50636
G01 X93.92534 Y41.50636
G01 X93.73854 Y41.52818
G01 X93.56039 Y41.58837
G01 X93.39864 Y41.68428
G01 X93.26697 Y41.80359
G01 X93.16207 Y41.94702
G01 X93.07985 Y42.12769
G01 X93.04017 Y42.32218
G04 P0 ( dwell for no time -- G64 should not smooth over this point )
G00 Z5.00000 ( retract )

G00 X93.04017 Y39.78218 ( rapid move to begin. )
G01 F300.00000
G01 Z-0.10000
G04 P0 ( dwell for no time -- G64 should not smooth over this point )
G01 F600.00000
G01 X93.04017 Y39.78218
G01 X93.04236 Y39.97022
G01 X93.07985 Y40.14393
G01 X93.15638 Y40.31581
G01 X93.26036 Y40.45990
G01 X93.39864 Y40.58733
G01 X93.56039 Y40.68324
G01 X93.73854 Y40.74344
G01 X93.92534 Y40.76526
G01 X94.74624 Y40.76526
G01 X94.93303 Y40.74344
G01 X95.11119 Y40.68324
G01 X95.27293 Y40.58733
G01 X95.41121 Y40.45990
G01 X95.50951 Y40.32460
G01 X95.59173 Y40.14393
G01 X95.63140 Y39.94944
G01 X95.62922 Y39.76140
G01 X95.59173 Y39.58769
G01 X95.51997 Y39.42513
G01 X95.40461 Y39.26359
G01 X95.27293 Y39.14428
G01 X95.11119 Y39.04837
G01 X94.93303 Y38.98818
G01 X94.74624 Y38.96636
G01 X93.92534 Y38.96636
G01 X93.73854 Y38.98818
G01 X93.56039 Y39.04837
G01 X93.39864 Y39.14428
G01 X93.26697 Y39.26359
G01 X93.16207 Y39.40702
G01 X93.07985 Y39.58769
G01 X93.04017 Y39.78218
G04 P0 ( dwell for no time -- G64 should not smooth over this point )
G00 Z5.00000 ( retract )

G00 X93.04017 Y37.24218 ( rapid move to begin. )
G01 F300.00000
G01 Z-0.10000
G04 P0 ( dwell for no time -- G64 should not smooth over this point )
G01 F600.00000
G01 X93.04017 Y37.24218
G01 X93.04236 Y37.43022
G01 X93.07985 Y37.60393
G01 X93.15160 Y37.76649
G01 X93.26697 Y37.92803
G01 X93.41556 Y38.05963
G01 X93.56974 Y38.14799
G01 X93.73854 Y38.20344
G01 X93.92534 Y38.22526
G01 X94.74624 Y38.22526
G01 X94.93303 Y38.20344
G01 X95.10184 Y38.14799
G01 X95.27293 Y38.04733
G01 X95.40461 Y37.92803
G01 X95.50951 Y37.78460
G01 X95.59173 Y37.60393
G01 X95.63140 Y37.40944
G01 X95.62922 Y37.22140
G01 X95.59173 Y37.04769
G01 X95.51997 Y36.88513
G01 X95.40461 Y36.72359
G01 X95.25602 Y36.59199
G01 X95.10184 Y36.50362
G01 X94.93303 Y36.44818
G01 X94.74624 Y36.42636
G01 X93.92534 Y36.42636
G01 X93.73854 Y36.44818
G01 X93.56974 Y36.50362
G01 X93.39864 Y36.60428
G01 X93.26697 Y36.72359
G01 X93.16207 Y36.86702
G01 X93.07985 Y37.04769
G01 X93.04017 Y37.24218
G04 P0 ( dwell for no time -- G64 should not smooth over this point )
G00 Z5.00000 ( retract )

G00 X93.04017 Y34.70218 ( rapid move to begin. )
G01 F300.00000
G01 Z-0.10000
G04 P0 ( dwell for no time -- G64 should not smooth over this point )
G01 F600.00000
G01 X93.04017 Y34.70218
G01 X93.04236 Y34.89022
G01 X93.07985 Y35.06393
G01 X93.15160 Y35.22649
G01 X93.26697 Y35.38803
G01 X93.39864 Y35.50733
G01 X93.56039 Y35.60324
G01 X93.73854 Y35.66344
G01 X93.92534 Y35.68526
G01 X94.74624 Y35.68526
G01 X94.93303 Y35.66344
G01 X95.11119 Y35.60324
G01 X95.27293 Y35.50733
G01 X95.40461 Y35.38803
G01 X95.50951 Y35.24460
G01 X95.59173 Y35.06393
G01 X95.63140 Y34.86944
G01 X95.62922 Y34.68140
G01 X95.59173 Y34.50769
G01 X95.51520 Y34.33581
G01 X95.41121 Y34.19172
G01 X95.27293 Y34.06428
G01 X95.11119 Y33.96837
G01 X94.93303 Y33.90818
G01 X94.74624 Y33.88636
G01 X93.92534 Y33.88636
G01 X93.73854 Y33.90818
G01 X93.56039 Y33.96837
G01 X93.39864 Y34.06428
G01 X93.26036 Y34.19172
G01 X93.16207 Y34.32702
G01 X93.07985 Y34.50769
G01 X93.04017 Y34.70218
G04 P0 ( dwell for no time -- G64 should not smooth over this point )
G00 Z5.00000 ( retract )

G00 X93.04017 Y32.16218 ( rapid move to begin. )
G01 F300.00000
G01 Z-0.10000
G04 P0 ( dwell for no time -- G64 should not smooth over this point )
G01 F600.00000
G01 X93.04017 Y32.16218
G01 X93.04236 Y32.35022
G01 X93.07985 Y32.52393
G01 X93.15160 Y32.68649
G01 X93.26697 Y32.84803
G01 X93.39864 Y32.96733
G01 X93.56039 Y33.06324
G01 X93.73854 Y33.12344
G01 X93.92534 Y33.14526
G01 X94.74624 Y33.14526
G01 X94.93303 Y33.12344
G01 X95.11119 Y33.06324
G01 X95.27293 Y32.96733
G01 X95.40461 Y32.84803
G01 X95.50951 Y32.70460
G01 X95.59173 Y32.52393
G01 X95.63140 Y32.32944
G01 X95.62922 Y32.14140
G01 X95.59173 Y31.96769
G01 X95.51997 Y31.80513
G01 X95.40461 Y31.64359
G01 X95.25602 Y31.51199
G01 X95.10184 Y31.42362
G01 X94.93303 Y31.36818
G01 X94.74624 Y31.34636
G01 X93.92534 Y31.34636
G01 X93.73854 Y31.36818
G01 X93.56974 Y31.42362
G01 X93.39864 Y31.52428
G01 X93.26697 Y31.64359
G01 X93.16207 Y31.78702
G01 X93.07985 Y31.96769
G01 X93.04017 Y32.16218
G04 P0 ( dwell for no time -- G64 should not smooth over this point )
G00 Z5.00000 ( retract )

G00 X93.04017 Y29.62218 ( rapid move to begin. )
G01 F300.00000
G01 Z-0.10000
G04 P0 ( dwell for no time -- G64 should not smooth over this point )
G01 F600.00000
G01 X93.04017 Y29.62218
G01 X93.04236 Y29.81022
G01 X93.07985 Y29.98393
G01 X93.15160 Y30.14649
G01 X93.26697 Y30.30803
G01 X93.41556 Y30.43963
G01 X93.56974 Y30.52799
G01 X93.73854 Y30.58344
G01 X93.92534 Y30.60526
G01 X94.74624 Y30.60526
G01 X94.93303 Y30.58344
G01 X95.10184 Y30.52799
G01 X95.27293 Y30.42733
G01 X95.40461 Y30.30803
G01 X95.50951 Y30.16460
G01 X95.59173 Y29.98393
G01 X95.63140 Y29.78944
G01 X95.62922 Y29.60140
G01 X95.59173 Y29.42769
G01 X95.51997 Y29.26513
G01 X95.40461 Y29.10359
G01 X95.27293 Y28.98428
G01 X95.11119 Y28.88837
G01 X94.93303 Y28.82818
G01 X94.74624 Y28.80636
G01 X93.92534 Y28.80636
G01 X93.73854 Y28.82818
G01 X93.56039 Y28.88837
G01 X93.39864 Y28.98428
G01 X93.26697 Y29.10359
G01 X93.16207 Y29.24702
G01 X93.07985 Y29.42769
G01 X93.04017 Y29.62218
G04 P0 ( dwell for no time -- G64 should not smooth over this point )
G00 Z5.00000 ( retract )

G00 X93.04017 Y27.08218 ( rapid move to begin. )
G01 F300.00000
G01 Z-0.10000
G04 P0 ( dwell for no time -- G64 should not smooth over this point )
G01 F600.00000
G01 X93.04017 Y27.08218
G01 X93.04236 Y27.27022
G01 X93.07985 Y27.44393
G01 X93.15638 Y27.61581
G01 X93.26036 Y27.75990
G01 X93.39864 Y27.88733
G01 X93.56039 Y27.98324
G01 X93.73854 Y28.04344
G01 X93.92534 Y28.06526
G01 X94.74624 Y28.06526
G01 X94.93303 Y28.04344
G01 X95.11119 Y27.98324
G01 X95.27293 Y27.88733
G01 X95.41121 Y27.75990
G01 X95.50951 Y27.62460
G01 X95.59173 Y27.44393
G01 X95.63140 Y27.24944
G01 X95.62922 Y27.06140
G01 X95.59173 Y26.88769
G01 X95.51997 Y26.72513
G01 X95.40461 Y26.56359
G01 X95.27293 Y26.44428
G01 X95.11119 Y26.34837
G01 X94.93303 Y26.28818
G01 X94.74624 Y26.26636
G01 X93.92534 Y26.26636
G01 X93.73854 Y26.28818
G01 X93.56039 Y26.34837
G01 X93.39864 Y26.44428
G01 X93.26697 Y26.56359
G01 X93.16207 Y26.70702
G01 X93.07985 Y26.88769
G01 X93.04017 Y27.08218
G04 P0 ( dwell for no time -- G64 should not smooth over this point )
G00 Z5.00000 ( retract )

G00 X93.04017 Y24.54218 ( rapid move to begin. )
G01 F300.00000
G01 Z-0.10000
G04 P0 ( dwell for no time -- G64 should not smooth over this point )
G01 F600.00000
G01 X93.04017 Y24.54218
G01 X93.04236 Y24.73022
G01 X93.07985 Y24.90393
G01 X93.15160 Y25.06649
G01 X93.26697 Y25.22803
G01 X93.41556 Y25.35963
G01 X93.56974 Y25.44799
G01 X93.73854 Y25.50344
G01 X93.92534 Y25.52526
G01 X94.74624 Y25.52526
G01 X94.93303 Y25.50344
G01 X95.10184 Y25.44799
G01 X95.27293 Y25.34733
G01 X95.40461 Y25.22803
G01 X95.50951 Y25.08460
G01 X95.59173 Y24.90393
G01 X95.63140 Y24.70944
G01 X95.62922 Y24.52140
G01 X95.59173 Y24.34769
G01 X95.51997 Y24.18513
G01 X95.40461 Y24.02359
G01 X95.25602 Y23.89199
G01 X95.10184 Y23.80362
G01 X94.93303 Y23.74818
G01 X94.74624 Y23.72636
G01 X93.92534 Y23.72636
G01 X93.73854 Y23.74818
G01 X93.56974 Y23.80362
G01 X93.39864 Y23.90428
G01 X93.26697 Y24.02359
G01 X93.16207 Y24.16702
G01 X93.07985 Y24.34769
G01 X93.04017 Y24.54218
G04 P0 ( dwell for no time -- G64 should not smooth over this point )
G00 Z5.00000 ( retract )

G00 X93.04017 Y22.00218 ( rapid move to begin. )
G01 F300.00000
G01 Z-0.10000
G04 P0 ( dwell for no time -- G64 should not smooth over this point )
G01 F600.00000
G01 X93.04017 Y22.00218
G01 X93.04236 Y22.19022
G01 X93.07985 Y22.36393
G01 X93.15160 Y22.52649
G01 X93.26697 Y22.68803
G01 X93.39864 Y22.80733
G01 X93.56039 Y22.90324
G01 X93.73854 Y22.96344
G01 X93.92534 Y22.98526
G01 X94.74624 Y22.98526
G01 X94.93303 Y22.96344
G01 X95.11119 Y22.90324
G01 X95.27293 Y22.80733
G01 X95.40461 Y22.68803
G01 X95.50951 Y22.54460
G01 X95.59173 Y22.36393
G01 X95.63140 Y22.16944
G01 X95.62922 Y21.98140
G01 X95.59173 Y21.80769
G01 X95.51520 Y21.63581
G01 X95.41121 Y21.49172
G01 X95.27293 Y21.36428
G01 X95.11119 Y21.26837
G01 X94.93303 Y21.20818
G01 X94.74624 Y21.18636
G01 X93.92534 Y21.18636
G01 X93.73854 Y21.20818
G01 X93.56039 Y21.26837
G01 X93.39864 Y21.36428
G01 X93.26036 Y21.49172
G01 X93.16207 Y21.62702
G01 X93.07985 Y21.80769
G01 X93.04017 Y22.00218
G04 P0 ( dwell for no time -- G64 should not smooth over this point )
G00 Z5.00000 ( retract )

G00 X93.04017 Y19.46218 ( rapid move to begin. )
G01 F300.00000
G01 Z-0.10000
G04 P0 ( dwell for no time -- G64 should not smooth over this point )
G01 F600.00000
G01 X93.04017 Y19.46218
G01 X93.04236 Y19.65022
G01 X93.07985 Y19.82393
G01 X93.15160 Y19.98649
G01 X93.26697 Y20.14803
G01 X93.39864 Y20.26733
G01 X93.56039 Y20.36324
G01 X93.73854 Y20.42344
G01 X93.92534 Y20.44526
G01 X94.74624 Y20.44526
G01 X94.93303 Y20.42344
G01 X95.11119 Y20.36324
G01 X95.27293 Y20.26733
G01 X95.40461 Y20.14803
G01 X95.50951 Y20.00460
G01 X95.59173 Y19.82393
G01 X95.63140 Y19.62944
G01 X95.62922 Y19.44140
G01 X95.59173 Y19.26769
G01 X95.51997 Y19.10513
G01 X95.40461 Y18.94359
G01 X95.25602 Y18.81199
G01 X95.10184 Y18.72362
G01 X94.93303 Y18.66818
G01 X94.74624 Y18.64636
G01 X93.92534 Y18.64636
G01 X93.73854 Y18.66818
G01 X93.56974 Y18.72362
G01 X93.39864 Y18.82428
G01 X93.26697 Y18.94359
G01 X93.16207 Y19.08702
G01 X93.07985 Y19.26769
G01 X93.04017 Y19.46218
G04 P0 ( dwell for no time -- G64 should not smooth over this point )
G00 Z5.00000 ( retract )

G00 X93.04017 Y16.92218 ( rapid move to begin. )
G01 F300.00000
G01 Z-0.10000
G04 P0 ( dwell for no time -- G64 should not smooth over this point )
G01 F600.00000
G01 X93.04017 Y16.92218
G01 X93.04236 Y17.11022
G01 X93.07985 Y17.28393
G01 X93.15160 Y17.44649
G01 X93.26697 Y17.60803
G01 X93.41556 Y17.73963
G01 X93.56974 Y17.82799
G01 X93.73854 Y17.88344
G01 X93.92534 Y17.90526
G01 X94.74624 Y17.90526
G01 X94.93303 Y17.88344
G01 X95.10184 Y17.82799
G01 X95.27293 Y17.72733
G01 X95.40461 Y17.60803
G01 X95.50951 Y17.46460
G01 X95.59173 Y17.28393
G01 X95.63140 Y17.08944
G01 X95.62922 Y16.90140
G01 X95.59173 Y16.72769
G01 X95.51997 Y16.56513
G01 X95.40461 Y16.40359
G01 X95.27293 Y16.28428
G01 X95.11119 Y16.18837
G01 X94.93303 Y16.12818
G01 X94.74624 Y16.10636
G01 X93.92534 Y16.10636
G01 X93.73854 Y16.12818
G01 X93.56039 Y16.18837
G01 X93.39864 Y16.28428
G01 X93.26697 Y16.40359
G01 X93.16207 Y16.54702
G01 X93.07985 Y16.72769
G01 X93.04017 Y16.92218
G04 P0 ( dwell for no time -- G64 should not smooth over this point )
G00 Z5.00000 ( retract )

G00 X100.66017 Y16.92218 ( rapid move to begin. )
G01 F300.00000
G01 Z-0.10000
G04 P0 ( dwell for no time -- G64 should not smooth over this point )
G01 F600.00000
G01 X100.66017 Y16.92218
G01 X100.66236 Y17.11022
G01 X100.69985 Y17.28393
G01 X100.77160 Y17.44649
G01 X100.88697 Y17.60803
G01 X101.03556 Y17.73963
G01 X101.18974 Y17.82799
G01 X101.35854 Y17.88344
G01 X101.54534 Y17.90526
G01 X102.36624 Y17.90526
G01 X102.55303 Y17.88344
G01 X102.72184 Y17.82799
G01 X102.89293 Y17.72733
G01 X103.02461 Y17.60803
G01 X103.12951 Y17.46460
G01 X103.21173 Y17.28393
G01 X103.25140 Y17.08944
G01 X103.24922 Y16.90140
G01 X103.21173 Y16.72769
G01 X103.13997 Y16.56513
G01 X103.02461 Y16.40359
G01 X102.89293 Y16.28428
G01 X102.73119 Y16.18837
G01 X102.55303 Y16.12818
G01 X102.36624 Y16.10636
G01 X101.54534 Y16.10636
G01 X101.35854 Y16.12818
G01 X101.18039 Y16.18837
G01 X101.01864 Y16.28428
G01 X100.88697 Y16.40359
G01 X100.78207 Y16.54702
G01 X100.69985 Y16.72769
G01 X100.66017 Y16.92218
G04 P0 ( dwell for no time -- G64 should not smooth over this point )
G00 Z5.00000 ( retract )

G00 X100.66017 Y19.46218 ( rapid move to begin. )
G01 F300.00000
G01 Z-0.10000
G04 P0 ( dwell for no time -- G64 should not smooth over this point )
G01 F600.00000
G01 X100.66017 Y19.46218
G01 X100.66236 Y19.65022
G01 X100.69985 Y19.82393
G01 X100.77160 Y19.98649
G01 X100.88697 Y20.14803
G01 X101.01864 Y20.26733
G01 X101.18039 Y20.36324
G01 X101.35854 Y20.42344
G01 X101.54534 Y20.44526
G01 X102.36624 Y20.44526
G01 X102.55303 Y20.42344
G01 X102.73119 Y20.36324
G01 X102.89293 Y20.26733
G01 X103.02461 Y20.14803
G01 X103.12951 Y20.00460
G01 X103.21173 Y19.82393
G01 X103.25140 Y19.62944
G01 X103.24922 Y19.44140
G01 X103.21173 Y19.26769
G01 X103.13997 Y19.10513
G01 X103.02461 Y18.94359
G01 X102.87602 Y18.81199
G01 X102.72184 Y18.72362
G01 X102.55303 Y18.66818
G01 X102.36624 Y18.64636
G01 X101.54534 Y18.64636
G01 X101.35854 Y18.66818
G01 X101.18974 Y18.72362
G01 X101.01864 Y18.82428
G01 X100.88697 Y18.94359
G01 X100.78207 Y19.08702
G01 X100.69985 Y19.26769
G01 X100.66017 Y19.46218
G04 P0 ( dwell for no time -- G64 should not smooth over this point )
G00 Z5.00000 ( retract )

G00 X100.66017 Y22.00218 ( rapid move to begin. )
G01 F300.00000
G01 Z-0.10000
G04 P0 ( dwell for no time -- G64 should not smooth over this point )
G01 F600.00000
G01 X100.66017 Y22.00218
G01 X100.66236 Y22.19022
G01 X100.69985 Y22.36393
G01 X100.77160 Y22.52649
G01 X100.88697 Y22.68803
G01 X101.01864 Y22.80733
G01 X101.18039 Y22.90324
G01 X101.35854 Y22.96344
G01 X101.54534 Y22.98526
G01 X102.36624 Y22.98526
G01 X102.55303 Y22.96344
G01 X102.73119 Y22.90324
G01 X102.89293 Y22.80733
G01 X103.02461 Y22.68803
G01 X103.12951 Y22.54460
G01 X103.21173 Y22.36393
G01 X103.25140 Y22.16944
G01 X103.24922 Y21.98140
G01 X103.21173 Y21.80769
G01 X103.13520 Y21.63581
G01 X103.03121 Y21.49172
G01 X102.89293 Y21.36428
G01 X102.73119 Y21.26837
G01 X102.55303 Y21.20818
G01 X102.36624 Y21.18636
G01 X101.54534 Y21.18636
G01 X101.35854 Y21.20818
G01 X101.18039 Y21.26837
G01 X101.01864 Y21.36428
G01 X100.88036 Y21.49172
G01 X100.78207 Y21.62702
G01 X100.69985 Y21.80769
G01 X100.66017 Y22.00218
G04 P0 ( dwell for no time -- G64 should not smooth over this point )
G00 Z5.00000 ( retract )

G00 X100.66017 Y24.54218 ( rapid move to begin. )
G01 F300.00000
G01 Z-0.10000
G04 P0 ( dwell for no time -- G64 should not smooth over this point )
G01 F600.00000
G01 X100.66017 Y24.54218
G01 X100.66236 Y24.73022
G01 X100.69985 Y24.90393
G01 X100.77160 Y25.06649
G01 X100.88697 Y25.22803
G01 X101.03556 Y25.35963
G01 X101.18974 Y25.44799
G01 X101.35854 Y25.50344
G01 X101.54534 Y25.52526
G01 X102.36624 Y25.52526
G01 X102.55303 Y25.50344
G01 X102.72184 Y25.44799
G01 X102.89293 Y25.34733
G01 X103.02461 Y25.22803
G01 X103.12951 Y25.08460
G01 X103.21173 Y24.90393
G01 X103.25140 Y24.70944
G01 X103.24922 Y24.52140
G01 X103.21173 Y24.34769
G01 X103.13997 Y24.18513
G01 X103.02461 Y24.02359
G01 X102.87602 Y23.89199
G01 X102.72184 Y23.80362
G01 X102.55303 Y23.74818
G01 X102.36624 Y23.72636
G01 X101.54534 Y23.72636
G01 X101.35854 Y23.74818
G01 X101.18974 Y23.80362
G01 X101.01864 Y23.90428
G01 X100.88697 Y24.02359
G01 X100.78207 Y24.16702
G01 X100.69985 Y24.34769
G01 X100.66017 Y24.54218
G04 P0 ( dwell for no time -- G64 should not smooth over this point )
G00 Z5.00000 ( retract )

G00 X100.66017 Y27.08218 ( rapid move to begin. )
G01 F300.00000
G01 Z-0.10000
G04 P0 ( dwell for no time -- G64 should not smooth over this point )
G01 F600.00000
G01 X100.66017 Y27.08218
G01 X100.66236 Y27.27022
G01 X100.69985 Y27.44393
G01 X100.77638 Y27.61581
G01 X100.88036 Y27.75990
G01 X101.01864 Y27.88733
G01 X101.18039 Y27.98324
G01 X101.35854 Y28.04344
G01 X101.54534 Y28.06526
G01 X102.36624 Y28.06526
G01 X102.55303 Y28.04344
G01 X102.73119 Y27.98324
G01 X102.89293 Y27.88733
G01 X103.03121 Y27.75990
G01 X103.12951 Y27.62460
G01 X103.21173 Y27.44393
G01 X103.25140 Y27.24944
G01 X103.24922 Y27.06140
G01 X103.21173 Y26.88769
G01 X103.13997 Y26.72513
G01 X103.02461 Y26.56359
G01 X102.89293 Y26.44428
G01 X102.73119 Y26.34837
G01 X102.55303 Y26.28818
G01 X102.36624 Y26.26636
G01 X101.54534 Y26.26636
G01 X101.35854 Y26.28818
G01 X101.18039 Y26.34837
G01 X101.01864 Y26.44428
G01 X100.88697 Y26.56359
G01 X100.78207 Y26.70702
G01 X100.69985 Y26.88769
G01 X100.66017 Y27.08218
G04 P0 ( dwell for no time -- G64 should not smooth over this point )
G00 Z5.00000 ( retract )

G00 X100.66017 Y29.62218 ( rapid move to begin. )
G01 F300.00000
G01 Z-0.10000
G04 P0 ( dwell for no time -- G64 should not smooth over this point )
G01 F600.00000
G01 X100.66017 Y29.62218
G01 X100.66236 Y29.81022
G01 X100.69985 Y29.98393
G01 X100.77160 Y30.14649
G01 X100.88697 Y30.30803
G01 X101.03556 Y30.43963
G01 X101.18974 Y30.52799
G01 X101.35854 Y30.58344
G01 X101.54534 Y30.60526
G01 X102.36624 Y30.60526
G01 X102.55303 Y30.58344
G01 X102.72184 Y30.52799
G01 X102.89293 Y30.42733
G01 X103.02461 Y30.30803
G01 X103.12951 Y30.16460
G01 X103.21173 Y29.98393
G01 X103.25140 Y29.78944
G01 X103.24922 Y29.60140
G01 X103.21173 Y29.42769
G01 X103.13997 Y29.26513
G01 X103.02461 Y29.10359
G01 X102.89293 Y28.98428
G01 X102.73119 Y28.88837
G01 X102.55303 Y28.82818
G01 X102.36624 Y28.80636
G01 X101.54534 Y28.80636
G01 X101.35854 Y28.82818
G01 X101.18039 Y28.88837
G01 X101.01864 Y28.98428
G01 X100.88697 Y29.10359
G01 X100.78207 Y29.24702
G01 X100.69985 Y29.42769
G01 X100.66017 Y29.62218
G04 P0 ( dwell for no time -- G64 should not smooth over this point )
G00 Z5.00000 ( retract )

G00 X100.66017 Y32.16218 ( rapid move to begin. )
G01 F300.00000
G01 Z-0.10000
G04 P0 ( dwell for no time -- G64 should not smooth over this point )
G01 F600.00000
G01 X100.66017 Y32.16218
G01 X100.66236 Y32.35022
G01 X100.69985 Y32.52393
G01 X100.77160 Y32.68649
G01 X100.88697 Y32.84803
G01 X101.01864 Y32.96733
G01 X101.18039 Y33.06324
G01 X101.35854 Y33.12344
G01 X101.54534 Y33.14526
G01 X102.36624 Y33.14526
G01 X102.55303 Y33.12344
G01 X102.73119 Y33.06324
G01 X102.89293 Y32.96733
G01 X103.02461 Y32.84803
G01 X103.12951 Y32.70460
G01 X103.21173 Y32.52393
G01 X103.25140 Y32.32944
G01 X103.24922 Y32.14140
G01 X103.21173 Y31.96769
G01 X103.13997 Y31.80513
G01 X103.02461 Y31.64359
G01 X102.87602 Y31.51199
G01 X102.72184 Y31.42362
G01 X102.55303 Y31.36818
G01 X102.36624 Y31.34636
G01 X101.54534 Y31.34636
G01 X101.35854 Y31.36818
G01 X101.18974 Y31.42362
G01 X101.01864 Y31.52428
G01 X100.88697 Y31.64359
G01 X100.78207 Y31.78702
G01 X100.69985 Y31.96769
G01 X100.66017 Y32.16218
G04 P0 ( dwell for no time -- G64 should not smooth over this point )
G00 Z5.00000 ( retract )

G00 X100.66017 Y34.70218 ( rapid move to begin. )
G01 F300.00000
G01 Z-0.10000
G04 P0 ( dwell for no time -- G64 should not smooth over this point )
G01 F600.00000
G01 X100.66017 Y34.70218
G01 X100.66236 Y34.89022
G01 X100.69985 Y35.06393
G01 X100.77160 Y35.22649
G01 X100.88697 Y35.38803
G01 X101.01864 Y35.50733
G01 X101.18039 Y35.60324
G01 X101.35854 Y35.66344
G01 X101.54534 Y35.68526
G01 X102.36624 Y35.68526
G01 X102.55303 Y35.66344
G01 X102.73119 Y35.60324
G01 X102.89293 Y35.50733
G01 X103.02461 Y35.38803
G01 X103.12951 Y35.24460
G01 X103.21173 Y35.06393
G01 X103.25140 Y34.86944
G01 X103.24922 Y34.68140
G01 X103.21173 Y34.50769
G01 X103.13520 Y34.33581
G01 X103.03121 Y34.19172
G01 X102.89293 Y34.06428
G01 X102.73119 Y33.96837
G01 X102.55303 Y33.90818
G01 X102.36624 Y33.88636
G01 X101.54534 Y33.88636
G01 X101.35854 Y33.90818
G01 X101.18039 Y33.96837
G01 X101.01864 Y34.06428
G01 X100.88036 Y34.19172
G01 X100.78207 Y34.32702
G01 X100.69985 Y34.50769
G01 X100.66017 Y34.70218
G04 P0 ( dwell for no time -- G64 should not smooth over this point )
G00 Z5.00000 ( retract )

G00 X100.66017 Y37.24218 ( rapid move to begin. )
G01 F300.00000
G01 Z-0.10000
G04 P0 ( dwell for no time -- G64 should not smooth over this point )
G01 F600.00000
G01 X100.66017 Y37.24218
G01 X100.66236 Y37.43022
G01 X100.69985 Y37.60393
G01 X100.77160 Y37.76649
G01 X100.88697 Y37.92803
G01 X101.03556 Y38.05963
G01 X101.18974 Y38.14799
G01 X101.35854 Y38.20344
G01 X101.54534 Y38.22526
G01 X102.36624 Y38.22526
G01 X102.55303 Y38.20344
G01 X102.72184 Y38.14799
G01 X102.89293 Y38.04733
G01 X103.02461 Y37.92803
G01 X103.12951 Y37.78460
G01 X103.21173 Y37.60393
G01 X103.25140 Y37.40944
G01 X103.24922 Y37.22140
G01 X103.21173 Y37.04769
G01 X103.13997 Y36.88513
G01 X103.02461 Y36.72359
G01 X102.87602 Y36.59199
G01 X102.72184 Y36.50362
G01 X102.55303 Y36.44818
G01 X102.36624 Y36.42636
G01 X101.54534 Y36.42636
G01 X101.35854 Y36.44818
G01 X101.18974 Y36.50362
G01 X101.01864 Y36.60428
G01 X100.88697 Y36.72359
G01 X100.78207 Y36.86702
G01 X100.69985 Y37.04769
G01 X100.66017 Y37.24218
G04 P0 ( dwell for no time -- G64 should not smooth over this point )
G00 Z5.00000 ( retract )

G00 X140.37579 Y18.91080 ( rapid move to begin. )
G01 F300.00000
G01 Z-0.10000
G04 P0 ( dwell for no time -- G64 should not smooth over this point )
G01 F600.00000
G01 X140.37579 Y18.91080
G01 X140.39492 Y18.72362
G01 X140.45417 Y18.53419
G01 X140.55722 Y18.35240
G01 X140.68272 Y18.21222
G01 X140.85079 Y18.08809
G01 X141.02245 Y18.01105
G01 X141.23695 Y17.96546
G01 X141.43543 Y17.96764
G01 X141.61935 Y18.00729
G01 X141.80078 Y18.08809
G01 X141.96885 Y18.21222
G01 X142.09435 Y18.35240
G01 X142.19740 Y18.53419
G01 X142.25666 Y18.72362
G01 X142.27579 Y18.91080
G01 X142.25232 Y19.11844
G01 X142.19367 Y19.29721
G01 X142.09435 Y19.46922
G01 X141.96885 Y19.60940
G01 X141.80078 Y19.73353
G01 X141.62913 Y19.81057
G01 X141.41462 Y19.85616
G01 X141.21615 Y19.85397
G01 X141.03223 Y19.81433
G01 X140.85079 Y19.73353
G01 X140.68272 Y19.60940
G01 X140.55722 Y19.46922
G01 X140.45417 Y19.28743
G01 X140.39492 Y19.09799
G01 X140.37579 Y18.91080
G04 P0 ( dwell for no time -- G64 should not smooth over this point )
G00 Z5.00000 ( retract )

G00 X142.91579 Y18.91080 ( rapid move to begin. )
G01 F300.00000
G01 Z-0.10000
G04 P0 ( dwell for no time -- G64 should not smooth over this point )
G01 F600.00000
G01 X142.91579 Y18.91080
G01 X142.93492 Y18.72362
G01 X142.99417 Y18.53419
G01 X143.09153 Y18.36119
G01 X143.22272 Y18.21222
G01 X143.38201 Y18.09378
G01 X143.56245 Y18.01105
G01 X143.77695 Y17.96546
G01 X143.97543 Y17.96764
G01 X144.15935 Y18.00729
G01 X144.34957 Y18.09378
G01 X144.50146 Y18.20483
G01 X144.64004 Y18.36119
G01 X144.73740 Y18.53419
G01 X144.79666 Y18.72362
G01 X144.81579 Y18.91080
G01 X144.79666 Y19.09799
G01 X144.73740 Y19.28743
G01 X144.64004 Y19.46043
G01 X144.50885 Y19.60940
G01 X144.34957 Y19.72784
G01 X144.16913 Y19.81057
G01 X143.95462 Y19.85616
G01 X143.75615 Y19.85397
G01 X143.57223 Y19.81433
G01 X143.38201 Y19.72784
G01 X143.23011 Y19.61679
G01 X143.09153 Y19.46043
G01 X142.99417 Y19.28743
G01 X142.93492 Y19.09799
G01 X142.91579 Y18.91080
G04 P0 ( dwell for no time -- G64 should not smooth over this point )
G00 Z5.00000 ( retract )

G00 X142.91579 Y21.45080 ( rapid move to begin. )
G01 F300.00000
G01 Z-0.10000
G04 P0 ( dwell for no time -- G64 should not smooth over this point )
G01 F600.00000
G01 X142.91579 Y21.45080
G01 X142.93492 Y21.63799
G01 X142.99417 Y21.82743
G01 X143.09153 Y22.00043
G01 X143.22272 Y22.14940
G01 X143.38201 Y22.26784
G01 X143.56245 Y22.35057
G01 X143.77695 Y22.39616
G01 X143.97543 Y22.39397
G01 X144.15935 Y22.35433
G01 X144.34957 Y22.26784
G01 X144.50146 Y22.15679
G01 X144.64004 Y22.00043
G01 X144.73740 Y21.82743
G01 X144.79666 Y21.63799
G01 X144.81579 Y21.45080
G01 X144.79666 Y21.26362
G01 X144.73740 Y21.07419
G01 X144.64004 Y20.90119
G01 X144.50885 Y20.75222
G01 X144.34957 Y20.63378
G01 X144.16913 Y20.55105
G01 X143.95462 Y20.50546
G01 X143.75615 Y20.50764
G01 X143.57223 Y20.54729
G01 X143.38201 Y20.63378
G01 X143.23011 Y20.74483
G01 X143.09153 Y20.90119
G01 X142.99417 Y21.07419
G01 X142.93492 Y21.26362
G01 X142.91579 Y21.45080
G04 P0 ( dwell for no time -- G64 should not smooth over this point )
G00 Z5.00000 ( retract )

G00 X140.37579 Y23.14081 ( rapid move to begin. )
G01 F300.00000
G01 Z-0.10000
G04 P0 ( dwell for no time -- G64 should not smooth over this point )
G01 F600.00000
G01 X140.37579 Y23.14081
G01 X140.40508 Y23.07010
G01 X140.47579 Y23.04081
G01 X142.17579 Y23.04081
G01 X142.24650 Y23.07010
G01 X142.27579 Y23.14081
G01 X142.27579 Y24.84081
G01 X142.24650 Y24.91152
G01 X142.17579 Y24.94081
G01 X140.47579 Y24.94081
G01 X140.40508 Y24.91152
G01 X140.37579 Y24.84081
G01 X140.37579 Y23.14081
G04 P0 ( dwell for no time -- G64 should not smooth over this point )
G00 Z5.00000 ( retract )

G00 X140.37579 Y21.45080 ( rapid move to begin. )
G01 F300.00000
G01 Z-0.10000
G04 P0 ( dwell for no time -- G64 should not smooth over this point )
G01 F600.00000
G01 X140.37579 Y21.45080
G01 X140.39492 Y21.63799
G01 X140.45417 Y21.82743
G01 X140.55153 Y22.00043
G01 X140.68272 Y22.14940
G01 X140.84201 Y22.26784
G01 X141.02245 Y22.35057
G01 X141.23695 Y22.39616
G01 X141.43543 Y22.39397
G01 X141.61935 Y22.35433
G01 X141.80957 Y22.26784
G01 X141.96146 Y22.15679
G01 X142.10004 Y22.00043
G01 X142.19740 Y21.82743
G01 X142.25666 Y21.63799
G01 X142.27579 Y21.45080
G01 X142.25666 Y21.26362
G01 X142.19740 Y21.07419
G01 X142.10004 Y20.90119
G01 X141.96885 Y20.75222
G01 X141.80957 Y20.63378
G01 X141.62913 Y20.55105
G01 X141.41462 Y20.50546
G01 X141.21615 Y20.50764
G01 X141.03223 Y20.54729
G01 X140.84201 Y20.63378
G01 X140.69011 Y20.74483
G01 X140.55153 Y20.90119
G01 X140.45417 Y21.07419
G01 X140.39492 Y21.26362
G01 X140.37579 Y21.45080
G04 P0 ( dwell for no time -- G64 should not smooth over this point )
G00 Z5.00000 ( retract )

G00 X142.91579 Y23.99080 ( rapid move to begin. )
G01 F300.00000
G01 Z-0.10000
G04 P0 ( dwell for no time -- G64 should not smooth over this point )
G01 F600.00000
G01 X142.91579 Y23.99080
G01 X142.93492 Y24.17799
G01 X142.99417 Y24.36743
G01 X143.09153 Y24.54043
G01 X143.22272 Y24.68940
G01 X143.38201 Y24.80784
G01 X143.56245 Y24.89057
G01 X143.77695 Y24.93616
G01 X143.97543 Y24.93397
G01 X144.15935 Y24.89433
G01 X144.34957 Y24.80784
G01 X144.50146 Y24.69679
G01 X144.64004 Y24.54043
G01 X144.73740 Y24.36743
G01 X144.79666 Y24.17799
G01 X144.81579 Y23.99080
G01 X144.79666 Y23.80362
G01 X144.73740 Y23.61419
G01 X144.64004 Y23.44119
G01 X144.50885 Y23.29222
G01 X144.34957 Y23.17378
G01 X144.16913 Y23.09105
G01 X143.95462 Y23.04546
G01 X143.75615 Y23.04764
G01 X143.57223 Y23.08729
G01 X143.38201 Y23.17378
G01 X143.23011 Y23.28483
G01 X143.09153 Y23.44119
G01 X142.99417 Y23.61419
G01 X142.93492 Y23.80362
G01 X142.91579 Y23.99080
G04 P0 ( dwell for no time -- G64 should not smooth over this point )
G00 Z5.00000 ( retract )

G00 X137.02700 Y32.15222 ( rapid move to begin. )
G01 F300.00000
G01 Z-0.10000
G04 P0 ( dwell for no time -- G64 should not smooth over this point )
G01 F600.00000
G01 X137.02700 Y32.15222
G01 X137.07455 Y31.92845
G01 X137.16114 Y31.73935
G01 X137.27775 Y31.57978
G01 X137.44117 Y31.43485
G01 X137.60328 Y31.34125
G01 X137.80038 Y31.27491
G01 X138.01745 Y31.25045
G01 X139.80815 Y31.25045
G01 X140.02519 Y31.27491
G01 X140.22230 Y31.34125
G01 X140.40132 Y31.44714
G01 X140.54782 Y31.57978
G01 X140.67490 Y31.75746
G01 X140.75478 Y31.93823
G01 X140.79639 Y32.13142
G01 X140.79857 Y32.33940
G01 X140.75102 Y32.56317
G01 X140.66443 Y32.75227
G01 X140.54782 Y32.91184
G01 X140.38440 Y33.05677
G01 X140.22230 Y33.15037
G01 X140.02519 Y33.21671
G01 X139.80815 Y33.24115
G01 X138.01745 Y33.24115
G01 X137.80038 Y33.21671
G01 X137.60328 Y33.15037
G01 X137.42426 Y33.04447
G01 X137.27775 Y32.91184
G01 X137.15067 Y32.73416
G01 X137.07079 Y32.55339
G01 X137.02919 Y32.36020
G01 X137.02700 Y32.15222
G04 P0 ( dwell for no time -- G64 should not smooth over this point )
G00 Z5.00000 ( retract )

G00 X137.02700 Y37.23222 ( rapid move to begin. )
G01 F300.00000
G01 Z-0.10000
G04 P0 ( dwell for no time -- G64 should not smooth over this point )
G01 F600.00000
G01 X137.02700 Y37.23222
G01 X137.07455 Y37.00845
G01 X137.16114 Y36.81935
G01 X137.27775 Y36.65978
G01 X137.44117 Y36.51485
G01 X137.60328 Y36.42125
G01 X137.80038 Y36.35491
G01 X138.01745 Y36.33045
G01 X139.80815 Y36.33045
G01 X140.01508 Y36.35221
G01 X140.22230 Y36.42125
G01 X140.40132 Y36.52714
G01 X140.54782 Y36.65978
G01 X140.67490 Y36.83746
G01 X140.75478 Y37.01823
G01 X140.79639 Y37.21142
G01 X140.79857 Y37.41940
G01 X140.75102 Y37.64317
G01 X140.66443 Y37.83227
G01 X140.54782 Y37.99184
G01 X140.38440 Y38.13677
G01 X140.22230 Y38.23037
G01 X140.02519 Y38.29671
G01 X139.80815 Y38.32115
G01 X138.01745 Y38.32115
G01 X137.81049 Y38.29940
G01 X137.60328 Y38.23037
G01 X137.42426 Y38.12447
G01 X137.27775 Y37.99184
G01 X137.15067 Y37.81416
G01 X137.07079 Y37.63339
G01 X137.02919 Y37.44020
G01 X137.02700 Y37.23222
G04 P0 ( dwell for no time -- G64 should not smooth over this point )
G00 Z5.00000 ( retract )

G00 X136.22017 Y44.86218 ( rapid move to begin. )
G01 F300.00000
G01 Z-0.10000
G04 P0 ( dwell for no time -- G64 should not smooth over this point )
G01 F600.00000
G01 X136.22017 Y44.86218
G01 X136.22236 Y45.05022
G01 X136.25985 Y45.22393
G01 X136.33160 Y45.38649
G01 X136.44036 Y45.53990
G01 X136.58677 Y45.67391
G01 X136.74039 Y45.76324
G01 X136.91854 Y45.82344
G01 X137.10534 Y45.84526
G01 X137.92624 Y45.84526
G01 X138.11303 Y45.82344
G01 X138.29119 Y45.76324
G01 X138.45293 Y45.66733
G01 X138.59121 Y45.53990
G01 X138.68951 Y45.40460
G01 X138.77173 Y45.22393
G01 X138.81084 Y45.03988
G01 X138.81084 Y44.85174
G01 X138.77173 Y44.66769
G01 X138.69997 Y44.50513
G01 X138.59121 Y44.35172
G01 X138.44480 Y44.21771
G01 X138.28184 Y44.12362
G01 X138.11303 Y44.06818
G01 X137.92624 Y44.04636
G01 X137.10534 Y44.04636
G01 X136.91854 Y44.06818
G01 X136.74974 Y44.12362
G01 X136.57864 Y44.22428
G01 X136.44036 Y44.35172
G01 X136.34207 Y44.48702
G01 X136.25985 Y44.66769
G01 X136.22017 Y44.86218
G04 P0 ( dwell for no time -- G64 should not smooth over this point )
G00 Z5.00000 ( retract )

G00 X136.22017 Y47.40218 ( rapid move to begin. )
G01 F300.00000
G01 Z-0.10000
G04 P0 ( dwell for no time -- G64 should not smooth over this point )
G01 F600.00000
G01 X136.22017 Y47.40218
G01 X136.22236 Y47.59022
G01 X136.25985 Y47.76393
G01 X136.33160 Y47.92649
G01 X136.44036 Y48.07990
G01 X136.58677 Y48.21391
G01 X136.74039 Y48.30324
G01 X136.91854 Y48.36344
G01 X137.10534 Y48.38526
G01 X137.92624 Y48.38526
G01 X138.11303 Y48.36344
G01 X138.29119 Y48.30324
G01 X138.45293 Y48.20733
G01 X138.59121 Y48.07990
G01 X138.68951 Y47.94460
G01 X138.77173 Y47.76393
G01 X138.81084 Y47.57988
G01 X138.81084 Y47.39174
G01 X138.77173 Y47.20769
G01 X138.69997 Y47.04513
G01 X138.58461 Y46.88359
G01 X138.44480 Y46.75771
G01 X138.29119 Y46.66837
G01 X138.10290 Y46.60548
G01 X137.92624 Y46.58636
G01 X137.10534 Y46.58636
G01 X136.91854 Y46.60818
G01 X136.74039 Y46.66837
G01 X136.57864 Y46.76428
G01 X136.44697 Y46.88359
G01 X136.34207 Y47.02702
G01 X136.25985 Y47.20769
G01 X136.22017 Y47.40218
G04 P0 ( dwell for no time -- G64 should not smooth over this point )
G00 Z5.00000 ( retract )

G00 X136.22017 Y49.94218 ( rapid move to begin. )
G01 F300.00000
G01 Z-0.10000
G04 P0 ( dwell for no time -- G64 should not smooth over this point )
G01 F600.00000
G01 X136.22017 Y49.94218
G01 X136.22236 Y50.13022
G01 X136.25985 Y50.30393
G01 X136.33160 Y50.46649
G01 X136.44697 Y50.62803
G01 X136.58677 Y50.75391
G01 X136.74039 Y50.84324
G01 X136.91854 Y50.90344
G01 X137.10534 Y50.92526
G01 X137.92624 Y50.92526
G01 X138.10290 Y50.90614
G01 X138.29119 Y50.84324
G01 X138.45293 Y50.74733
G01 X138.58461 Y50.62803
G01 X138.68951 Y50.48460
G01 X138.77173 Y50.30393
G01 X138.81084 Y50.11988
G01 X138.81084 Y49.93174
G01 X138.77173 Y49.74769
G01 X138.69997 Y49.58513
G01 X138.58461 Y49.42359
G01 X138.44480 Y49.29771
G01 X138.29119 Y49.20837
G01 X138.10290 Y49.14548
G01 X137.92624 Y49.12636
G01 X137.10534 Y49.12636
G01 X136.91854 Y49.14818
G01 X136.74039 Y49.20837
G01 X136.57864 Y49.30428
G01 X136.44697 Y49.42359
G01 X136.34207 Y49.56702
G01 X136.25985 Y49.74769
G01 X136.22017 Y49.94218
G04 P0 ( dwell for no time -- G64 should not smooth over this point )
G00 Z5.00000 ( retract )

G00 X136.21578 Y51.76580 ( rapid move to begin. )
G01 F300.00000
G01 Z-0.10000
G04 P0 ( dwell for no time -- G64 should not smooth over this point )
G01 F600.00000
G01 X136.21578 Y51.76580
G01 X136.21578 Y53.36582
G01 X136.23264 Y53.42137
G01 X136.26023 Y53.44895
G01 X136.31578 Y53.46582
G01 X138.71580 Y53.46582
G01 X138.77135 Y53.44895
G01 X138.79893 Y53.42137
G01 X138.81580 Y53.36582
G01 X138.81580 Y51.76580
G01 X138.79893 Y51.71025
G01 X138.77135 Y51.68266
G01 X138.71580 Y51.66580
G01 X136.31578 Y51.66580
G01 X136.24509 Y51.69511
G01 X136.21578 Y51.76580
G04 P0 ( dwell for no time -- G64 should not smooth over this point )
G00 Z5.00000 ( retract )

G00 X143.84017 Y44.86218 ( rapid move to begin. )
G01 F300.00000
G01 Z-0.10000
G04 P0 ( dwell for no time -- G64 should not smooth over this point )
G01 F600.00000
G01 X143.84017 Y44.86218
G01 X143.87985 Y44.66769
G01 X143.96207 Y44.48702
G01 X144.06036 Y44.35172
G01 X144.19864 Y44.22428
G01 X144.36974 Y44.12362
G01 X144.53854 Y44.06818
G01 X144.72534 Y44.04636
G01 X145.54624 Y44.04636
G01 X145.73303 Y44.06818
G01 X145.90184 Y44.12362
G01 X146.06480 Y44.21771
G01 X146.21121 Y44.35172
G01 X146.31997 Y44.50513
G01 X146.39173 Y44.66769
G01 X146.42922 Y44.84140
G01 X146.43140 Y45.02944
G01 X146.39173 Y45.22393
G01 X146.30951 Y45.40460
G01 X146.21121 Y45.53990
G01 X146.07293 Y45.66733
G01 X145.91119 Y45.76324
G01 X145.73303 Y45.82344
G01 X145.54624 Y45.84526
G01 X144.72534 Y45.84526
G01 X144.53854 Y45.82344
G01 X144.36039 Y45.76324
G01 X144.20677 Y45.67391
G01 X144.06036 Y45.53990
G01 X143.95160 Y45.38649
G01 X143.87985 Y45.22393
G01 X143.84073 Y45.03988
G01 X143.84017 Y44.86218
G04 P0 ( dwell for no time -- G64 should not smooth over this point )
G00 Z5.00000 ( retract )

G00 X143.84017 Y47.40218 ( rapid move to begin. )
G01 F300.00000
G01 Z-0.10000
G04 P0 ( dwell for no time -- G64 should not smooth over this point )
G01 F600.00000
G01 X143.84017 Y47.40218
G01 X143.87985 Y47.20769
G01 X143.96207 Y47.02702
G01 X144.06697 Y46.88359
G01 X144.19864 Y46.76428
G01 X144.36039 Y46.66837
G01 X144.53854 Y46.60818
G01 X144.72534 Y46.58636
G01 X145.54624 Y46.58636
G01 X145.72290 Y46.60548
G01 X145.91119 Y46.66837
G01 X146.06480 Y46.75771
G01 X146.20461 Y46.88359
G01 X146.31997 Y47.04513
G01 X146.39173 Y47.20769
G01 X146.42922 Y47.38140
G01 X146.43140 Y47.56944
G01 X146.39173 Y47.76393
G01 X146.30951 Y47.94460
G01 X146.21121 Y48.07990
G01 X146.07293 Y48.20733
G01 X145.91119 Y48.30324
G01 X145.73303 Y48.36344
G01 X145.54624 Y48.38526
G01 X144.72534 Y48.38526
G01 X144.53854 Y48.36344
G01 X144.36039 Y48.30324
G01 X144.20677 Y48.21391
G01 X144.06036 Y48.07990
G01 X143.95160 Y47.92649
G01 X143.87985 Y47.76393
G01 X143.84073 Y47.57988
G01 X143.84017 Y47.40218
G04 P0 ( dwell for no time -- G64 should not smooth over this point )
G00 Z5.00000 ( retract )

G00 X143.84017 Y49.94218 ( rapid move to begin. )
G01 F300.00000
G01 Z-0.10000
G04 P0 ( dwell for no time -- G64 should not smooth over this point )
G01 F600.00000
G01 X143.84017 Y49.94218
G01 X143.87985 Y49.74769
G01 X143.96207 Y49.56702
G01 X144.06697 Y49.42359
G01 X144.19864 Y49.30428
G01 X144.36039 Y49.20837
G01 X144.53854 Y49.14818
G01 X144.72534 Y49.12636
G01 X145.54624 Y49.12636
G01 X145.72290 Y49.14548
G01 X145.91119 Y49.20837
G01 X146.06480 Y49.29771
G01 X146.20461 Y49.42359
G01 X146.31997 Y49.58513
G01 X146.39173 Y49.74769
G01 X146.42922 Y49.92140
G01 X146.43140 Y50.10944
G01 X146.39173 Y50.30393
G01 X146.30951 Y50.48460
G01 X146.20461 Y50.62803
G01 X146.07293 Y50.74733
G01 X145.91119 Y50.84324
G01 X145.72290 Y50.90614
G01 X145.54624 Y50.92526
G01 X144.72534 Y50.92526
G01 X144.53854 Y50.90344
G01 X144.36039 Y50.84324
G01 X144.20677 Y50.75391
G01 X144.06697 Y50.62803
G01 X143.95160 Y50.46649
G01 X143.87985 Y50.30393
G01 X143.84073 Y50.11988
G01 X143.84017 Y49.94218
G04 P0 ( dwell for no time -- G64 should not smooth over this point )
G00 Z5.00000 ( retract )

G00 X143.84017 Y52.48218 ( rapid move to begin. )
G01 F300.00000
G01 Z-0.10000
G04 P0 ( dwell for no time -- G64 should not smooth over this point )
G01 F600.00000
G01 X143.84017 Y52.48218
G01 X143.87985 Y52.28769
G01 X143.96207 Y52.10702
G01 X144.06036 Y51.97172
G01 X144.19864 Y51.84428
G01 X144.36039 Y51.74837
G01 X144.53854 Y51.68818
G01 X144.72534 Y51.66636
G01 X145.54624 Y51.66636
G01 X145.72290 Y51.68548
G01 X145.91119 Y51.74837
G01 X146.06480 Y51.83771
G01 X146.21121 Y51.97172
G01 X146.31997 Y52.12513
G01 X146.39173 Y52.28769
G01 X146.42922 Y52.46140
G01 X146.43140 Y52.64944
G01 X146.39173 Y52.84393
G01 X146.30951 Y53.02460
G01 X146.20461 Y53.16803
G01 X146.07293 Y53.28733
G01 X145.91119 Y53.38324
G01 X145.72290 Y53.44614
G01 X145.54624 Y53.46526
G01 X144.72534 Y53.46526
G01 X144.53854 Y53.44344
G01 X144.36039 Y53.38324
G01 X144.20677 Y53.29391
G01 X144.06697 Y53.16803
G01 X143.95160 Y53.00649
G01 X143.87985 Y52.84393
G01 X143.84073 Y52.65988
G01 X143.84017 Y52.48218
G04 P0 ( dwell for no time -- G64 should not smooth over this point )
G00 Z5.00000 ( retract )

G00 X113.07379 Y81.06924 ( rapid move to begin. )
G01 F300.00000
G01 Z-0.10000
G04 P0 ( dwell for no time -- G64 should not smooth over this point )
G01 F600.00000
G01 X113.07379 Y81.06924
G01 X113.07379 Y82.94884
G01 X113.09924 Y83.17516
G01 X113.16845 Y83.38110
G01 X113.27239 Y83.56002
G01 X113.41783 Y83.72156
G01 X113.60302 Y83.85410
G01 X113.79228 Y83.93777
G01 X113.99456 Y83.98133
G01 X114.21183 Y83.98351
G01 X114.43492 Y83.93777
G01 X114.63350 Y83.84935
G01 X114.81676 Y83.71417
G01 X114.96052 Y83.55126
G01 X115.06725 Y83.36200
G01 X115.13230 Y83.15471
G01 X115.15339 Y82.94884
G01 X115.15339 Y81.06924
G01 X115.13068 Y80.85307
G01 X115.05875 Y80.63701
G01 X114.96052 Y80.46686
G01 X114.81676 Y80.30394
G01 X114.62418 Y80.16401
G01 X114.43492 Y80.08035
G01 X114.21183 Y80.03460
G01 X113.99456 Y80.03679
G01 X113.80239 Y80.07763
G01 X113.58491 Y80.17445
G01 X113.41783 Y80.29653
G01 X113.27239 Y80.45807
G01 X113.15994 Y80.65609
G01 X113.09489 Y80.86340
G01 X113.07379 Y81.06924
G04 P0 ( dwell for no time -- G64 should not smooth over this point )
G00 Z5.00000 ( retract )

G00 X110.53379 Y81.06924 ( rapid move to begin. )
G01 F300.00000
G01 Z-0.10000
G04 P0 ( dwell for no time -- G64 should not smooth over this point )
G01 F600.00000
G01 X110.53379 Y81.06924
G01 X110.55652 Y80.85307
G01 X110.61994 Y80.65609
G01 X110.73239 Y80.45807
G01 X110.87044 Y80.30394
G01 X111.04491 Y80.17445
G01 X111.26239 Y80.07763
G01 X111.45456 Y80.03679
G01 X111.67183 Y80.03460
G01 X111.89492 Y80.08035
G01 X112.08418 Y80.16401
G01 X112.27676 Y80.30394
G01 X112.41481 Y80.45807
G01 X112.51875 Y80.63701
G01 X112.58796 Y80.84296
G01 X112.61339 Y81.06924
G01 X112.61339 Y82.94884
G01 X112.59230 Y83.15471
G01 X112.52725 Y83.36200
G01 X112.41481 Y83.56002
G01 X112.26937 Y83.72156
G01 X112.08418 Y83.85410
G01 X111.89492 Y83.93777
G01 X111.67183 Y83.98351
G01 X111.45456 Y83.98133
G01 X111.25228 Y83.93777
G01 X111.05370 Y83.84935
G01 X110.88596 Y83.72817
G01 X110.73239 Y83.56002
G01 X110.62845 Y83.38110
G01 X110.55652 Y83.16505
G01 X110.53379 Y82.94884
G01 X110.53379 Y81.06924
G04 P0 ( dwell for no time -- G64 should not smooth over this point )
G00 Z5.00000 ( retract )

G00 X107.99379 Y81.06924 ( rapid move to begin. )
G01 F300.00000
G01 Z-0.10000
G04 P0 ( dwell for no time -- G64 should not smooth over this point )
G01 F600.00000
G01 X107.99379 Y81.06924
G01 X108.01652 Y80.85307
G01 X108.07994 Y80.65609
G01 X108.19897 Y80.44994
G01 X108.33783 Y80.29653
G01 X108.50491 Y80.17445
G01 X108.72239 Y80.07763
G01 X108.91456 Y80.03679
G01 X109.13183 Y80.03460
G01 X109.35492 Y80.08035
G01 X109.54418 Y80.16401
G01 X109.73676 Y80.30394
G01 X109.88052 Y80.46686
G01 X109.97875 Y80.63701
G01 X110.05068 Y80.85307
G01 X110.07339 Y81.06924
G01 X110.07339 Y82.94884
G01 X110.05230 Y83.15471
G01 X109.98725 Y83.36200
G01 X109.88052 Y83.55126
G01 X109.72937 Y83.72156
G01 X109.54418 Y83.85410
G01 X109.35492 Y83.93777
G01 X109.13183 Y83.98351
G01 X108.91456 Y83.98133
G01 X108.71228 Y83.93777
G01 X108.52302 Y83.85410
G01 X108.33783 Y83.72156
G01 X108.19897 Y83.56817
G01 X108.08845 Y83.38110
G01 X108.01652 Y83.16505
G01 X107.99379 Y82.94884
G01 X107.99379 Y81.06924
G04 P0 ( dwell for no time -- G64 should not smooth over this point )
G00 Z5.00000 ( retract )

G00 X105.45379 Y81.06924 ( rapid move to begin. )
G01 F300.00000
G01 Z-0.10000
G04 P0 ( dwell for no time -- G64 should not smooth over this point )
G01 F600.00000
G01 X105.45379 Y81.06924
G01 X105.47652 Y80.85307
G01 X105.53994 Y80.65609
G01 X105.65897 Y80.44994
G01 X105.79783 Y80.29653
G01 X105.96491 Y80.17445
G01 X106.18239 Y80.07763
G01 X106.37456 Y80.03679
G01 X106.59183 Y80.03460
G01 X106.80481 Y80.07763
G01 X107.00418 Y80.16401
G01 X107.19676 Y80.30394
G01 X107.33481 Y80.45807
G01 X107.43875 Y80.63701
G01 X107.51068 Y80.85307
G01 X107.53339 Y81.06924
G01 X107.53339 Y82.94884
G01 X107.51230 Y83.15471
G01 X107.44725 Y83.36200
G01 X107.33481 Y83.56002
G01 X107.18937 Y83.72156
G01 X107.01350 Y83.84935
G01 X106.82468 Y83.93401
G01 X106.60227 Y83.98295
G01 X106.38490 Y83.98295
G01 X106.18239 Y83.94046
G01 X105.98302 Y83.85410
G01 X105.79783 Y83.72156
G01 X105.65897 Y83.56817
G01 X105.54845 Y83.38110
G01 X105.47652 Y83.16505
G01 X105.45379 Y82.94884
G01 X105.45379 Y81.06924
G04 P0 ( dwell for no time -- G64 should not smooth over this point )
G00 Z5.00000 ( retract )

G00 X102.91379 Y81.06924 ( rapid move to begin. )
G01 F300.00000
G01 Z-0.10000
G04 P0 ( dwell for no time -- G64 should not smooth over this point )
G01 F600.00000
G01 X102.91379 Y81.06924
G01 X102.93652 Y80.85307
G01 X102.99994 Y80.65609
G01 X103.11897 Y80.44994
G01 X103.25783 Y80.29653
G01 X103.42491 Y80.17445
G01 X103.64239 Y80.07763
G01 X103.83456 Y80.03679
G01 X104.05183 Y80.03460
G01 X104.27492 Y80.08035
G01 X104.46418 Y80.16401
G01 X104.65676 Y80.30394
G01 X104.79481 Y80.45807
