( pcb2gcode 1.3.2 )
( Software-independent Gcode )

G94 ( Millimeters per minute feed rate. )
G21 ( Units == Millimeters. )

G90 ( Absolute coordinates. )
G00 S10000 ( RPM spindle speed. )
G64 P0.01000 ( set maximum deviation from commanded toolpath )
G01 F600.00000 ( Feedrate. )

G01 F600.00000 ( Feedrate. )
M3 ( Spindle on clockwise. )
G04 P1.00000
G04 P0 ( dwell for no time -- G64 should not smooth over this point )
G00 Z5.00000 ( retract )

G00 X0.05082 Y1.62582 ( rapid move to begin. )
G01 Z-2.50000 F300.00000 ( plunge. )
G04 P0 ( dwell for no time -- G64 should not smooth over this point )
G01 F600.00000
G01 X0.05082 Y1.62582
G01 X0.05082 Y74.87581
G01 Z-0.60000
G01 X0.05082 Y78.37581
G01 Z-2.50000 F300.00000
G01 F600.00000
G01 X0.05082 Y151.62580
G01 X0.07963 Y151.91843
G01 X0.17071 Y152.22851
G01 X0.32557 Y152.51218
G01 X0.51211 Y152.73948
G01 X0.73942 Y152.92602
G01 X1.02308 Y153.08089
G01 X1.33317 Y153.17197
G01 X1.62580 Y153.20077
G01 X151.62578 Y153.20077
G01 X151.91841 Y153.17197
G01 X152.22852 Y153.08089
G01 X152.51216 Y152.92602
G01 X152.73947 Y152.73948
G01 X152.92603 Y152.51218
G01 X153.08089 Y152.22851
G01 X153.16626 Y151.94713
G01 X153.20078 Y151.62580
G01 X153.20078 Y1.62582
G01 X153.16626 Y1.30448
G01 X153.08089 Y1.02308
G01 X152.92603 Y0.73943
G01 X152.73947 Y0.51213
G01 X152.51216 Y0.32557
G01 X152.22852 Y0.17070
G01 X151.94711 Y0.08533
G01 X151.62578 Y0.05081
G01 X78.37386 Y0.05101
G01 Z-0.60000
G01 X74.87386 Y0.05102
G01 Z-2.50000 F300.00000
G01 F600.00000
G01 X1.62194 Y0.05122
G01 X1.28854 Y0.08874
G01 X0.97515 Y0.19150
G01 X0.71364 Y0.34378
G01 X0.52809 Y0.49661
G01 X0.38806 Y0.65213
G01 X0.27104 Y0.82562
G01 X0.14053 Y1.10192
G01 X0.07295 Y1.36798
G01 X0.05082 Y1.62582

G04 P0 ( dwell for no time -- G64 should not smooth over this point )
G00 Z10.000 ( retract )

M5 ( Spindle off. )
G04 P1.000000
M9 ( Coolant off. )
M2 ( Program end. )

