( pcb2gcode 1.3.2 )
( Software-independent Gcode )

( This file uses only one drill bit. Forced by 'onedrill' option )

G94       (Millimeters per minute feed rate.)
G21       (Units == Millimeters.)
G91.1     (Incremental arc distance mode.)
G90       (Absolute coordinates.)
G00 S10000     (RPM spindle speed.)

G00 Z10.00000 (Retract)
T1
M5      (Spindle stop.)
G04 P1.00000
(MSG, Change tool bit to drill size 0.8001 mm)
M6      (Tool change.)
M0      (Temporary machine stop.)
M3      (Spindle on clockwise.)
G0 Z5.00000
G04 P1.00000

F1000.00000
G0 X-11.62578 Y11.62608
G1 Z-2.50000
G1 Z5.00000
G0 X-10.51580 Y22.08580
G1 Z-2.50000
G1 Z5.00000
G0 X-10.51580 Y24.62580
G1 Z-2.50000
G1 Z5.00000
G0 X-10.51580 Y27.16580
G1 Z-2.50000
G1 Z5.00000
G0 X-18.13580 Y22.08580
G1 Z-2.50000
G1 Z5.00000
G0 X-18.13580 Y24.62580
G1 Z-2.50000
G1 Z5.00000
G0 X-18.13580 Y27.16580
G1 Z-2.50000
G1 Z5.00000
G0 X-19.40580 Y43.67580
G1 Z-2.50000
G1 Z5.00000
G0 X-32.10580 Y43.67580
G1 Z-2.50000
G1 Z5.00000
G0 X-37.93256 Y43.62500
G1 Z-2.50000
G1 Z5.00000
G0 X-43.19036 Y47.84140
G1 Z-2.50000
G1 Z5.00000
G0 X-43.02526 Y42.71568
G1 Z-2.50000
G1 Z5.00000
G0 X-43.02526 Y40.17568
G1 Z-2.50000
G1 Z5.00000
G0 X-43.02526 Y37.63568
G1 Z-2.50000
G1 Z5.00000
G0 X-43.02526 Y35.09568
G1 Z-2.50000
G1 Z5.00000
G0 X-37.93256 Y33.62502
G1 Z-2.50000
G1 Z5.00000
G0 X-42.13880 Y22.56840
G1 Z-2.50000
G1 Z5.00000
G0 X-39.59880 Y22.56840
G1 Z-2.50000
G1 Z5.00000
G0 X-37.05880 Y22.56840
G1 Z-2.50000
G1 Z5.00000
G0 X-28.19674 Y9.40866
G1 Z-2.50000
G1 Z5.00000
G0 X-52.58074 Y9.40866
G1 Z-2.50000
G1 Z5.00000
G0 X-58.19668 Y9.40866
G1 Z-2.50000
G1 Z5.00000
G0 X-67.53880 Y22.56840
G1 Z-2.50000
G1 Z5.00000
G0 X-50.64526 Y35.09568
G1 Z-2.50000
G1 Z5.00000
G0 X-50.64526 Y37.63568
G1 Z-2.50000
G1 Z5.00000
G0 X-50.64526 Y40.17568
G1 Z-2.50000
G1 Z5.00000
G0 X-50.64526 Y42.71568
G1 Z-2.50000
G1 Z5.00000
G0 X-50.81036 Y47.84140
G1 Z-2.50000
G1 Z5.00000
G0 X-34.64580 Y63.99580
G1 Z-2.50000
G1 Z5.00000
G0 X-24.48580 Y63.99580
G1 Z-2.50000
G1 Z5.00000
G0 X-13.29202 Y72.19238
G1 Z-2.50000
G1 Z5.00000
G0 X-8.00120 Y63.91960
G1 Z-2.50000
G1 Z5.00000
G0 X-10.54120 Y63.91960
G1 Z-2.50000
G1 Z5.00000
G0 X-15.83202 Y56.95238
G1 Z-2.50000
G1 Z5.00000
G0 X-18.37202 Y56.95238
G1 Z-2.50000
G1 Z5.00000
G0 X-20.91202 Y56.95238
G1 Z-2.50000
G1 Z5.00000
G0 X-23.45202 Y56.95238
G1 Z-2.50000
G1 Z5.00000
G0 X-25.99202 Y56.95238
G1 Z-2.50000
G1 Z5.00000
G0 X-28.53202 Y56.95238
G1 Z-2.50000
G1 Z5.00000
G0 X-31.07202 Y56.95238
G1 Z-2.50000
G1 Z5.00000
G0 X-33.61202 Y56.95238
G1 Z-2.50000
G1 Z5.00000
G0 X-37.67094 Y56.95238
G1 Z-2.50000
G1 Z5.00000
G0 X-40.21094 Y56.95238
G1 Z-2.50000
G1 Z5.00000
G0 X-42.75094 Y56.95238
G1 Z-2.50000
G1 Z5.00000
G0 X-45.29094 Y56.95238
G1 Z-2.50000
G1 Z5.00000
G0 X-47.83094 Y56.95238
G1 Z-2.50000
G1 Z5.00000
G0 X-50.37094 Y56.95238
G1 Z-2.50000
G1 Z5.00000
G0 X-52.91094 Y56.95238
G1 Z-2.50000
G1 Z5.00000
G0 X-55.45094 Y56.95238
G1 Z-2.50000
G1 Z5.00000
G0 X-57.99094 Y56.95238
G1 Z-2.50000
G1 Z5.00000
G0 X-60.53094 Y56.95238
G1 Z-2.50000
G1 Z5.00000
G0 X-64.09202 Y56.95238
G1 Z-2.50000
G1 Z5.00000
G0 X-56.23580 Y47.32578
G1 Z-2.50000
G1 Z5.00000
G0 X-56.23580 Y37.32580
G1 Z-2.50000
G1 Z5.00000
G0 X-70.07880 Y22.56840
G1 Z-2.50000
G1 Z5.00000
G0 X-82.58068 Y9.40866
G1 Z-2.50000
G1 Z5.00000
G0 X-88.19662 Y9.40866
G1 Z-2.50000
G1 Z5.00000
G0 X-72.61880 Y22.56840
G1 Z-2.50000
G1 Z5.00000
G0 X-77.82580 Y28.43580
G1 Z-2.50000
G1 Z5.00000
G0 X-85.44580 Y28.43580
G1 Z-2.50000
G1 Z5.00000
G0 X-90.52580 Y38.59580
G1 Z-2.50000
G1 Z5.00000
G0 X-95.60580 Y29.70580
G1 Z-2.50000
G1 Z5.00000
G0 X-105.76580 Y29.70580
G1 Z-2.50000
G1 Z5.00000
G0 X-97.92990 Y22.56840
G1 Z-2.50000
G1 Z5.00000
G0 X-100.46990 Y22.56840
G1 Z-2.50000
G1 Z5.00000
G0 X-103.00990 Y22.56840
G1 Z-2.50000
G1 Z5.00000
G0 X-112.58062 Y9.40866
G1 Z-2.50000
G1 Z5.00000
G0 X-141.62552 Y11.62608
G1 Z-2.50000
G1 Z5.00000
G0 X-138.91280 Y32.24580
G1 Z-2.50000
G1 Z5.00000
G0 X-138.91280 Y37.32580
G1 Z-2.50000
G1 Z5.00000
G0 X-124.81580 Y52.68518
G1 Z-2.50000
G1 Z5.00000
G0 X-107.04596 Y47.51120
G1 Z-2.50000
G1 Z5.00000
G0 X-98.64364 Y47.51120
G1 Z-2.50000
G1 Z5.00000
G0 X-90.52580 Y46.21580
G1 Z-2.50000
G1 Z5.00000
G0 X-90.52580 Y50.02580
G1 Z-2.50000
G1 Z5.00000
G0 X-90.52580 Y57.52642
G1 Z-2.50000
G1 Z5.00000
G0 X-94.39676 Y62.59880
G1 Z-2.50000
G1 Z5.00000
G0 X-99.41580 Y71.61580
G1 Z-2.50000
G1 Z5.00000
G0 X-104.55676 Y62.59880
G1 Z-2.50000
G1 Z5.00000
G0 X-114.65580 Y71.61580
G1 Z-2.50000
G1 Z5.00000
G0 X-124.81580 Y60.18580
G1 Z-2.50000
G1 Z5.00000
G0 X-127.35580 Y72.88580
G1 Z-2.50000
G1 Z5.00000
G0 X-134.97580 Y72.88580
G1 Z-2.50000
G1 Z5.00000
G0 X-127.35580 Y88.12580
G1 Z-2.50000
G1 Z5.00000
G0 X-127.35580 Y91.93580
G1 Z-2.50000
G1 Z5.00000
G0 X-134.97580 Y88.12580
G1 Z-2.50000
G1 Z5.00000
G0 X-134.97580 Y93.20580
G1 Z-2.50000
G1 Z5.00000
G0 X-127.35580 Y107.17580
G1 Z-2.50000
G1 Z5.00000
G0 X-134.97580 Y108.44580
G1 Z-2.50000
G1 Z5.00000
G0 X-132.97682 Y115.89562
G1 Z-2.50000
G1 Z5.00000
G0 X-117.39900 Y110.02060
G1 Z-2.50000
G1 Z5.00000
G0 X-107.23900 Y110.02060
G1 Z-2.50000
G1 Z5.00000
G0 X-119.05508 Y98.45852
G1 Z-2.50000
G1 Z5.00000
G0 X-119.05508 Y95.91852
G1 Z-2.50000
G1 Z5.00000
G0 X-119.05508 Y93.37852
G1 Z-2.50000
G1 Z5.00000
G0 X-119.05508 Y90.83852
G1 Z-2.50000
G1 Z5.00000
G0 X-119.05508 Y88.29852
G1 Z-2.50000
G1 Z5.00000
G0 X-119.05508 Y85.75852
G1 Z-2.50000
G1 Z5.00000
G0 X-86.07572 Y115.79656
G1 Z-2.50000
G1 Z5.00000
G0 X-85.15370 Y100.99852
G1 Z-2.50000
G1 Z5.00000
G0 X-85.15370 Y98.45852
G1 Z-2.50000
G1 Z5.00000
G0 X-85.15370 Y95.91852
G1 Z-2.50000
G1 Z5.00000
G0 X-85.15370 Y93.37852
G1 Z-2.50000
G1 Z5.00000
G0 X-85.15370 Y90.83852
G1 Z-2.50000
G1 Z5.00000
G0 X-85.15370 Y88.29852
G1 Z-2.50000
G1 Z5.00000
G0 X-85.15370 Y85.75852
G1 Z-2.50000
G1 Z5.00000
G0 X-85.15370 Y83.21852
G1 Z-2.50000
G1 Z5.00000
G0 X-76.55580 Y90.66580
G1 Z-2.50000
G1 Z5.00000
G0 X-68.93580 Y88.12580
G1 Z-2.50000
G1 Z5.00000
G0 X-76.55580 Y100.82580
G1 Z-2.50000
G1 Z5.00000
G0 X-68.93580 Y98.28580
G1 Z-2.50000
G1 Z5.00000
G0 X-65.36202 Y105.21238
G1 Z-2.50000
G1 Z5.00000
G0 X-51.39202 Y105.21238
G1 Z-2.50000
G1 Z5.00000
G0 X-48.85202 Y105.21238
G1 Z-2.50000
G1 Z5.00000
G0 X-46.31202 Y105.21238
G1 Z-2.50000
G1 Z5.00000
G0 X-43.77202 Y105.21238
G1 Z-2.50000
G1 Z5.00000
G0 X-41.23202 Y105.21238
G1 Z-2.50000
G1 Z5.00000
G0 X-38.69202 Y105.21238
G1 Z-2.50000
G1 Z5.00000
G0 X-36.15202 Y105.21238
G1 Z-2.50000
G1 Z5.00000
G0 X-34.64580 Y100.82580
G1 Z-2.50000
G1 Z5.00000
G0 X-28.53202 Y105.21238
G1 Z-2.50000
G1 Z5.00000
G0 X-25.99202 Y105.21238
G1 Z-2.50000
G1 Z5.00000
G0 X-27.02580 Y100.82580
G1 Z-2.50000
G1 Z5.00000
G0 X-23.45202 Y105.21238
G1 Z-2.50000
G1 Z5.00000
G0 X-20.91202 Y105.21238
G1 Z-2.50000
G1 Z5.00000
G0 X-18.37202 Y105.21238
G1 Z-2.50000
G1 Z5.00000
G0 X-13.29202 Y100.13238
G1 Z-2.50000
G1 Z5.00000
G0 X-15.83202 Y105.21238
G1 Z-2.50000
G1 Z5.00000
G0 X-13.05580 Y113.52580
G1 Z-2.50000
G1 Z5.00000
G0 X-7.97580 Y118.60580
G1 Z-2.50000
G1 Z5.00000
G0 X-12.57320 Y126.22580
G1 Z-2.50000
G1 Z5.00000
G0 X-12.57320 Y131.30580
G1 Z-2.50000
G1 Z5.00000
G0 X-11.62578 Y141.62582
G1 Z-2.50000
G1 Z5.00000
G0 X-24.76520 Y143.44700
G1 Z-2.50000
G1 Z5.00000
G0 X-29.28640 Y143.44700
G1 Z-2.50000
G1 Z5.00000
G0 X-24.76520 Y136.94460
G1 Z-2.50000
G1 Z5.00000
G0 X-29.28640 Y136.94460
G1 Z-2.50000
G1 Z5.00000
G0 X-28.29580 Y131.30580
G1 Z-2.50000
G1 Z5.00000
G0 X-28.29580 Y128.76580
G1 Z-2.50000
G1 Z5.00000
G0 X-28.29580 Y126.22580
G1 Z-2.50000
G1 Z5.00000
G0 X-35.91580 Y131.30580
G1 Z-2.50000
G1 Z5.00000
G0 X-35.91580 Y128.76580
G1 Z-2.50000
G1 Z5.00000
G0 X-35.91580 Y126.22580
G1 Z-2.50000
G1 Z5.00000
G0 X-23.21580 Y113.52580
G1 Z-2.50000
G1 Z5.00000
G0 X-18.13580 Y118.60580
G1 Z-2.50000
G1 Z5.00000
G0 X-33.61202 Y105.21238
G1 Z-2.50000
G1 Z5.00000
G0 X-53.69580 Y123.68580
G1 Z-2.50000
G1 Z5.00000
G0 X-56.23580 Y123.68580
G1 Z-2.50000
G1 Z5.00000
G0 X-58.77580 Y123.68580
G1 Z-2.50000
G1 Z5.00000
G0 X-58.77580 Y131.30580
G1 Z-2.50000
G1 Z5.00000
G0 X-56.23580 Y131.30580
G1 Z-2.50000
G1 Z5.00000
G0 X-53.69580 Y131.30580
G1 Z-2.50000
G1 Z5.00000
G0 X-37.56680 Y142.73580
G1 Z-2.50000
G1 Z5.00000
G0 X-42.26580 Y142.73580
G1 Z-2.50000
G1 Z5.00000
G0 X-46.96480 Y142.73580
G1 Z-2.50000
G1 Z5.00000
G0 X-54.96580 Y142.10080
G1 Z-2.50000
G1 Z5.00000
G0 X-60.04580 Y142.10080
G1 Z-2.50000
G1 Z5.00000
G0 X-72.74580 Y142.10080
G1 Z-2.50000
G1 Z5.00000
G0 X-77.82580 Y142.10080
G1 Z-2.50000
G1 Z5.00000
G0 X-85.97666 Y138.29588
G1 Z-2.50000
G1 Z5.00000
G0 X-132.97682 Y138.19682
G1 Z-2.50000
G1 Z5.00000
G0 X-141.62552 Y141.62582
G1 Z-2.50000
G1 Z5.00000

G00 Z10.000 ( All done -- retract )

M5      (Spindle off.)
M0      (Temporary machine stop.)


