G90 G21 S20000 G17

M0 (Attach probe wires and clips that need attaching)
(Initialize probe routine)
G0 Z25 (Move clear of the board first)
G1 X-138.84 Y10.4 F600 (Move to bottom left corner)
G0 Z2 (Quick move to probe clearance height)
G38.2 Z-1 F100 (Probe to a maximum of the specified probe height at the specified feed rate)
G92 Z0 (Touch off Z to 0 once contact is made)
G0 Z2 (Move Z to above the contact point)
G38.2 Z-1 F50 (Repeat at a more accurate slower rate)
G92 Z0
G0 Z2
M0 (Detach any clips used for probing)

( pcb2gcode 1.3.2 )
( Software-independent Gcode )

G94 ( Millimeters per minute feed rate. )
G21 ( Units == Millimeters. )

G90 ( Absolute coordinates. )
G00 S10000 ( RPM spindle speed. )
G64 P0.01000 ( set maximum deviation from commanded toolpath )
G01 F600.00000 ( Feedrate. )

G01 F600.00000 ( Feedrate. )
M3 ( Spindle on clockwise. )
G04 P1.00000
G04 P0 ( dwell for no time -- G64 should not smooth over this point )
G00 Z5.00000 ( retract )

G00 X-10.68740 Y131.21222 ( rapid move to begin. )
G01 F300.00000
G01 Z-0.17129
G04 P0 ( dwell for no time -- G64 should not smooth over this point )
G01 F600.00000
G01 X-10.68740 Y131.21222Z-0.17129
G01 X-10.68959 Y131.42020Z-0.17131
G01 X-10.73119 Y131.61339Z-0.17131
G01 X-10.81107 Y131.79416Z-0.17128
G01 X-10.93815 Y131.97184Z-0.17123
G01 X-11.10157 Y132.11677Z-0.17115
G01 X-11.27300 Y132.21512Z-0.17107
G01 X-11.46078 Y132.27671Z-0.17097
G01 X-11.67785 Y132.30115Z-0.17085
G01 X-13.46855 Y132.30115Z-0.16986
G01 X-13.68559 Y132.27671Z-0.16975
G01 X-13.88270 Y132.21037Z-0.16965
G01 X-14.06172 Y132.10447Z-0.16957
G01 X-14.21480 Y131.96368Z-0.16951
G01 X-14.33052 Y131.80348Z-0.16948
G01 X-14.39689 Y131.65581Z-0.16947
G01 X-19.39689 Y131.65581Z-0.16695 ;segmented line. Max segment length set to 5
G01 X-24.39689 Y131.65581Z-0.16444 ;segmented line. Max segment length set to 5
G01 X-25.99550 Y131.65581Z-0.16364
G01 X-25.99548 Y136.65581Z-0.15852 ;segmented line. Max segment length set to 5
G01 X-25.99547 Y139.44744Z-0.15567
G01 X-24.46914 Y140.98668Z-0.15589
G01 X-24.43853 Y141.04802Z-0.15587
G01 X-24.41567 Y141.16290Z-0.15580
G01 X-24.41519 Y141.90184Z-0.15513
G01 X-24.32540 Y141.94421Z-0.15520
G01 X-24.19652 Y142.03783Z-0.15528
G01 X-24.06210 Y142.18711Z-0.15532
G01 X-23.97772 Y142.33440Z-0.15529
G01 X-23.92474 Y142.49569Z-0.15522
G01 X-23.90320 Y142.68500Z-0.15508
G01 X-23.90320 Y144.20900Z-0.15412
G01 X-23.92040 Y144.37788Z-0.15410
G01 X-23.97772 Y144.55962Z-0.15402
G01 X-24.07440 Y144.72380Z-0.15388
G01 X-24.19652 Y144.85619Z-0.15372
G01 X-24.32540 Y144.94981Z-0.15354
G01 X-24.41519 Y144.99218Z-0.15341
G01 X-24.41519 Y145.72131Z-0.15341
G01 X-24.43853 Y145.84600Z-0.15338
G01 X-24.51770 Y145.96878Z-0.15327
G01 X-25.23731 Y146.68839Z-0.15227
G01 X-25.34198 Y146.76007Z-0.15213
G01 X-25.47498 Y146.79042Z-0.15194
G01 X-30.47498 Y146.79042Z-0.14502 ;segmented line. Max segment length set to 5
G01 X-35.47498 Y146.79042Z-0.13580 ;segmented line. Max segment length set to 5
G01 X-40.47498 Y146.79042Z-0.12657 ;segmented line. Max segment length set to 5
G01 X-45.47498 Y146.79042Z-0.11734 ;segmented line. Max segment length set to 5
G01 X-50.47498 Y146.79042Z-0.10811 ;segmented line. Max segment length set to 5
G01 X-55.47498 Y146.79042Z-0.10041 ;segmented line. Max segment length set to 5
G01 X-60.47498 Y146.79042Z-0.09349 ;segmented line. Max segment length set to 5
G01 X-65.47498 Y146.79042Z-0.08657 ;segmented line. Max segment length set to 5
G01 X-70.47498 Y146.79042Z-0.07964 ;segmented line. Max segment length set to 5
G01 X-75.47498 Y146.79042Z-0.07538 ;segmented line. Max segment length set to 5
G01 X-80.47498 Y146.79042Z-0.07653 ;segmented line. Max segment length set to 5
G01 X-85.47498 Y146.79042Z-0.07769 ;segmented line. Max segment length set to 5
G01 X-90.47498 Y146.79042Z-0.07884 ;segmented line. Max segment length set to 5
G01 X-95.47498 Y146.79042Z-0.07999 ;segmented line. Max segment length set to 5
G01 X-100.47498 Y146.79042Z-0.08574 ;segmented line. Max segment length set to 5
G01 X-105.47498 Y146.79042Z-0.09151 ;segmented line. Max segment length set to 5
G01 X-110.47498 Y146.79042Z-0.09728 ;segmented line. Max segment length set to 5
G01 X-115.47498 Y146.79042Z-0.10304 ;segmented line. Max segment length set to 5
G01 X-120.47498 Y146.79042Z-0.11034 ;segmented line. Max segment length set to 5
G01 X-125.47498 Y146.79042Z-0.11841 ;segmented line. Max segment length set to 5
G01 X-129.61170 Y146.79042Z-0.12509
G01 X-129.74470 Y146.76007Z-0.12531
G01 X-129.84937 Y146.68839Z-0.12548
G01 X-133.38490 Y143.15286Z-0.13094 ;segmented line. Max segment length set to 5
G01 X-135.87867 Y140.65909Z-0.13263
G01 X-135.95035 Y140.55442Z-0.13262
G01 X-135.98070 Y140.42140Z-0.13254
G01 X-135.98096 Y135.42140Z-0.12831 ;segmented line. Max segment length set to 5
G01 X-135.98118 Y131.29310Z-0.12482
G01 X-135.95035 Y131.15030Z-0.12472
G01 X-135.87867 Y131.04562Z-0.12468
G01 X-132.34314 Y127.51008Z-0.12620 ;segmented line. Max segment length set to 5
G01 X-128.80761 Y123.97454Z-0.13213 ;segmented line. Max segment length set to 5
G01 X-127.70579 Y122.87272Z-0.13488
G01 X-127.70579 Y117.87272Z-0.13024 ;segmented line. Max segment length set to 5
G01 X-127.70579 Y112.87272Z-0.12286 ;segmented line. Max segment length set to 5
G01 X-127.70579 Y108.21809Z-0.11598
G01 X-127.91457 Y108.12273Z-0.11551
G01 X-128.09184 Y107.99327Z-0.11503
G01 X-128.25140 Y107.81359Z-0.11451
G01 X-128.36067 Y107.62322Z-0.11407
G01 X-128.43174 Y107.40452Z-0.11364
G01 X-128.45524 Y107.18626Z-0.11329
G01 X-128.43174 Y106.94709Z-0.11298
G01 X-128.36443 Y106.73818Z-0.11278
G01 X-128.25140 Y106.53803Z-0.11267
G01 X-128.09184 Y106.35835Z-0.11265
G01 X-127.89646 Y106.21842Z-0.11274
G01 X-127.69570 Y106.12965Z-0.11291
G01 X-127.48110 Y106.08347Z-0.11317
G01 X-127.25125 Y106.08129Z-0.11351
G01 X-127.01547 Y106.12977Z-0.11394
G01 X-126.87023 Y106.19528Z-0.11426
G01 X-124.44570 Y103.77143Z-0.11393
G01 X-124.34829 Y103.70636Z-0.11395
G01 X-124.26406 Y103.68081Z-0.11403
G01 X-123.53884 Y103.67550Z-0.11502
G01 X-121.40509 Y101.54172Z-0.11411
G01 X-121.39956 Y96.54172Z-0.10873 ;segmented line. Max segment length set to 5
G01 X-121.39597 Y93.30140Z-0.10712
G01 X-121.35114 Y93.19317Z-0.10710
G01 X-121.29531 Y93.12513Z-0.10712
G01 X-121.24113 Y93.08314Z-0.10715
G01 X-121.13288 Y93.03831Z-0.10722
G01 X-120.32490 Y93.02922Z-0.10794
G01 X-120.28520 Y92.94542Z-0.10793
G01 X-120.19305 Y92.81857Z-0.10794
G01 X-120.05439 Y92.69155Z-0.10799
G01 X-119.89074 Y92.59894Z-0.10808
G01 X-119.74162 Y92.55050Z-0.10819
G01 X-119.56524 Y92.52975Z-0.10833
G01 X-118.54434 Y92.52975Z-0.10922
G01 X-118.36796 Y92.55050Z-0.10938
G01 X-118.21884 Y92.59894Z-0.10954
G01 X-118.06395 Y92.68583Z-0.10974
G01 X-117.91652 Y92.81857Z-0.10995
G01 X-117.81866 Y92.95421Z-0.11012
G01 X-117.75013 Y93.10676Z-0.11028
G01 X-117.70891 Y93.30082Z-0.11045
G01 X-117.70944 Y93.46805Z-0.11056
G01 X-117.74368 Y93.63175Z-0.11063
G01 X-117.82437 Y93.81298Z-0.11068
G01 X-117.93052 Y93.95538Z-0.11067
G01 X-118.05516 Y94.06688Z-0.11062
G01 X-118.19973 Y94.15098Z-0.11054
G01 X-118.36796 Y94.20793Z-0.11042
G01 X-118.55478 Y94.22921Z-0.11026
G01 X-119.55480 Y94.22921Z-0.10931
G01 X-119.74162 Y94.20793Z-0.10913
G01 X-119.90984 Y94.15098Z-0.10894
G01 X-120.06255 Y94.06028Z-0.10874
G01 X-120.19305 Y93.93983Z-0.10855
G01 X-120.28520 Y93.81298Z-0.10840
G01 X-120.32490 Y93.72921Z-0.10832
G01 X-120.70509 Y93.72921Z-0.10797
G01 X-120.71076 Y98.72921Z-0.11060 ;segmented line. Max segment length set to 5
G01 X-120.71421 Y101.76450Z-0.11540
G01 X-120.75904 Y101.87273Z-0.11554
G01 X-120.80760 Y101.93420Z-0.11559
G01 X-122.89891 Y104.02551Z-0.11651
G01 X-119.36338 Y107.56104Z-0.12820 ;segmented line. Max segment length set to 5
G01 X-117.88434 Y109.04008Z-0.13348
G01 X-117.73911 Y108.97457Z-0.13359
G01 X-117.52409 Y108.92827Z-0.13385
G01 X-117.27347 Y108.92827Z-0.13426
G01 X-117.05887 Y108.97445Z-0.13423
G01 X-116.85811 Y109.06322Z-0.13387
G01 X-116.65534 Y109.21054Z-0.13362
G01 X-116.50317 Y109.38283Z-0.13355
G01 X-116.39865 Y109.56388Z-0.13363
G01 X-116.32118 Y109.80223Z-0.13389
G01 X-116.29880 Y110.02060Z-0.13426
G01 X-116.32118 Y110.23899Z-0.13475
G01 X-116.39390 Y110.46802Z-0.13540
G01 X-116.51546 Y110.67531Z-0.13615
G01 X-116.67088 Y110.84465Z-0.13692
G01 X-116.84879 Y110.97325Z-0.13767
G01 X-117.06898 Y111.06949Z-0.13848
G01 X-117.29425 Y111.11513Z-0.13864
G01 X-117.50332 Y111.11513Z-0.13827
G01 X-117.72859 Y111.06949Z-0.13778
G01 X-117.94878 Y110.97325Z-0.13721
G01 X-118.12668 Y110.84465Z-0.13664
G01 X-118.28211 Y110.67531Z-0.13603
G01 X-118.39895 Y110.47734Z-0.13544
G01 X-118.47639 Y110.23899Z-0.13484
G01 X-118.49879 Y110.02060Z-0.13438
G01 X-118.47639 Y109.80223Z-0.13399
G01 X-118.38119 Y109.53317Z-0.13362
G01 X-121.91673 Y105.99764Z-0.12138 ;segmented line. Max segment length set to 5
G01 X-123.53887 Y104.37550Z-0.11620
G01 X-124.06051 Y104.37550Z-0.11547
G01 X-126.37338 Y106.68837Z-0.11577
G01 X-126.27983 Y106.94709Z-0.11631
G01 X-126.25634 Y107.16536Z-0.11669
G01 X-126.27983 Y107.40452Z-0.11702
G01 X-126.34714 Y107.61344Z-0.11724
G01 X-126.46586 Y107.82238Z-0.11737
G01 X-126.61973 Y107.99327Z-0.11739
G01 X-126.79700 Y108.12273Z-0.11730
G01 X-127.00579 Y108.21809Z-0.11711
G01 X-127.00579 Y113.21809Z-0.12468 ;segmented line. Max segment length set to 5
G01 X-127.00579 Y118.21809Z-0.13225 ;segmented line. Max segment length set to 5
G01 X-127.00579 Y123.01770Z-0.13623
G01 X-127.02913 Y123.14241Z-0.13609
G01 X-127.10830 Y123.26520Z-0.13584
G01 X-130.64383 Y126.80073Z-0.12840 ;segmented line. Max segment length set to 5
G01 X-134.17936 Y130.33626Z-0.12538 ;segmented line. Max segment length set to 5
G01 X-135.28118 Y131.43808Z-0.12534
G01 X-135.28118 Y136.43808Z-0.12895 ;segmented line. Max segment length set to 5
G01 X-135.28118 Y140.26664Z-0.13171
G01 X-131.74565 Y143.80217Z-0.12854 ;segmented line. Max segment length set to 5
G01 X-129.45691 Y146.09091Z-0.12484
G01 X-124.45691 Y146.09091Z-0.11677 ;segmented line. Max segment length set to 5
G01 X-119.45691 Y146.09091Z-0.10869 ;segmented line. Max segment length set to 5
G01 X-114.45691 Y146.09091Z-0.10187 ;segmented line. Max segment length set to 5
G01 X-109.45691 Y146.09091Z-0.09610 ;segmented line. Max segment length set to 5
G01 X-104.45691 Y146.09091Z-0.09033 ;segmented line. Max segment length set to 5
G01 X-99.45691 Y146.09091Z-0.08456 ;segmented line. Max segment length set to 5
G01 X-94.45691 Y146.09091Z-0.07976 ;segmented line. Max segment length set to 5
G01 X-89.45691 Y146.09091Z-0.07861 ;segmented line. Max segment length set to 5
G01 X-84.45691 Y146.09091Z-0.07745 ;segmented line. Max segment length set to 5
G01 X-79.45691 Y146.09091Z-0.07630 ;segmented line. Max segment length set to 5
G01 X-74.45691 Y146.09091Z-0.07514 ;segmented line. Max segment length set to 5
G01 X-69.45691 Y146.09091Z-0.08105 ;segmented line. Max segment length set to 5
G01 X-64.45691 Y146.09091Z-0.08798 ;segmented line. Max segment length set to 5
G01 X-59.45691 Y146.09091Z-0.09490 ;segmented line. Max segment length set to 5
G01 X-54.45691 Y146.09091Z-0.10182 ;segmented line. Max segment length set to 5
G01 X-49.45691 Y146.09091Z-0.10999 ;segmented line. Max segment length set to 5
G01 X-44.45691 Y146.09091Z-0.11922 ;segmented line. Max segment length set to 5
G01 X-39.45691 Y146.09091Z-0.12845 ;segmented line. Max segment length set to 5
G01 X-34.45691 Y146.09091Z-0.13768 ;segmented line. Max segment length set to 5
G01 X-29.45691 Y146.09091Z-0.14643 ;segmented line. Max segment length set to 5
G01 X-25.62977 Y146.09091Z-0.15173
G01 X-25.11519 Y145.57633Z-0.15244
G01 X-25.11521 Y144.99218Z-0.15244
G01 X-25.20498 Y144.94981Z-0.15232
G01 X-25.33386 Y144.85619Z-0.15214
G01 X-25.46827 Y144.70691Z-0.15195
G01 X-25.55265 Y144.55962Z-0.15184
G01 X-25.60564 Y144.39833Z-0.15176
G01 X-25.62720 Y144.20900Z-0.15173
G01 X-25.62720 Y142.68500Z-0.15283
G01 X-25.60998 Y142.51614Z-0.15302
G01 X-25.55265 Y142.33440Z-0.15328
G01 X-25.45598 Y142.17021Z-0.15356
G01 X-25.33386 Y142.03783Z-0.15385
G01 X-25.20498 Y141.94421Z-0.15410
G01 X-25.11521 Y141.90184Z-0.15425
G01 X-25.11519 Y141.31769Z-0.15481
G01 X-26.59298 Y139.83989Z-0.15461
G01 X-26.66464 Y139.73522Z-0.15464
G01 X-26.69019 Y139.65099Z-0.15470
G01 X-26.69351 Y134.65099Z-0.16007 ;segmented line. Max segment length set to 5
G01 X-26.69550 Y131.65581Z-0.16328
G01 X-27.07124 Y131.65581Z-0.16309
G01 X-27.11638 Y131.75581Z-0.16296
G01 X-27.22036 Y131.89990Z-0.16275
G01 X-27.35864 Y132.02733Z-0.16253
G01 X-27.52039 Y132.12324Z-0.16234
G01 X-27.70868 Y132.18614Z-0.16217
G01 X-27.89578 Y132.20582Z-0.16204
G01 X-28.69580 Y132.20582Z-0.16161
G01 X-28.87256 Y132.18779Z-0.16153
G01 X-29.05208 Y132.13175Z-0.16151
G01 X-29.22480 Y132.03391Z-0.16154
G01 X-29.37121 Y131.89990Z-0.16163
G01 X-29.47520 Y131.75581Z-0.16176
G01 X-29.55445 Y131.57382Z-0.16195
G01 X-29.59140 Y131.38944Z-0.16217
G01 X-29.59140 Y131.22218Z-0.16238
G01 X-29.55445 Y131.03780Z-0.16264
G01 X-29.47520 Y130.85581Z-0.16291
G01 X-29.35722 Y130.69620Z-0.16316
G01 X-29.22480 Y130.57771Z-0.16337
G01 X-29.07119 Y130.48837Z-0.16354
G01 X-28.87256 Y130.42383Z-0.16371
G01 X-28.69580 Y130.40580Z-0.16380
G01 X-27.89578 Y130.40580Z-0.16413
G01 X-27.69854 Y130.42818Z-0.16419
G01 X-27.52974 Y130.48362Z-0.16419
G01 X-27.36677 Y130.57771Z-0.16416
G01 X-27.22036 Y130.71172Z-0.16407
G01 X-27.11638 Y130.85581Z-0.16396
G01 X-27.07124 Y130.95581Z-0.16387
G01 X-22.07124 Y130.95581Z-0.16613 ;segmented line. Max segment length set to 5
G01 X-17.07124 Y130.95581Z-0.16839 ;segmented line. Max segment length set to 5
G01 X-14.39689 Y130.95581Z-0.16959
G01 X-14.32483 Y130.79935Z-0.16965
G01 X-14.21480 Y130.64794Z-0.16973
G01 X-14.06172 Y130.50714Z-0.16982
G01 X-13.88270 Y130.40125Z-0.16991
G01 X-13.67548 Y130.33221Z-0.17000
G01 X-13.46855 Y130.31045Z-0.17009
G01 X-11.67785 Y130.31045Z-0.17081
G01 X-11.47089 Y130.33221Z-0.17090
G01 X-11.27300 Y130.39650Z-0.17098
G01 X-11.09279 Y130.50057Z-0.17106
G01 X-10.94554 Y130.63239Z-0.17113
G01 X-10.81107 Y130.81746Z-0.17120
G01 X-10.73119 Y130.99823Z-0.17126
G01 X-10.68740 Y131.21222Z-0.17129
G04 P0 ( dwell for no time -- G64 should not smooth over this point )
G00 Z5.00000 ( retract )

G00 X-6.87578 Y118.60580 ( rapid move to begin. )
G01 F300.00000
G01 Z-0.16601
G04 P0 ( dwell for no time -- G64 should not smooth over this point )
G01 F600.00000
G01 X-6.87578 Y118.60580Z-0.16601
G01 X-6.90252 Y118.36699Z-0.16569
G01 X-6.97090 Y118.15840Z-0.16541
G01 X-7.08586 Y117.95924Z-0.16514
G01 X-7.24789 Y117.78177Z-0.16490
G01 X-7.42579 Y117.65317Z-0.16473
G01 X-7.62579 Y117.56353Z-0.16461
G01 X-7.62579 Y112.56353Z-0.15786 ;segmented line. Max segment length set to 5
G01 X-7.62579 Y107.56353Z-0.15112 ;segmented line. Max segment length set to 5
G01 X-7.62579 Y102.56353Z-0.14437 ;segmented line. Max segment length set to 5
G01 X-7.62579 Y97.56353Z-0.13564 ;segmented line. Max segment length set to 5
G01 X-7.62579 Y92.56353Z-0.12327 ;segmented line. Max segment length set to 5
G01 X-7.62579 Y87.56353Z-0.11090 ;segmented line. Max segment length set to 5
G01 X-7.62579 Y87.55320Z-0.11087
G01 X-7.64913 Y87.42852Z-0.11057
G01 X-7.72830 Y87.30573Z-0.11026
G01 X-11.26383 Y83.77020Z-0.10309 ;segmented line. Max segment length set to 5
G01 X-14.79936 Y80.23467Z-0.09750 ;segmented line. Max segment length set to 5
G01 X-18.33490 Y76.69914Z-0.09303 ;segmented line. Max segment length set to 5
G01 X-21.87043 Y73.16361Z-0.09051 ;segmented line. Max segment length set to 5
G01 X-25.40596 Y69.62808Z-0.08954 ;segmented line. Max segment length set to 5
G01 X-28.18178 Y66.85226Z-0.08988
G01 X-28.18178 Y61.85226Z-0.08353 ;segmented line. Max segment length set to 5
G01 X-28.18178 Y58.22327Z-0.07893
G01 X-28.09801 Y58.18357Z-0.07871
G01 X-27.97116 Y58.09139Z-0.07832
G01 X-27.85072 Y57.96088Z-0.07790
G01 X-27.76001 Y57.80820Z-0.07751
G01 X-27.70307 Y57.63998Z-0.07717
G01 X-27.68178 Y57.45314Z-0.07688
G01 X-27.68234 Y56.44267Z-0.07557
G01 X-27.70037 Y56.27641Z-0.07539
G01 X-27.76001 Y56.09810Z-0.07530
G01 X-27.83842 Y55.96231Z-0.07530
G01 X-27.95562 Y55.82886Z-0.07539
G01 X-28.09801 Y55.72271Z-0.07557
G01 X-28.25935 Y55.64849Z-0.07584
G01 X-28.44294 Y55.60780Z-0.07621
G01 X-28.62064 Y55.60780Z-0.07661
G01 X-28.79445 Y55.64473Z-0.07705
G01 X-28.94746 Y55.71227Z-0.07747
G01 X-29.09242 Y55.81489Z-0.07793
G01 X-29.22516 Y55.96231Z-0.07840
G01 X-29.31205 Y56.11717Z-0.07878
G01 X-29.36049 Y56.26630Z-0.07907
G01 X-29.38178 Y56.45314Z-0.07934
G01 X-29.38178 Y57.45314Z-0.08053
G01 X-29.36049 Y57.63998Z-0.08071
G01 X-29.30354 Y57.80820Z-0.08079
G01 X-29.21287 Y57.96088Z-0.08078
G01 X-29.09242 Y58.09139Z-0.08068
G01 X-28.96557 Y58.18357Z-0.08053
G01 X-28.88180 Y58.22324Z-0.08040
G01 X-28.88179 Y63.22324Z-0.08652 ;segmented line. Max segment length set to 5
G01 X-28.88178 Y66.99721Z-0.09115
G01 X-28.87268 Y67.07501Z-0.09123
G01 X-28.82785 Y67.18324Z-0.09129
G01 X-25.29342 Y70.71988Z-0.09097 ;segmented line. Max segment length set to 5
G01 X-21.75900 Y74.25652Z-0.09220 ;segmented line. Max segment length set to 5
G01 X-18.22458 Y77.79316Z-0.09513 ;segmented line. Max segment length set to 5
G01 X-14.69015 Y81.32980Z-0.09986 ;segmented line. Max segment length set to 5
G01 X-11.15573 Y84.86644Z-0.10563 ;segmented line. Max segment length set to 5
G01 X-8.32579 Y87.69816Z-0.11123
G01 X-8.32579 Y92.69816Z-0.12360 ;segmented line. Max segment length set to 5
G01 X-8.32579 Y97.69816Z-0.13597 ;segmented line. Max segment length set to 5
G01 X-8.32579 Y102.69816Z-0.14455 ;segmented line. Max segment length set to 5
G01 X-8.32579 Y107.69816Z-0.15130 ;segmented line. Max segment length set to 5
G01 X-8.32579 Y112.69816Z-0.15804 ;segmented line. Max segment length set to 5
G01 X-8.32579 Y117.56353Z-0.16461
G01 X-8.51646 Y117.64842Z-0.16472
G01 X-8.70369 Y117.78177Z-0.16490
G01 X-8.86571 Y117.95924Z-0.16515
G01 X-8.98067 Y118.15840Z-0.16544
G01 X-9.04905 Y118.36699Z-0.16574
G01 X-9.07580 Y118.60580Z-0.16606
G01 X-9.04905 Y118.84463Z-0.16638
G01 X-8.98067 Y119.05322Z-0.16665
G01 X-8.86571 Y119.25238Z-0.16689
G01 X-8.71923 Y119.41588Z-0.16711
G01 X-8.51646 Y119.56320Z-0.16731
G01 X-8.30559 Y119.65469Z-0.16743
G01 X-8.08032 Y119.70033Z-0.16749
G01 X-7.86081 Y119.69977Z-0.16749
G01 X-7.62609 Y119.64821Z-0.16742
G01 X-7.42579 Y119.55845Z-0.16730
G01 X-7.23234 Y119.41588Z-0.16711
G01 X-7.08586 Y119.25238Z-0.16689
G01 X-6.97090 Y119.05322Z-0.16662
G01 X-6.90252 Y118.84463Z-0.16634
G01 X-6.87578 Y118.60580Z-0.16601
G04 P0 ( dwell for no time -- G64 should not smooth over this point )
G00 Z5.00000 ( retract )

G00 X-11.95634 Y113.51536 ( rapid move to begin. )
G01 F300.00000
G01 Z-0.15961
G04 P0 ( dwell for no time -- G64 should not smooth over this point )
G01 F600.00000
G01 X-11.95634 Y113.51536Z-0.15961
G01 X-11.97818 Y113.74419Z-0.15993
G01 X-12.05090 Y113.97322Z-0.16025
G01 X-12.16586 Y114.17238Z-0.16055
G01 X-12.31234 Y114.33588Z-0.16080
G01 X-12.51511 Y114.48320Z-0.16103
G01 X-12.71587 Y114.57197Z-0.16119
G01 X-12.95125 Y114.62033Z-0.16129
G01 X-13.18110 Y114.61815Z-0.16133
G01 X-13.39570 Y114.57197Z-0.16129
G01 X-13.59646 Y114.48320Z-0.16120
G01 X-13.78369 Y114.34985Z-0.16104
G01 X-13.95140 Y114.16359Z-0.16081
G01 X-14.06067 Y113.97322Z-0.16056
G01 X-14.13339 Y113.74419Z-0.16025
G01 X-14.15580 Y113.52580Z-0.15995
G01 X-14.13339 Y113.30743Z-0.15964
G01 X-14.05592 Y113.06908Z-0.15929
G01 X-13.94571 Y112.87924Z-0.15901
G01 X-13.79923 Y112.71574Z-0.15876
G01 X-13.61457 Y112.57888Z-0.15854
G01 X-13.40579 Y112.48353Z-0.15838
G01 X-13.40579 Y107.48353Z-0.15140 ;segmented line. Max segment length set to 5
G01 X-13.40579 Y104.71908Z-0.14753
G01 X-16.94132 Y101.18355Z-0.14266 ;segmented line. Max segment length set to 5
G01 X-20.47685 Y97.64802Z-0.13666 ;segmented line. Max segment length set to 5
G01 X-24.01238 Y94.11249Z-0.13039 ;segmented line. Max segment length set to 5
G01 X-27.54791 Y90.57696Z-0.12516 ;segmented line. Max segment length set to 5
G01 X-31.08344 Y87.04143Z-0.11922 ;segmented line. Max segment length set to 5
G01 X-31.31926 Y86.80561Z-0.11827
G01 X-31.39846 Y86.68280Z-0.11788
G01 X-31.42178 Y86.55811Z-0.11763
G01 X-31.42178 Y81.55811Z-0.10971 ;segmented line. Max segment length set to 5
G01 X-31.42178 Y76.55811Z-0.10206 ;segmented line. Max segment length set to 5
G01 X-31.42179 Y71.55811Z-0.09668 ;segmented line. Max segment length set to 5
G01 X-31.42179 Y66.55811Z-0.09129 ;segmented line. Max segment length set to 5
G01 X-31.42180 Y61.55811Z-0.08591 ;segmented line. Max segment length set to 5
G01 X-31.42180 Y58.22324Z-0.08232
G01 X-31.50557 Y58.18357Z-0.08215
G01 X-31.63242 Y58.09139Z-0.08186
G01 X-31.75287 Y57.96088Z-0.08153
G01 X-31.84354 Y57.80820Z-0.08123
G01 X-31.90049 Y57.63998Z-0.08097
G01 X-31.92178 Y57.45314Z-0.08074
G01 X-31.92178 Y56.45314Z-0.07969
G01 X-31.90049 Y56.26630Z-0.07952
G01 X-31.85205 Y56.11717Z-0.07943
G01 X-31.76516 Y55.96231Z-0.07940
G01 X-31.63242 Y55.81489Z-0.07943
G01 X-31.48746 Y55.71227Z-0.07953
G01 X-31.33445 Y55.64473Z-0.07967
G01 X-31.16064 Y55.60780Z-0.07988
G01 X-30.98294 Y55.60780Z-0.08013
G01 X-30.80913 Y55.64473Z-0.08042
G01 X-30.63801 Y55.72271Z-0.08075
G01 X-30.49562 Y55.82886Z-0.08108
G01 X-30.37842 Y55.96231Z-0.08098
G01 X-30.30001 Y56.09810Z-0.08096
G01 X-30.24037 Y56.27641Z-0.08103
G01 X-30.22178 Y56.45314Z-0.08119
G01 X-30.22178 Y57.45314Z-0.08233
G01 X-30.24307 Y57.63998Z-0.08259
G01 X-30.30001 Y57.80820Z-0.08291
G01 X-30.39072 Y57.96088Z-0.08327
G01 X-30.51116 Y58.09139Z-0.08360
G01 X-30.63801 Y58.18357Z-0.08350
G01 X-30.72178 Y58.22327Z-0.08342
G01 X-30.72178 Y63.22327Z-0.08898 ;segmented line. Max segment length set to 5
G01 X-30.72178 Y68.22327Z-0.09454 ;segmented line. Max segment length set to 5
G01 X-30.72178 Y73.22327Z-0.10010 ;segmented line. Max segment length set to 5
G01 X-30.72178 Y78.22327Z-0.10619 ;segmented line. Max segment length set to 5
G01 X-30.72178 Y83.22327Z-0.11408 ;segmented line. Max segment length set to 5
G01 X-30.72178 Y86.41313Z-0.11911
G01 X-27.18698 Y89.94940Z-0.12395 ;segmented line. Max segment length set to 5
G01 X-23.65218 Y93.48567Z-0.12915 ;segmented line. Max segment length set to 5
G01 X-20.11739 Y97.02194Z-0.13538 ;segmented line. Max segment length set to 5
G01 X-16.58259 Y100.55821Z-0.14176 ;segmented line. Max segment length set to 5
G01 X-13.04780 Y104.09449Z-0.14664 ;segmented line. Max segment length set to 5
G01 X-12.77061 Y104.37179Z-0.14702
G01 X-12.72913 Y104.44941Z-0.14712
G01 X-12.70579 Y104.57410Z-0.14729
G01 X-12.70579 Y109.57410Z-0.15424 ;segmented line. Max segment length set to 5
G01 X-12.70579 Y112.48353Z-0.15828
G01 X-12.51511 Y112.56842Z-0.15838
G01 X-12.32789 Y112.70177Z-0.15853
G01 X-12.16586 Y112.87924Z-0.15876
G01 X-12.04714 Y113.08818Z-0.15903
G01 X-11.98252 Y113.28699Z-0.15930
G01 X-11.95634 Y113.51536Z-0.15961
G04 P0 ( dwell for no time -- G64 should not smooth over this point )
G00 Z5.00000 ( retract )

G00 X-17.03578 Y118.60580 ( rapid move to begin. )
G01 F300.00000
G01 Z-0.16766
G04 P0 ( dwell for no time -- G64 should not smooth over this point )
G01 F600.00000
G01 X-17.03578 Y118.60580Z-0.16766
G01 X-17.06252 Y118.36699Z-0.16732
G01 X-17.13090 Y118.15840Z-0.16703
G01 X-17.24017 Y117.96803Z-0.16678
G01 X-17.39234 Y117.79574Z-0.16656
G01 X-17.59511 Y117.64842Z-0.16639
G01 X-17.80598 Y117.55693Z-0.16630
G01 X-18.03125 Y117.51129Z-0.16628
G01 X-18.25076 Y117.51184Z-0.16632
G01 X-18.46559 Y117.55693Z-0.16642
G01 X-18.69457 Y117.65888Z-0.16661
G01 X-18.87923 Y117.79574Z-0.16685
G01 X-19.01911 Y117.95111Z-0.16710
G01 X-19.14067 Y118.15840Z-0.16743
G01 X-19.17291 Y118.25581Z-0.16757
G01 X-24.17291 Y118.25581Z-0.16856 ;segmented line. Max segment length set to 5
G01 X-26.34549 Y118.25581Z-0.16898
G01 X-26.48829 Y118.28665Z-0.16906
G01 X-26.59298 Y118.35832Z-0.16919
G01 X-30.12851 Y121.89385Z-0.17448 ;segmented line. Max segment length set to 5
G01 X-33.66404 Y125.42938Z-0.16271 ;segmented line. Max segment length set to 5
G01 X-34.11047 Y125.87581Z-0.16115
G01 X-34.61578 Y125.87581Z-0.16003
G01 X-34.61771 Y125.40629Z-0.16061
G01 X-34.64509 Y125.35511Z-0.16062
G01 X-34.69627 Y125.32773Z-0.16054
G01 X-37.11580 Y125.32580Z-0.15515
G01 X-37.17135 Y125.34266Z-0.15500
G01 X-37.19893 Y125.37025Z-0.15491
G01 X-37.21580 Y125.42580Z-0.15480
G01 X-37.20818 Y127.06407Z-0.15284
G01 X-37.17135 Y127.10895Z-0.15287
G01 X-37.11580 Y127.12582Z-0.15297
G01 X-34.69627 Y127.12389Z-0.15827
G01 X-34.64509 Y127.09651Z-0.15842
G01 X-34.61771 Y127.04533Z-0.15854
G01 X-34.61578 Y126.57581Z-0.15914
G01 X-33.95568 Y126.57533Z-0.16060
G01 X-33.84080 Y126.55247Z-0.16088
G01 X-33.76315 Y126.51099Z-0.16110
G01 X-30.22587 Y122.97720Z-0.17305 ;segmented line. Max segment length set to 5
G01 X-26.68859 Y119.44342Z-0.17087 ;segmented line. Max segment length set to 5
G01 X-26.20050 Y118.95581Z-0.17003
G01 X-21.20050 Y118.95581Z-0.16901 ;segmented line. Max segment length set to 5
G01 X-19.17291 Y118.95581Z-0.16859
G01 X-19.14067 Y119.05322Z-0.16873
G01 X-19.02571 Y119.25238Z-0.16900
G01 X-18.87923 Y119.41588Z-0.16920
G01 X-18.69457 Y119.55273Z-0.16936
G01 X-18.46559 Y119.65469Z-0.16946
G01 X-18.25076 Y119.69977Z-0.16948
G01 X-18.03125 Y119.70033Z-0.16944
G01 X-17.80598 Y119.65469Z-0.16932
G01 X-17.59511 Y119.56320Z-0.16915
G01 X-17.39234 Y119.41588Z-0.16889
G01 X-17.24017 Y119.24359Z-0.16861
G01 X-17.13090 Y119.05322Z-0.16832
G01 X-17.06252 Y118.84463Z-0.16801
G01 X-17.03578 Y118.60580Z-0.16766
G04 P0 ( dwell for no time -- G64 should not smooth over this point )
G00 Z5.00000 ( retract )

G00 X-22.11578 Y113.52580 ( rapid move to begin. )
G01 F300.00000
G01 Z-0.16112
G04 P0 ( dwell for no time -- G64 should not smooth over this point )
G01 F600.00000
G01 X-22.11578 Y113.52580Z-0.16112
G01 X-22.13983 Y113.29709Z-0.16078
G01 X-22.20714 Y113.08818Z-0.16048
G01 X-22.32586 Y112.87924Z-0.16019
G01 X-22.47234 Y112.71574Z-0.15996
G01 X-22.67511 Y112.56842Z-0.15977
G01 X-22.87587 Y112.47965Z-0.15967
G01 X-23.11125 Y112.43129Z-0.15963
G01 X-23.32032 Y112.43129Z-0.15966
G01 X-23.54559 Y112.47693Z-0.15975
G01 X-23.77457 Y112.57888Z-0.15994
G01 X-23.95923 Y112.71574Z-0.16017
G01 X-24.09911 Y112.87111Z-0.16042
G01 X-24.22067 Y113.07840Z-0.16075
G01 X-24.25291 Y113.17581Z-0.16091
G01 X-29.25291 Y113.17581Z-0.16162 ;segmented line. Max segment length set to 5
G01 X-34.25291 Y113.17581Z-0.15312 ;segmented line. Max segment length set to 5
G01 X-35.50689 Y113.17581Z-0.15023
G01 X-35.64971 Y113.20665Z-0.14995
G01 X-35.75438 Y113.27832Z-0.14982
G01 X-39.28991 Y116.81386Z-0.14722 ;segmented line. Max segment length set to 5
G01 X-42.82544 Y120.34939Z-0.14463 ;segmented line. Max segment length set to 5
G01 X-46.36097 Y123.88492Z-0.13601 ;segmented line. Max segment length set to 5
G01 X-49.89146 Y127.41541Z-0.12469
G01 X-54.89146 Y127.41541Z-0.11549 ;segmented line. Max segment length set to 5
G01 X-57.18568 Y127.41541Z-0.11192
G01 X-57.31040 Y127.43875Z-0.11171
G01 X-57.38802 Y127.48025Z-0.11155
G01 X-59.06097 Y129.15317Z-0.10757
G01 X-59.10244 Y129.23082Z-0.10744
G01 X-59.12530 Y129.34570Z-0.10731
G01 X-59.12579 Y130.00580Z-0.10676
G01 X-59.59531 Y130.00773Z-0.10604
G01 X-59.63135 Y130.02266Z-0.10598
G01 X-59.66818 Y130.06755Z-0.10588
G01 X-59.66818 Y132.54407Z-0.10385
G01 X-59.63135 Y132.58895Z-0.10387
G01 X-59.57580 Y132.60582Z-0.10394
G01 X-57.97578 Y132.60582Z-0.10634
G01 X-57.92023 Y132.58895Z-0.10643
G01 X-57.89264 Y132.56137Z-0.10650
G01 X-57.87578 Y132.50582Z-0.10657
G01 X-57.87771 Y130.08629Z-0.10860
G01 X-57.90509 Y130.03511Z-0.10860
G01 X-57.95627 Y130.00773Z-0.10855
G01 X-58.42579 Y130.00580Z-0.10783
G01 X-58.42579 Y129.50049Z-0.10825
G01 X-57.04070 Y128.11540Z-0.11155
G01 X-52.04070 Y128.11540Z-0.11936 ;segmented line. Max segment length set to 5
G01 X-49.74648 Y128.11540Z-0.12434
G01 X-49.62179 Y128.09206Z-0.12464
G01 X-49.54414 Y128.05058Z-0.12484
G01 X-46.00767 Y124.51598Z-0.13616 ;segmented line. Max segment length set to 5
G01 X-42.47121 Y120.98138Z-0.14644 ;segmented line. Max segment length set to 5
G01 X-38.93475 Y117.44678Z-0.14904 ;segmented line. Max segment length set to 5
G01 X-35.39829 Y113.91218Z-0.15164 ;segmented line. Max segment length set to 5
G01 X-35.36190 Y113.87581Z-0.15166
G01 X-30.36190 Y113.87581Z-0.16288 ;segmented line. Max segment length set to 5
G01 X-25.36190 Y113.87581Z-0.16213 ;segmented line. Max segment length set to 5
G01 X-24.25291 Y113.87581Z-0.16196
G01 X-24.22067 Y113.97322Z-0.16210
G01 X-24.09911 Y114.18051Z-0.16240
G01 X-23.95923 Y114.33588Z-0.16261
G01 X-23.77457 Y114.47273Z-0.16279
G01 X-23.54559 Y114.57469Z-0.16291
G01 X-23.32032 Y114.62033Z-0.16294
G01 X-23.11125 Y114.62033Z-0.16290
G01 X-22.87587 Y114.57197Z-0.16279
G01 X-22.67511 Y114.48320Z-0.16263
G01 X-22.47234 Y114.33588Z-0.16238
G01 X-22.32017 Y114.16359Z-0.16210
G01 X-22.20714 Y113.96344Z-0.16178
G01 X-22.13983 Y113.75452Z-0.16146
G01 X-22.11578 Y113.52580Z-0.16112
G04 P0 ( dwell for no time -- G64 should not smooth over this point )
G00 Z5.00000 ( retract )

G00 X-14.98178 Y104.71314 ( rapid move to begin. )
G01 F300.00000
G01 Z-0.14761
G04 P0 ( dwell for no time -- G64 should not smooth over this point )
G01 F600.00000
G01 X-14.98178 Y104.71314Z-0.14761
G01 X-14.98178 Y105.71314Z-0.14903
G01 X-14.99872 Y105.87953Z-0.14926
G01 X-15.05526 Y106.05886Z-0.14952
G01 X-15.15072 Y106.22088Z-0.14976
G01 X-15.27116 Y106.35139Z-0.14995
G01 X-15.40680 Y106.44925Z-0.15010
G01 X-15.56913 Y106.52154Z-0.15021
G01 X-15.75338 Y106.55903Z-0.15028
G01 X-15.93098 Y106.55685Z-0.15029
G01 X-16.09445 Y106.52154Z-0.15025
G01 X-16.25678 Y106.44925Z-0.15016
G01 X-16.39242 Y106.35139Z-0.15003
G01 X-16.52516 Y106.20397Z-0.14983
G01 X-16.60829 Y106.05886Z-0.14963
G01 X-16.66486 Y105.87953Z-0.14938
G01 X-16.68178 Y105.71314Z-0.14914
G01 X-16.68124 Y104.70267Z-0.14769
G01 X-16.66486 Y104.54674Z-0.14747
G01 X-16.61205 Y104.37717Z-0.14722
G01 X-16.52516 Y104.22231Z-0.14700
G01 X-16.39242 Y104.07489Z-0.14678
G01 X-16.25678 Y103.97702Z-0.14664
G01 X-16.18178 Y103.94304Z-0.14658
G01 X-16.18178 Y103.35780Z-0.14575
G01 X-19.71731 Y99.82226Z-0.14073 ;segmented line. Max segment length set to 5
G01 X-23.25284 Y96.28673Z-0.13430 ;segmented line. Max segment length set to 5
G01 X-26.78837 Y92.75120Z-0.12864 ;segmented line. Max segment length set to 5
G01 X-30.32390 Y89.21567Z-0.12401 ;segmented line. Max segment length set to 5
G01 X-30.97707 Y88.56250Z-0.12188
G01 X-35.97707 Y88.56250Z-0.10978 ;segmented line. Max segment length set to 5
G01 X-40.97707 Y88.56250Z-0.09769 ;segmented line. Max segment length set to 5
G01 X-45.97707 Y88.56250Z-0.08559 ;segmented line. Max segment length set to 5
G01 X-50.97707 Y88.56250Z-0.07350 ;segmented line. Max segment length set to 5
G01 X-55.97707 Y88.56250Z-0.06177 ;segmented line. Max segment length set to 5
G01 X-60.97707 Y88.56250Z-0.05016 ;segmented line. Max segment length set to 5
G01 X-65.97707 Y88.56250Z-0.03855 ;segmented line. Max segment length set to 5
G01 X-67.92684 Y88.56250Z-0.03402
G01 X-68.04017 Y88.76359Z-0.03399
G01 X-68.20789 Y88.94985Z-0.03381
G01 X-68.39511 Y89.08320Z-0.03352
G01 X-68.58609 Y89.16821Z-0.03317
G01 X-68.83125 Y89.22033Z-0.03265
G01 X-69.05076 Y89.21977Z-0.03214
G01 X-69.26559 Y89.17469Z-0.03158
G01 X-69.47646 Y89.08320Z-0.03099
G01 X-69.67923 Y88.93588Z-0.03036
G01 X-69.82571 Y88.77238Z-0.02984
G01 X-69.89744 Y88.64921Z-0.02954
G01 X-74.89744 Y88.64921Z-0.02284 ;segmented line. Max segment length set to 5
G01 X-79.89744 Y88.64921Z-0.03428 ;segmented line. Max segment length set to 5
G01 X-83.88467 Y88.64921Z-0.04341
G01 X-83.92437 Y88.73298Z-0.04354
G01 X-84.01652 Y88.85983Z-0.04381
G01 X-84.14705 Y88.98028Z-0.04417
G01 X-84.30907 Y89.07573Z-0.04458
G01 X-84.46795 Y89.12793Z-0.04497
G01 X-84.65479 Y89.14921Z-0.04540
G01 X-85.65479 Y89.14921Z-0.04767
G01 X-85.84163 Y89.12793Z-0.04808
G01 X-86.00051 Y89.07573Z-0.04842
G01 X-86.16254 Y88.98028Z-0.04875
G01 X-86.29304 Y88.85983Z-0.04900
G01 X-86.38522 Y88.73298Z-0.04917
G01 X-86.45944 Y88.57164Z-0.04928
G01 X-86.49850 Y88.39839Z-0.04930
G01 X-86.50069 Y88.22082Z-0.04924
G01 X-86.46589 Y88.04665Z-0.04909
G01 X-86.38522 Y87.86542Z-0.04884
G01 X-86.28646 Y87.73045Z-0.04856
G01 X-86.16254 Y87.61813Z-0.04823
G01 X-85.99073 Y87.51894Z-0.04779
G01 X-85.82116 Y87.46616Z-0.04737
G01 X-85.65479 Y87.44922Z-0.04697
G01 X-84.65479 Y87.44922Z-0.04463
G01 X-84.46795 Y87.47050Z-0.04421
G01 X-84.30907 Y87.52270Z-0.04386
G01 X-84.14705 Y87.61813Z-0.04353
G01 X-84.01652 Y87.73857Z-0.04328
G01 X-83.91868 Y87.87421Z-0.04312
G01 X-83.88467 Y87.94922Z-0.04307
G01 X-78.88467 Y87.94922Z-0.03148 ;segmented line. Max segment length set to 5
G01 X-73.88467 Y87.94922Z-0.01989 ;segmented line. Max segment length set to 5
G01 X-70.01776 Y87.94922Z-0.02852
G01 X-69.93592 Y87.66908Z-0.02841
G01 X-69.81911 Y87.47111Z-0.02847
G01 X-69.67184 Y87.30835Z-0.02863
G01 X-69.49457 Y87.17888Z-0.02889
G01 X-69.28548 Y87.08341Z-0.02926
G01 X-69.04032 Y87.03129Z-0.02976
G01 X-68.82081 Y87.03184Z-0.03025
G01 X-68.60598 Y87.07693Z-0.03079
G01 X-68.37700 Y87.17888Z-0.03142
G01 X-68.19973 Y87.30835Z-0.03197
G01 X-68.05246 Y87.47111Z-0.03249
G01 X-67.93565 Y87.66908Z-0.03298
G01 X-67.87050 Y87.86250Z-0.03335
G01 X-62.87050 Y87.86373Z-0.04482 ;segmented line. Max segment length set to 5
G01 X-57.87050 Y87.86496Z-0.05628 ;segmented line. Max segment length set to 5
G01 X-52.87050 Y87.86619Z-0.06775 ;segmented line. Max segment length set to 5
G01 X-47.87050 Y87.86742Z-0.07979 ;segmented line. Max segment length set to 5
G01 X-42.87050 Y87.86865Z-0.09192 ;segmented line. Max segment length set to 5
G01 X-37.87050 Y87.86988Z-0.10406 ;segmented line. Max segment length set to 5
G01 X-32.87050 Y87.87110Z-0.11619 ;segmented line. Max segment length set to 5
G01 X-30.75429 Y87.87162Z-0.12133
G01 X-30.64606 Y87.91645Z-0.12166
G01 X-30.58459 Y87.96501Z-0.12188
G01 X-27.04906 Y91.50054Z-0.12656 ;segmented line. Max segment length set to 5
G01 X-23.51353 Y95.03607Z-0.13200 ;segmented line. Max segment length set to 5
G01 X-19.97800 Y98.57160Z-0.13848 ;segmented line. Max segment length set to 5
G01 X-16.44247 Y102.10713Z-0.14397 ;segmented line. Max segment length set to 5
G01 X-15.58429 Y102.96531Z-0.14517
G01 X-15.51261 Y103.06999Z-0.14531
G01 X-15.48706 Y103.15424Z-0.14543
G01 X-15.48180 Y103.94304Z-0.14655
G01 X-15.39801 Y103.98271Z-0.14660
G01 X-15.27116 Y104.07489Z-0.14673
G01 X-15.14411 Y104.21352Z-0.14692
G01 X-15.05526 Y104.36742Z-0.14713
G01 X-15.00307 Y104.52630Z-0.14735
G01 X-14.98178 Y104.71314Z-0.14761
G04 P0 ( dwell for no time -- G64 should not smooth over this point )
G00 Z5.00000 ( retract )

G00 X-17.52178 Y104.71314 ( rapid move to begin. )
G01 F300.00000
G01 Z-0.14776
G04 P0 ( dwell for no time -- G64 should not smooth over this point )
G01 F600.00000
G01 X-17.52178 Y104.71314Z-0.14776
G01 X-17.52178 Y105.71314Z-0.14920
G01 X-17.53872 Y105.87953Z-0.14944
G01 X-17.59526 Y106.05886Z-0.14970
G01 X-17.69072 Y106.22088Z-0.14994
G01 X-17.81116 Y106.35139Z-0.15014
G01 X-17.94680 Y106.44925Z-0.15029
G01 X-18.10913 Y106.52154Z-0.15040
G01 X-18.29338 Y106.55903Z-0.15047
G01 X-18.47098 Y106.55685Z-0.15048
G01 X-18.63445 Y106.52154Z-0.15044
G01 X-18.80557 Y106.44357Z-0.15034
G01 X-18.94055 Y106.34481Z-0.15021
G01 X-19.05945 Y106.21276Z-0.15002
G01 X-19.14354 Y106.06820Z-0.14982
G01 X-19.20486 Y105.87953Z-0.14955
G01 X-19.22178 Y105.71314Z-0.14931
G01 X-19.22124 Y104.70267Z-0.14784
G01 X-19.20486 Y104.54674Z-0.14761
G01 X-19.15205 Y104.37717Z-0.14736
G01 X-19.06516 Y104.22231Z-0.14713
G01 X-18.94055 Y104.08147Z-0.14692
G01 X-18.80557 Y103.98271Z-0.14677
G01 X-18.72180 Y103.94304Z-0.14671
G01 X-18.72180 Y103.35777Z-0.14586
G01 X-22.25733 Y99.82224Z-0.14074 ;segmented line. Max segment length set to 5
G01 X-25.79286 Y96.28671Z-0.13462 ;segmented line. Max segment length set to 5
G01 X-29.32839 Y92.75118Z-0.12933 ;segmented line. Max segment length set to 5
G01 X-30.97705 Y91.10252Z-0.12589
G01 X-35.97705 Y91.10252Z-0.11393 ;segmented line. Max segment length set to 5
G01 X-40.97705 Y91.10252Z-0.10196 ;segmented line. Max segment length set to 5
G01 X-45.97705 Y91.10252Z-0.09000 ;segmented line. Max segment length set to 5
G01 X-50.97705 Y91.10252Z-0.07803 ;segmented line. Max segment length set to 5
G01 X-55.97705 Y91.10252Z-0.06594 ;segmented line. Max segment length set to 5
G01 X-60.97705 Y91.10252Z-0.05380 ;segmented line. Max segment length set to 5
G01 X-65.97705 Y91.10252Z-0.04166 ;segmented line. Max segment length set to 5
G01 X-70.97705 Y91.10252Z-0.02953 ;segmented line. Max segment length set to 5
G01 X-75.54684 Y91.10252Z-0.02636
G01 X-75.67246 Y91.32051Z-0.02681
G01 X-75.81973 Y91.48327Z-0.02726
G01 X-75.99700 Y91.61273Z-0.02776
G01 X-76.22598 Y91.71469Z-0.02833
G01 X-76.44081 Y91.75977Z-0.02883
G01 X-76.66032 Y91.76033Z-0.02931
G01 X-76.88559 Y91.71469Z-0.02976
G01 X-77.11457 Y91.61273Z-0.03018
G01 X-77.29923 Y91.47588Z-0.03047
G01 X-77.44571 Y91.31238Z-0.03067
G01 X-77.51744 Y91.18921Z-0.03073
G01 X-82.51744 Y91.18921Z-0.04165 ;segmented line. Max segment length set to 5
G01 X-83.88467 Y91.18921Z-0.04464
G01 X-83.92437 Y91.27298Z-0.04476
G01 X-84.01652 Y91.39983Z-0.04502
G01 X-84.14705 Y91.52028Z-0.04536
G01 X-84.30907 Y91.61573Z-0.04576
G01 X-84.46795 Y91.66793Z-0.04613
G01 X-84.65479 Y91.68921Z-0.04654
G01 X-85.66523 Y91.68865Z-0.04873
G01 X-85.84163 Y91.66793Z-0.04910
G01 X-86.00051 Y91.61573Z-0.04942
G01 X-86.15441 Y91.52688Z-0.04972
G01 X-86.29304 Y91.39983Z-0.04998
G01 X-86.39566 Y91.25487Z-0.05014
G01 X-86.46320 Y91.10186Z-0.05023
G01 X-86.50069 Y90.91761Z-0.05025
G01 X-86.49850 Y90.74002Z-0.05018
G01 X-86.46320 Y90.57654Z-0.05004
G01 X-86.38522 Y90.40542Z-0.04980
G01 X-86.28646 Y90.27045Z-0.04953
G01 X-86.16254 Y90.15813Z-0.04921
G01 X-85.99073 Y90.05894Z-0.04879
G01 X-85.82116 Y90.00616Z-0.04839
G01 X-85.65479 Y89.98922Z-0.04801
G01 X-84.65479 Y89.98922Z-0.04578
G01 X-84.46795 Y90.01050Z-0.04537
G01 X-84.30907 Y90.06270Z-0.04504
G01 X-84.14705 Y90.15813Z-0.04472
G01 X-84.01652 Y90.27857Z-0.04449
G01 X-83.92437 Y90.40542Z-0.04435
G01 X-83.88469 Y90.48919Z-0.04430
G01 X-78.88469 Y90.48921Z-0.03323 ;segmented line. Max segment length set to 5
G01 X-77.63779 Y90.48922Z-0.03048
G01 X-77.55592 Y90.20908Z-0.03009
G01 X-77.44571 Y90.01924Z-0.02970
G01 X-77.29923 Y89.85574Z-0.02925
G01 X-77.09646 Y89.70842Z-0.02868
G01 X-76.88559 Y89.61693Z-0.02814
G01 X-76.66032 Y89.57129Z-0.02760
G01 X-76.44081 Y89.57184Z-0.02710
G01 X-76.22598 Y89.61693Z-0.02665
G01 X-75.99700 Y89.71888Z-0.02622
G01 X-75.81973 Y89.84835Z-0.02593
G01 X-75.67246 Y90.01111Z-0.02573
G01 X-75.55090 Y90.21840Z-0.02563
G01 X-75.49050 Y90.40253Z-0.02565
G01 X-70.49050 Y90.40355Z-0.02998 ;segmented line. Max segment length set to 5
G01 X-65.49050 Y90.40457Z-0.04198 ;segmented line. Max segment length set to 5
G01 X-60.49050 Y90.40558Z-0.05397 ;segmented line. Max segment length set to 5
G01 X-55.49050 Y90.40660Z-0.06596 ;segmented line. Max segment length set to 5
G01 X-50.49050 Y90.40761Z-0.07796 ;segmented line. Max segment length set to 5
G01 X-45.49050 Y90.40863Z-0.08996 ;segmented line. Max segment length set to 5
G01 X-40.49050 Y90.40964Z-0.10196 ;segmented line. Max segment length set to 5
G01 X-35.49050 Y90.41066Z-0.11396 ;segmented line. Max segment length set to 5
G01 X-30.75429 Y90.41162Z-0.12533
G01 X-30.64606 Y90.45645Z-0.12566
G01 X-30.58459 Y90.50501Z-0.12589
G01 X-27.04906 Y94.04054Z-0.13092 ;segmented line. Max segment length set to 5
G01 X-23.51353 Y97.57607Z-0.13674 ;segmented line. Max segment length set to 5
G01 X-19.97800 Y101.11160Z-0.14262 ;segmented line. Max segment length set to 5
G01 X-18.12429 Y102.96531Z-0.14526
G01 X-18.05261 Y103.06999Z-0.14541
G01 X-18.02706 Y103.15424Z-0.14553
G01 X-18.02180 Y103.94304Z-0.14667
G01 X-17.93801 Y103.98271Z-0.14672
G01 X-17.81116 Y104.07489Z-0.14685
G01 X-17.68411 Y104.21352Z-0.14704
G01 X-17.59526 Y104.36742Z-0.14726
G01 X-17.54307 Y104.52630Z-0.14749
G01 X-17.52178 Y104.71314Z-0.14776
G04 P0 ( dwell for no time -- G64 should not smooth over this point )
G00 Z5.00000 ( retract )

G00 X-20.06178 Y104.71314 ( rapid move to begin. )
G01 F300.00000
G01 Z-0.14790
G04 P0 ( dwell for no time -- G64 should not smooth over this point )
G01 F600.00000
G01 X-20.06178 Y104.71314Z-0.14790
G01 X-20.06178 Y105.71314Z-0.14936
G01 X-20.07872 Y105.87953Z-0.14961
G01 X-20.13526 Y106.05886Z-0.14988
G01 X-20.23072 Y106.22088Z-0.15012
G01 X-20.34303 Y106.34481Z-0.15031
G01 X-20.49612 Y106.45400Z-0.15048
G01 X-20.64913 Y106.52154Z-0.15059
G01 X-20.83338 Y106.55903Z-0.15066
G01 X-21.01098 Y106.55685Z-0.15067
G01 X-21.17445 Y106.52154Z-0.15063
G01 X-21.33678 Y106.44925Z-0.15054
G01 X-21.47242 Y106.35139Z-0.15040
G01 X-21.59945 Y106.21276Z-0.15021
G01 X-21.68829 Y106.05886Z-0.14998
G01 X-21.74049 Y105.89998Z-0.14975
G01 X-21.76124 Y105.72360Z-0.14949
G01 X-21.76178 Y104.71314Z-0.14799
G01 X-21.74486 Y104.54674Z-0.14775
G01 X-21.68829 Y104.36742Z-0.14748
G01 X-21.59287 Y104.20539Z-0.14723
G01 X-21.48794 Y104.08886Z-0.14705
G01 X-21.34557 Y103.98271Z-0.14689
G01 X-21.17445 Y103.90473Z-0.14677
G01 X-20.99018 Y103.86724Z-0.14670
G01 X-20.81260 Y103.86943Z-0.14670
G01 X-20.64913 Y103.90473Z-0.14674
G01 X-20.49612 Y103.97227Z-0.14683
G01 X-20.35116 Y104.07489Z-0.14698
G01 X-20.21842 Y104.22231Z-0.14719
G01 X-20.13526 Y104.36742Z-0.14740
G01 X-20.08307 Y104.52630Z-0.14763
G01 X-20.06178 Y104.71314Z-0.14790
G04 P0 ( dwell for no time -- G64 should not smooth over this point )
G00 Z5.00000 ( retract )

G00 X-22.60178 Y104.71314 ( rapid move to begin. )
G01 F300.00000
G01 Z-0.14804
G04 P0 ( dwell for no time -- G64 should not smooth over this point )
G01 F600.00000
G01 X-22.60178 Y104.71314Z-0.14804
G01 X-22.60178 Y105.71314Z-0.14953
G01 X-22.61872 Y105.87953Z-0.14978
G01 X-22.67526 Y106.05886Z-0.15005
G01 X-22.77072 Y106.22088Z-0.15030
G01 X-22.88303 Y106.34481Z-0.15050
G01 X-23.03612 Y106.45400Z-0.15067
G01 X-23.18913 Y106.52154Z-0.15078
G01 X-23.37338 Y106.55903Z-0.15085
G01 X-23.55098 Y106.55685Z-0.15086
G01 X-23.71445 Y106.52154Z-0.15082
G01 X-23.87678 Y106.44925Z-0.15072
G01 X-24.01242 Y106.35139Z-0.15059
G01 X-24.13945 Y106.21276Z-0.15039
G01 X-24.22829 Y106.05886Z-0.15016
G01 X-24.28049 Y105.89998Z-0.14993
G01 X-24.30124 Y105.72360Z-0.14966
G01 X-24.30178 Y104.71314Z-0.14814
G01 X-24.28486 Y104.54674Z-0.14788
G01 X-24.22829 Y104.36742Z-0.14761
G01 X-24.13287 Y104.20539Z-0.14736
G01 X-24.02794 Y104.08886Z-0.14718
G01 X-23.88557 Y103.98271Z-0.14701
G01 X-23.71445 Y103.90473Z-0.14689
G01 X-23.53018 Y103.86724Z-0.14682
G01 X-23.35260 Y103.86943Z-0.14682
G01 X-23.18913 Y103.90473Z-0.14686
G01 X-23.03612 Y103.97227Z-0.14696
G01 X-22.89116 Y104.07489Z-0.14710
G01 X-22.75842 Y104.22231Z-0.14732
G01 X-22.67526 Y104.36742Z-0.14753
G01 X-22.62307 Y104.52630Z-0.14776
G01 X-22.60178 Y104.71314Z-0.14804
G04 P0 ( dwell for no time -- G64 should not smooth over this point )
G00 Z5.00000 ( retract )

G00 X-25.14178 Y104.71314 ( rapid move to begin. )
G01 F300.00000
G01 Z-0.14818
G04 P0 ( dwell for no time -- G64 should not smooth over this point )
G01 F600.00000
G01 X-25.14178 Y104.71314Z-0.14818
G01 X-25.14178 Y105.71314Z-0.14970
G01 X-25.15872 Y105.87953Z-0.14995
G01 X-25.21526 Y106.05886Z-0.15023
G01 X-25.31072 Y106.22088Z-0.15048
G01 X-25.43116 Y106.35139Z-0.15069
G01 X-25.56680 Y106.44925Z-0.15085
G01 X-25.72913 Y106.52154Z-0.15097
G01 X-25.91338 Y106.55903Z-0.15104
G01 X-26.09098 Y106.55685Z-0.15105
G01 X-26.25445 Y106.52154Z-0.15101
G01 X-26.41678 Y106.44925Z-0.15091
G01 X-26.55242 Y106.35139Z-0.15077
G01 X-26.67945 Y106.21276Z-0.15057
G01 X-26.76829 Y106.05886Z-0.15034
G01 X-26.82049 Y105.89998Z-0.15010
G01 X-26.84124 Y105.72360Z-0.14983
G01 X-26.84178 Y104.71314Z-0.14828
G01 X-26.82486 Y104.54674Z-0.14802
G01 X-26.76829 Y104.36742Z-0.14774
G01 X-26.67287 Y104.20539Z-0.14749
G01 X-26.56794 Y104.08886Z-0.14730
G01 X-26.42557 Y103.98271Z-0.14713
G01 X-26.25445 Y103.90473Z-0.14701
G01 X-26.07018 Y103.86724Z-0.14694
G01 X-25.89260 Y103.86943Z-0.14694
G01 X-25.72913 Y103.90473Z-0.14698
G01 X-25.56680 Y103.97702Z-0.14708
G01 X-25.43116 Y104.07489Z-0.14723
G01 X-25.29842 Y104.22231Z-0.14744
G01 X-25.21526 Y104.36742Z-0.14766
G01 X-25.16307 Y104.52630Z-0.14790
G01 X-25.14178 Y104.71314Z-0.14818
G04 P0 ( dwell for no time -- G64 should not smooth over this point )
G00 Z5.00000 ( retract )

G00 X-26.07579 Y99.97581 ( rapid move to begin. )
G01 F300.00000
G01 Z-0.14099
G04 P0 ( dwell for no time -- G64 should not smooth over this point )
G01 F600.00000
G01 X-26.07579 Y99.97581Z-0.14099
G01 X-26.07579 Y101.67581Z-0.14359
G01 X-26.09263 Y101.73136Z-0.14368
G01 X-26.12024 Y101.75897Z-0.14372
G01 X-26.17579 Y101.77581Z-0.14375
G01 X-26.67579 Y101.77581Z-0.14376
G01 X-26.68107 Y102.48470Z-0.14485
G01 X-26.70662 Y102.56892Z-0.14498
G01 X-26.77170 Y102.66633Z-0.14513
G01 X-27.62646 Y103.50887Z-0.14646
G01 X-27.73469 Y103.55371Z-0.14654
G01 X-27.80268 Y103.56232Z-0.14655
G01 X-28.18178 Y103.56280Z-0.14657
G01 X-28.18178 Y103.94304Z-0.14716
G01 X-28.09801 Y103.98271Z-0.14722
G01 X-27.97116 Y104.07489Z-0.14735
G01 X-27.85072 Y104.20539Z-0.14755
G01 X-27.75526 Y104.36742Z-0.14779
G01 X-27.69872 Y104.54674Z-0.14807
G01 X-27.68178 Y104.71314Z-0.14832
G01 X-27.68178 Y105.71314Z-0.14987
G01 X-27.70307 Y105.89998Z-0.15016
G01 X-27.75526 Y106.05886Z-0.15041
G01 X-27.83842 Y106.20397Z-0.15064
G01 X-27.96303 Y106.34481Z-0.15087
G01 X-28.09801 Y106.44357Z-0.15103
G01 X-28.25935 Y106.51778Z-0.15116
G01 X-28.45338 Y106.55903Z-0.15123
G01 X-28.62064 Y106.55847Z-0.15125
G01 X-28.80423 Y106.51778Z-0.15120
G01 X-28.96557 Y106.44357Z-0.15109
G01 X-29.10794 Y106.33742Z-0.15094
G01 X-29.21287 Y106.22088Z-0.15076
G01 X-29.30829 Y106.05886Z-0.15052
G01 X-29.36049 Y105.89998Z-0.15027
G01 X-29.38178 Y105.71314Z-0.14998
G01 X-29.38178 Y104.71314Z-0.14842
G01 X-29.36486 Y104.54674Z-0.14816
G01 X-29.31205 Y104.37717Z-0.14789
G01 X-29.21945 Y104.21352Z-0.14763
G01 X-29.10794 Y104.08886Z-0.14743
G01 X-28.96557 Y103.98271Z-0.14726
G01 X-28.88180 Y103.94304Z-0.14719
G01 X-28.87649 Y103.15424Z-0.14596
G01 X-28.85094 Y103.06999Z-0.14583
G01 X-28.78587 Y102.97260Z-0.14568
G01 X-28.67459 Y102.89364Z-0.14555
G01 X-28.59036 Y102.86808Z-0.14551
G01 X-27.95747 Y102.86280Z-0.14548
G01 X-27.37579 Y102.28114Z-0.14456
G01 X-27.37579 Y101.77581Z-0.14378
G01 X-27.89529 Y101.77388Z-0.14379
G01 X-27.94650 Y101.74652Z-0.14375
G01 X-27.97385 Y101.69531Z-0.14367
G01 X-27.96817 Y99.93753Z-0.14095
G01 X-27.93134 Y99.89265Z-0.14088
G01 X-27.87579 Y99.87581Z-0.14085
G01 X-26.17579 Y99.87581Z-0.14084
G01 X-26.10508 Y99.90510Z-0.14089
G01 X-26.07579 Y99.97581Z-0.14099
G04 P0 ( dwell for no time -- G64 should not smooth over this point )
G00 Z5.00000 ( retract )

G00 X-32.76178 Y104.71314 ( rapid move to begin. )
G01 F300.00000
G01 Z-0.14324
G04 P0 ( dwell for no time -- G64 should not smooth over this point )
G01 F600.00000
G01 X-32.76178 Y104.71314Z-0.14324
G01 X-32.76178 Y105.71314Z-0.14481
G01 X-32.78307 Y105.89998Z-0.14506
G01 X-32.83526 Y106.05886Z-0.14519
G01 X-32.93072 Y106.22088Z-0.14522
G01 X-33.05116 Y106.35139Z-0.14515
G01 X-33.17801 Y106.44357Z-0.14500
G01 X-33.26178 Y106.48327Z-0.14487
G01 X-33.27090 Y107.29121Z-0.14612
G01 X-33.31573 Y107.39944Z-0.14619
G01 X-33.37158 Y107.46749Z-0.14617
G01 X-33.46897 Y107.53256Z-0.14605
G01 X-33.55322 Y107.55812Z-0.14589
G01 X-38.55322 Y107.55985Z-0.13436 ;segmented line. Max segment length set to 5
G01 X-43.55322 Y107.56157Z-0.12282 ;segmented line. Max segment length set to 5
G01 X-48.55322 Y107.56330Z-0.11129 ;segmented line. Max segment length set to 5
G01 X-48.84460 Y107.56340Z-0.11062
G01 X-52.38013 Y111.09893Z-0.10806 ;segmented line. Max segment length set to 5
G01 X-55.91566 Y114.63446Z-0.10668 ;segmented line. Max segment length set to 5
G01 X-58.42579 Y117.14459Z-0.10649
G01 X-58.42579 Y122.14459Z-0.11439 ;segmented line. Max segment length set to 5
G01 X-58.42579 Y122.46126Z-0.11413
G01 X-58.32579 Y122.50640Z-0.11425
G01 X-58.17357 Y122.61699Z-0.11440
G01 X-58.04197 Y122.76558Z-0.11449
G01 X-57.94984 Y122.92951Z-0.11450
G01 X-57.89546 Y123.09870Z-0.11444
G01 X-57.87634 Y123.27536Z-0.11433
G01 X-57.87634 Y124.09626Z-0.11364
G01 X-57.89546 Y124.27292Z-0.11346
G01 X-57.95835 Y124.46121Z-0.11320
G01 X-58.04768 Y124.61483Z-0.11293
G01 X-58.18169 Y124.76123Z-0.11259
G01 X-58.33511 Y124.87000Z-0.11226
G01 X-58.48789 Y124.93802Z-0.11196
G01 X-58.68172 Y124.98087Z-0.11162
G01 X-58.85942 Y124.98143Z-0.11134
G01 X-59.06368 Y124.93802Z-0.11105
G01 X-59.23457 Y124.85953Z-0.11085
G01 X-59.36988 Y124.76123Z-0.11071
G01 X-59.49731 Y124.62295Z-0.11063
G01 X-59.59322 Y124.46121Z-0.11061
G01 X-59.65611 Y124.27292Z-0.11066
G01 X-59.67524 Y124.09626Z-0.11078
G01 X-59.67524 Y123.27536Z-0.11145
G01 X-59.65342 Y123.08857Z-0.11164
G01 X-59.60173 Y122.92951Z-0.11185
G01 X-59.50961 Y122.76558Z-0.11214
G01 X-59.36988 Y122.61039Z-0.11249
G01 X-59.22579 Y122.50640Z-0.11281
G01 X-59.12579 Y122.46126Z-0.11300
G01 X-59.12100 Y117.46126Z-0.10583 ;segmented line. Max segment length set to 5
G01 X-59.12050 Y116.94103Z-0.10482
G01 X-59.09495 Y116.85680Z-0.10470
G01 X-59.02988 Y116.75939Z-0.10464
G01 X-58.34806 Y116.07692Z-0.10461
G01 X-61.88349 Y112.54128Z-0.09055 ;segmented line. Max segment length set to 5
G01 X-65.41892 Y109.00564Z-0.07519 ;segmented line. Max segment length set to 5
G01 X-68.95435 Y105.47001Z-0.05853 ;segmented line. Max segment length set to 5
G01 X-71.72988 Y102.69432Z-0.04454
G01 X-71.79495 Y102.59691Z-0.04412
G01 X-71.82530 Y102.46392Z-0.04369
G01 X-71.82579 Y101.17581Z-0.04035
G01 X-75.51867 Y101.17581Z-0.03782
G01 X-75.55090 Y101.27322Z-0.03812
G01 X-75.66017 Y101.46359Z-0.03878
G01 X-75.81234 Y101.63588Z-0.03947
G01 X-75.99700 Y101.77273Z-0.04011
G01 X-76.20609 Y101.86821Z-0.04068
G01 X-76.43048 Y101.91815Z-0.04117
G01 X-76.66032 Y101.92033Z-0.04154
G01 X-76.89611 Y101.87184Z-0.04180
G01 X-77.04135 Y101.80634Z-0.04188
G01 X-77.98211 Y102.74710Z-0.04557
G01 X-78.08678 Y102.81878Z-0.04590
G01 X-78.17101 Y102.84433Z-0.04608
G01 X-83.17101 Y102.84783Z-0.05367 ;segmented line. Max segment length set to 5
G01 X-85.72578 Y102.84962Z-0.05755
G01 X-85.72578 Y107.84962Z-0.06549 ;segmented line. Max segment length set to 5
G01 X-85.72578 Y112.84962Z-0.07343 ;segmented line. Max segment length set to 5
G01 X-85.72578 Y113.79082Z-0.07492
G01 X-84.17080 Y113.79082Z-0.07415
G01 X-84.11522 Y113.80766Z-0.07415
G01 X-84.07839 Y113.85254Z-0.07421
G01 X-84.07270 Y117.72033Z-0.08095
G01 X-84.11522 Y117.78395Z-0.08106
G01 X-84.17080 Y117.80082Z-0.08110
G01 X-88.01905 Y117.79320Z-0.08155
G01 X-88.06393 Y117.75637Z-0.08151
G01 X-88.08080 Y117.70082Z-0.08143
G01 X-88.07318 Y113.85254Z-0.07617
G01 X-88.03635 Y113.80766Z-0.07609
G01 X-87.98080 Y113.79082Z-0.07604
G01 X-86.42578 Y113.79082Z-0.07527
G01 X-86.42578 Y108.79082Z-0.06766 ;segmented line. Max segment length set to 5
G01 X-86.42578 Y103.79082Z-0.06005 ;segmented line. Max segment length set to 5
G01 X-86.42578 Y102.83961Z-0.05860
G01 X-86.53112 Y102.79567Z-0.05869
G01 X-86.59258 Y102.74710Z-0.05871
G01 X-87.40257 Y101.93710Z-0.05879
G01 X-87.48176 Y101.81431Z-0.05874
G01 X-87.50508 Y101.68960Z-0.05860
G01 X-87.50508 Y96.68960Z-0.05437 ;segmented line. Max segment length set to 5
G01 X-87.50508 Y91.68960Z-0.05271 ;segmented line. Max segment length set to 5
G01 X-87.50508 Y86.68960Z-0.05105 ;segmented line. Max segment length set to 5
G01 X-87.50508 Y83.21920Z-0.04990
G01 X-87.48176 Y83.09451Z-0.04980
G01 X-87.39530 Y82.96513Z-0.04953
G01 X-87.34112 Y82.92314Z-0.04938
G01 X-87.23289 Y82.87831Z-0.04909
G01 X-86.42489 Y82.86922Z-0.04705
G01 X-86.38522 Y82.78542Z-0.04692
G01 X-86.29304 Y82.65857Z-0.04663
G01 X-86.16254 Y82.53813Z-0.04626
G01 X-86.00051 Y82.44270Z-0.04581
G01 X-85.84163 Y82.39050Z-0.04538
G01 X-85.65479 Y82.36922Z-0.04490
G01 X-84.65479 Y82.36922Z-0.04235
G01 X-84.46795 Y82.39050Z-0.04188
G01 X-84.30907 Y82.44270Z-0.04150
G01 X-84.15518 Y82.53155Z-0.04115
G01 X-84.03051 Y82.64305Z-0.04089
G01 X-83.91868 Y82.79421Z-0.04067
G01 X-83.85015 Y82.94676Z-0.04057
G01 X-83.80890 Y83.14082Z-0.04056
G01 X-83.80890 Y83.29761Z-0.04064
G01 X-83.84367 Y83.47175Z-0.04081
G01 X-83.91393 Y83.63487Z-0.04107
G01 X-84.01652 Y83.77983Z-0.04139
G01 X-84.14705 Y83.90028Z-0.04177
G01 X-84.29973 Y83.99098Z-0.04220
G01 X-84.48840 Y84.05227Z-0.04269
G01 X-84.65479 Y84.06921Z-0.04311
G01 X-85.65479 Y84.06921Z-0.04559
G01 X-85.82116 Y84.05227Z-0.04600
G01 X-86.00051 Y83.99573Z-0.04642
G01 X-86.16254 Y83.90028Z-0.04678
G01 X-86.29304 Y83.77983Z-0.04706
G01 X-86.38522 Y83.65298Z-0.04724
G01 X-86.42489 Y83.56921Z-0.04731
G01 X-86.80508 Y83.56921Z-0.04826
G01 X-86.80508 Y88.56921Z-0.05007 ;segmented line. Max segment length set to 5
G01 X-86.80508 Y93.56921Z-0.05187 ;segmented line. Max segment length set to 5
G01 X-86.80508 Y98.56921Z-0.05368 ;segmented line. Max segment length set to 5
G01 X-86.80508 Y101.54464Z-0.05725
G01 X-86.20013 Y102.14959Z-0.05719
G01 X-81.20013 Y102.14959Z-0.04928 ;segmented line. Max segment length set to 5
G01 X-78.37457 Y102.14959Z-0.04481
G01 X-77.53820 Y101.31325Z-0.04152
G01 X-77.63339 Y101.04419Z-0.04105
G01 X-77.65524 Y100.81536Z-0.04055
G01 X-77.62905 Y100.58699Z-0.03997
G01 X-77.55592 Y100.36908Z-0.03933
G01 X-77.44571 Y100.17924Z-0.03869
G01 X-77.28369 Y100.00177Z-0.03798
G01 X-77.09646 Y99.86842Z-0.03733
G01 X-76.89570 Y99.77965Z-0.03676
G01 X-76.66032 Y99.73129Z-0.03621
G01 X-76.43048 Y99.73347Z-0.03580
G01 X-76.20609 Y99.78341Z-0.03552
G01 X-75.99700 Y99.87888Z-0.03538
G01 X-75.81234 Y100.01574Z-0.03539
G01 X-75.66017 Y100.18803Z-0.03556
G01 X-75.55090 Y100.37840Z-0.03585
G01 X-75.51867 Y100.47581Z-0.03604
G01 X-71.62076 Y100.47581Z-0.03909
G01 X-69.91820 Y98.77325Z-0.04024
G01 X-70.01339 Y98.50419Z-0.03970
G01 X-70.03580 Y98.28580Z-0.03941
G01 X-70.01339 Y98.06743Z-0.03924
G01 X-69.93592 Y97.82908Z-0.03919
G01 X-69.82571 Y97.63924Z-0.03929
G01 X-69.67923 Y97.47574Z-0.03951
G01 X-69.47646 Y97.32842Z-0.03990
G01 X-69.26559 Y97.23693Z-0.04036
G01 X-69.05076 Y97.19184Z-0.04089
G01 X-68.81048 Y97.19347Z-0.04154
G01 X-68.60598 Y97.23693Z-0.04213
G01 X-68.39511 Y97.32842Z-0.04280
G01 X-68.20789 Y97.46177Z-0.04346
G01 X-68.04586 Y97.63924Z-0.04409
G01 X-67.93565 Y97.82908Z-0.04461
G01 X-67.86252 Y98.04699Z-0.04506
G01 X-67.83578 Y98.28580Z-0.04540
G01 X-67.85818 Y98.50419Z-0.04559
G01 X-67.93565 Y98.74254Z-0.04565
G01 X-68.04586 Y98.93238Z-0.04557
G01 X-68.19973 Y99.10327Z-0.04534
G01 X-68.37700 Y99.23273Z-0.04499
G01 X-68.58609 Y99.32821Z-0.04453
G01 X-68.82081 Y99.37977Z-0.04400
G01 X-69.05076 Y99.37977Z-0.04337
G01 X-69.27611 Y99.33184Z-0.04263
G01 X-69.42132 Y99.26634Z-0.04214
G01 X-71.12579 Y100.97078Z-0.04170
G01 X-71.12579 Y102.30913Z-0.04512
G01 X-67.59027 Y105.84468Z-0.06276 ;segmented line. Max segment length set to 5
G01 X-64.05475 Y109.38023Z-0.07910 ;segmented line. Max segment length set to 5
G01 X-60.51923 Y112.91578Z-0.09414 ;segmented line. Max segment length set to 5
G01 X-57.85309 Y115.58193Z-0.10463
G01 X-54.31756 Y112.04640Z-0.10547 ;segmented line. Max segment length set to 5
G01 X-50.78203 Y108.51087Z-0.10764 ;segmented line. Max segment length set to 5
G01 X-49.23708 Y106.96592Z-0.10877
G01 X-49.11427 Y106.88674Z-0.10893
G01 X-48.98959 Y106.86340Z-0.10918
G01 X-43.98959 Y106.86340Z-0.12072 ;segmented line. Max segment length set to 5
G01 X-38.98959 Y106.86340Z-0.13226 ;segmented line. Max segment length set to 5
G01 X-33.98959 Y106.86340Z-0.14379 ;segmented line. Max segment length set to 5
G01 X-33.96178 Y106.86340Z-0.14386
G01 X-33.96178 Y106.48327Z-0.14326
G01 X-34.04557 Y106.44357Z-0.14300
G01 X-34.17242 Y106.35139Z-0.14256
G01 X-34.30516 Y106.20397Z-0.14203
G01 X-34.38829 Y106.05886Z-0.14160
G01 X-34.44049 Y105.89998Z-0.14123
G01 X-34.46178 Y105.71314Z-0.14089
G01 X-34.46178 Y104.71314Z-0.13932
G01 X-34.44321 Y104.53641Z-0.13908
G01 X-34.38829 Y104.36742Z-0.13894
G01 X-34.29287 Y104.20539Z-0.13891
G01 X-34.17242 Y104.07489Z-0.13898
G01 X-34.04557 Y103.98271Z-0.13913
G01 X-33.96178 Y103.94304Z-0.13926
G01 X-33.96178 Y103.54614Z-0.13863
G01 X-34.04512 Y103.50887Z-0.13838
G01 X-34.10658 Y103.46028Z-0.13816
G01 X-34.94184 Y102.61215Z-0.13490
G01 X-34.97244 Y102.55081Z-0.13473
G01 X-34.99530 Y102.43590Z-0.13450
G01 X-34.99579 Y101.77581Z-0.13346
G01 X-35.51529 Y101.77388Z-0.13226
G01 X-35.55134 Y101.75897Z-0.13215
G01 X-35.58817 Y101.71409Z-0.13200
G01 X-35.59579 Y99.97581Z-0.12924
G01 X-35.57895 Y99.92026Z-0.12920
G01 X-35.53406 Y99.88343Z-0.12924
G01 X-33.79579 Y99.87581Z-0.13324
G01 X-33.74024 Y99.89265Z-0.13339
G01 X-33.71263 Y99.92026Z-0.13350
G01 X-33.69579 Y99.97581Z-0.13363
G01 X-33.69772 Y101.69531Z-0.13633
G01 X-33.72508 Y101.74652Z-0.13635
G01 X-33.77628 Y101.77388Z-0.13627
G01 X-34.29579 Y101.77581Z-0.13508
G01 X-34.29579 Y102.28114Z-0.13587
G01 X-33.71410 Y102.86280Z-0.13813
G01 X-33.55322 Y102.86808Z-0.13851
G01 X-33.48708 Y102.88614Z-0.13869
G01 X-33.40945 Y102.92765Z-0.13893
G01 X-33.31573 Y103.02678Z-0.13931
G01 X-33.28512 Y103.08810Z-0.13947
G01 X-33.26226 Y103.20301Z-0.13971
G01 X-33.26178 Y103.94304Z-0.14087
G01 X-33.17801 Y103.98271Z-0.14113
G01 X-33.05116 Y104.07489Z-0.14157
G01 X-32.92411 Y104.21352Z-0.14208
G01 X-32.83526 Y104.36742Z-0.14253
G01 X-32.78307 Y104.52630Z-0.14290
G01 X-32.76178 Y104.71314Z-0.14324
G04 P0 ( dwell for no time -- G64 should not smooth over this point )
G00 Z5.00000 ( retract )

G00 X-35.30178 Y104.71314 ( rapid move to begin. )
G01 F300.00000
G01 Z-0.13738
G04 P0 ( dwell for no time -- G64 should not smooth over this point )
G01 F600.00000
G01 X-35.30178 Y104.71314Z-0.13738
G01 X-35.30178 Y105.71314Z-0.13895
G01 X-35.31872 Y105.87953Z-0.13918
G01 X-35.37526 Y106.05886Z-0.13933
G01 X-35.47072 Y106.22088Z-0.13936
G01 X-35.58303 Y106.34481Z-0.13930
G01 X-35.73612 Y106.45400Z-0.13912
G01 X-35.88913 Y106.52154Z-0.13887
G01 X-36.06294 Y106.55847Z-0.13853
G01 X-36.24064 Y106.55847Z-0.13812
G01 X-36.41445 Y106.52154Z-0.13766
G01 X-36.56746 Y106.45400Z-0.13720
G01 X-36.71242 Y106.35139Z-0.13670
G01 X-36.83945 Y106.21276Z-0.13619
G01 X-36.92829 Y106.05886Z-0.13574
G01 X-36.98321 Y105.88987Z-0.13535
G01 X-37.00124 Y105.72360Z-0.13505
G01 X-37.00178 Y104.71314Z-0.13346
G01 X-36.98486 Y104.54674Z-0.13323
G01 X-36.92829 Y104.36742Z-0.13308
G01 X-36.83287 Y104.20539Z-0.13305
G01 X-36.72794 Y104.08886Z-0.13311
G01 X-36.58557 Y103.98271Z-0.13327
G01 X-36.41445 Y103.90473Z-0.13354
G01 X-36.23018 Y103.86724Z-0.13391
G01 X-36.06294 Y103.86780Z-0.13429
G01 X-35.88913 Y103.90473Z-0.13475
G01 X-35.71801 Y103.98271Z-0.13527
G01 X-35.57562 Y104.08886Z-0.13576
G01 X-35.46411 Y104.21352Z-0.13622
G01 X-35.37526 Y104.36742Z-0.13667
G01 X-35.32307 Y104.52630Z-0.13704
G01 X-35.30178 Y104.71314Z-0.13738
G04 P0 ( dwell for no time -- G64 should not smooth over this point )
G00 Z5.00000 ( retract )

G00 X-37.84178 Y104.71314 ( rapid move to begin. )
G01 F300.00000
G01 Z-0.13152
G04 P0 ( dwell for no time -- G64 should not smooth over this point )
G01 F600.00000
G01 X-37.84178 Y104.71314Z-0.13152
G01 X-37.84178 Y105.71314Z-0.13309
G01 X-37.85872 Y105.87953Z-0.13332
G01 X-37.91526 Y106.05886Z-0.13347
G01 X-38.01072 Y106.22088Z-0.13350
G01 X-38.13116 Y106.35139Z-0.13343
G01 X-38.27612 Y106.45400Z-0.13326
G01 X-38.42913 Y106.52154Z-0.13301
G01 X-38.60294 Y106.55847Z-0.13267
G01 X-38.78064 Y106.55847Z-0.13226
G01 X-38.95445 Y106.52154Z-0.13180
G01 X-39.10746 Y106.45400Z-0.13134
G01 X-39.25242 Y106.35139Z-0.13084
G01 X-39.37945 Y106.21276Z-0.13033
G01 X-39.46829 Y106.05886Z-0.12988
G01 X-39.52321 Y105.88987Z-0.12949
G01 X-39.54124 Y105.72360Z-0.12919
G01 X-39.54178 Y104.71314Z-0.12760
G01 X-39.52486 Y104.54674Z-0.12737
G01 X-39.46829 Y104.36742Z-0.12722
G01 X-39.37287 Y104.20539Z-0.12719
G01 X-39.26055 Y104.08147Z-0.12725
G01 X-39.12557 Y103.98271Z-0.12741
G01 X-38.95445 Y103.90473Z-0.12768
G01 X-38.77018 Y103.86724Z-0.12804
G01 X-38.60294 Y103.86780Z-0.12843
G01 X-38.42913 Y103.90473Z-0.12889
G01 X-38.25801 Y103.98271Z-0.12941
G01 X-38.11562 Y104.08886Z-0.12990
G01 X-38.00411 Y104.21352Z-0.13036
G01 X-37.91526 Y104.36742Z-0.13080
G01 X-37.86307 Y104.52630Z-0.13118
G01 X-37.84178 Y104.71314Z-0.13152
G04 P0 ( dwell for no time -- G64 should not smooth over this point )
G00 Z5.00000 ( retract )

G00 X-40.38178 Y104.71314 ( rapid move to begin. )
G01 F300.00000
G01 Z-0.12566
G04 P0 ( dwell for no time -- G64 should not smooth over this point )
G01 F600.00000
G01 X-40.38178 Y104.71314Z-0.12566
G01 X-40.38178 Y105.71314Z-0.12723
G01 X-40.39872 Y105.87953Z-0.12745
G01 X-40.45526 Y106.05886Z-0.12761
G01 X-40.55072 Y106.22088Z-0.12764
G01 X-40.66303 Y106.34481Z-0.12758
G01 X-40.81612 Y106.45400Z-0.12740
G01 X-40.96913 Y106.52154Z-0.12715
G01 X-41.14294 Y106.55847Z-0.12681
G01 X-41.32064 Y106.55847Z-0.12640
G01 X-41.49445 Y106.52154Z-0.12594
G01 X-41.64746 Y106.45400Z-0.12548
G01 X-41.79242 Y106.35139Z-0.12498
G01 X-41.91945 Y106.21276Z-0.12447
G01 X-42.00829 Y106.05886Z-0.12402
G01 X-42.06049 Y105.89998Z-0.12365
G01 X-42.08124 Y105.72360Z-0.12333
G01 X-42.08178 Y104.71314Z-0.12174
G01 X-42.06486 Y104.54674Z-0.12151
G01 X-42.00829 Y104.36742Z-0.12136
G01 X-41.91287 Y104.20539Z-0.12133
G01 X-41.80794 Y104.08886Z-0.12138
G01 X-41.66557 Y103.98271Z-0.12155
G01 X-41.49445 Y103.90473Z-0.12182
G01 X-41.31018 Y103.86724Z-0.12218
G01 X-41.14294 Y103.86780Z-0.12257
G01 X-40.96913 Y103.90473Z-0.12303
G01 X-40.79801 Y103.98271Z-0.12355
G01 X-40.65562 Y104.08886Z-0.12404
G01 X-40.54411 Y104.21352Z-0.12450
G01 X-40.45526 Y104.36742Z-0.12494
G01 X-40.40307 Y104.52630Z-0.12531
G01 X-40.38178 Y104.71314Z-0.12566
G04 P0 ( dwell for no time -- G64 should not smooth over this point )
G00 Z5.00000 ( retract )

G00 X-42.92178 Y104.71314 ( rapid move to begin. )
G01 F300.00000
G01 Z-0.11980
G04 P0 ( dwell for no time -- G64 should not smooth over this point )
G01 F600.00000
G01 X-42.92178 Y104.71314Z-0.11980
G01 X-42.92178 Y105.71314Z-0.12137
G01 X-42.93872 Y105.87953Z-0.12159
G01 X-42.99526 Y106.05886Z-0.12175
G01 X-43.09072 Y106.22088Z-0.12178
G01 X-43.20303 Y106.34481Z-0.12172
G01 X-43.35612 Y106.45400Z-0.12154
G01 X-43.50913 Y106.52154Z-0.12129
G01 X-43.68294 Y106.55847Z-0.12095
G01 X-43.86064 Y106.55847Z-0.12054
G01 X-44.03445 Y106.52154Z-0.12008
G01 X-44.18746 Y106.45400Z-0.11962
G01 X-44.33242 Y106.35139Z-0.11912
G01 X-44.45945 Y106.21276Z-0.11861
G01 X-44.54829 Y106.05886Z-0.11816
G01 X-44.60321 Y105.88987Z-0.11777
G01 X-44.62124 Y105.72360Z-0.11747
G01 X-44.62178 Y104.71314Z-0.11587
G01 X-44.60486 Y104.54674Z-0.11565
G01 X-44.54829 Y104.36742Z-0.11550
G01 X-44.45287 Y104.20539Z-0.11547
G01 X-44.34794 Y104.08886Z-0.11552
G01 X-44.20557 Y103.98271Z-0.11569
G01 X-44.03445 Y103.90473Z-0.11596
G01 X-43.85018 Y103.86724Z-0.11632
G01 X-43.68294 Y103.86780Z-0.11671
G01 X-43.50913 Y103.90473Z-0.11717
G01 X-43.35612 Y103.97227Z-0.11763
G01 X-43.21116 Y104.07489Z-0.11812
G01 X-43.07842 Y104.22231Z-0.11866
G01 X-42.99526 Y104.36742Z-0.11908
G01 X-42.94307 Y104.52630Z-0.11945
G01 X-42.92178 Y104.71314Z-0.11980
G04 P0 ( dwell for no time -- G64 should not smooth over this point )
G00 Z5.00000 ( retract )

G00 X-45.46178 Y104.71314 ( rapid move to begin. )
G01 F300.00000
G01 Z-0.11394
G04 P0 ( dwell for no time -- G64 should not smooth over this point )
G01 F600.00000
G01 X-45.46178 Y104.71314Z-0.11394
G01 X-45.46178 Y105.71314Z-0.11551
G01 X-45.47872 Y105.87953Z-0.11573
G01 X-45.53526 Y106.05886Z-0.11589
G01 X-45.63072 Y106.22088Z-0.11592
G01 X-45.75116 Y106.35139Z-0.11585
G01 X-45.89612 Y106.45400Z-0.11567
G01 X-46.04913 Y106.52154Z-0.11543
G01 X-46.22294 Y106.55847Z-0.11508
G01 X-46.40064 Y106.55847Z-0.11467
G01 X-46.57445 Y106.52154Z-0.11422
G01 X-46.72746 Y106.45400Z-0.11376
G01 X-46.87242 Y106.35139Z-0.11326
G01 X-46.99945 Y106.21276Z-0.11275
G01 X-47.08829 Y106.05886Z-0.11230
G01 X-47.14321 Y105.88987Z-0.11191
G01 X-47.16124 Y105.72360Z-0.11161
G01 X-47.16178 Y104.71314Z-0.11001
G01 X-47.14486 Y104.54674Z-0.10979
G01 X-47.08829 Y104.36742Z-0.10964
G01 X-46.99287 Y104.20539Z-0.10960
G01 X-46.88794 Y104.08886Z-0.10966
G01 X-46.74557 Y103.98271Z-0.10982
G01 X-46.57445 Y103.90473Z-0.11010
G01 X-46.39018 Y103.86724Z-0.11046
G01 X-46.22294 Y103.86780Z-0.11085
G01 X-46.04913 Y103.90473Z-0.11131
G01 X-45.87801 Y103.98271Z-0.11183
G01 X-45.73562 Y104.08886Z-0.11232
G01 X-45.62411 Y104.21352Z-0.11278
G01 X-45.53526 Y104.36742Z-0.11322
G01 X-45.48307 Y104.52630Z-0.11359
G01 X-45.46178 Y104.71314Z-0.11394
G04 P0 ( dwell for no time -- G64 should not smooth over this point )
G00 Z5.00000 ( retract )

G00 X-27.00017 Y126.14218 ( rapid move to begin. )
G01 F300.00000
G01 Z-0.16917
G04 P0 ( dwell for no time -- G64 should not smooth over this point )
G01 F600.00000
G01 X-27.00017 Y126.14218Z-0.16917
G01 X-27.04358 Y125.93791Z-0.16939
G01 X-27.11638 Y125.77581Z-0.16957
G01 X-27.22036 Y125.63172Z-0.16972
G01 X-27.37556 Y125.49199Z-0.16987
G01 X-27.53949 Y125.39986Z-0.16996
G01 X-27.69854 Y125.34818Z-0.17001
G01 X-27.89578 Y125.32580Z-0.17003
G01 X-28.70624 Y125.32636Z-0.16999
G01 X-28.89303 Y125.34818Z-0.16996
G01 X-29.06184 Y125.40362Z-0.16988
G01 X-29.21602 Y125.49199Z-0.16976
G01 X-29.35722 Y125.61620Z-0.16960
G01 X-29.47520 Y125.77581Z-0.16939
G01 X-29.54799 Y125.93791Z-0.16917
G01 X-29.58922 Y126.12140Z-0.16894
G01 X-29.59140 Y126.30944Z-0.16869
G01 X-29.55445 Y126.49382Z-0.16846
G01 X-29.47997 Y126.66649Z-0.16825
G01 X-29.43560 Y126.73126Z-0.16817
G01 X-31.10387 Y128.39953Z-0.16444
G01 X-31.15244 Y128.46097Z-0.16425
G01 X-31.19727 Y128.56920Z-0.16401
G01 X-31.20099 Y133.56920Z-0.15733 ;segmented line. Max segment length set to 5
G01 X-31.20471 Y138.56920Z-0.15065 ;segmented line. Max segment length set to 5
G01 X-31.20639 Y140.82272Z-0.14764
G01 X-36.01349 Y140.82320Z-0.13847
G01 X-36.12840 Y140.84604Z-0.13822
G01 X-36.20602 Y140.88754Z-0.13802
G01 X-36.42553 Y141.09958Z-0.13734
G01 X-36.57361 Y140.99468Z-0.13719
G01 X-36.95733 Y140.82622Z-0.13666
G01 X-37.35720 Y140.74179Z-0.13600
G01 X-37.76591 Y140.74124Z-0.13522
G01 X-38.17625 Y140.82622Z-0.13434
G01 X-38.55997 Y140.99468Z-0.13341
G01 X-38.91579 Y141.25320Z-0.13243
G01 X-39.19456 Y141.56608Z-0.13153
G01 X-39.40220 Y141.93008Z-0.13072
G01 X-39.52527 Y142.30885Z-0.13004
G01 X-39.57124 Y142.72536Z-0.12947
G01 X-39.52527 Y143.16277Z-0.12905
G01 X-39.39369 Y143.56064Z-0.12883
G01 X-39.18887 Y143.91433Z-0.12894
G01 X-38.91579 Y144.21842Z-0.12945
G01 X-38.56929 Y144.47219Z-0.13009
G01 X-38.19614 Y144.63892Z-0.13078
G01 X-37.78671 Y144.72820Z-0.13153
G01 X-37.35720 Y144.72982Z-0.13232
G01 X-36.94722 Y144.64268Z-0.13308
G01 X-36.57361 Y144.47694Z-0.13377
G01 X-36.21778 Y144.21842Z-0.13443
G01 X-35.94471 Y143.91433Z-0.13493
G01 X-35.73988 Y143.56064Z-0.13559
G01 X-35.60396 Y143.14232Z-0.13637
G01 X-35.56233 Y142.74626Z-0.13694
G01 X-35.60396 Y142.32929Z-0.13738
G01 X-35.73137 Y141.93008Z-0.13763
G01 X-35.92550 Y141.58949Z-0.13769
G01 X-35.85870 Y141.52269Z-0.13790
G01 X-30.85870 Y141.52271Z-0.14736 ;segmented line. Max segment length set to 5
G01 X-29.63639 Y141.52272Z-0.14910
G01 X-29.63639 Y141.90184Z-0.14861
G01 X-29.72618 Y141.94421Z-0.14845
G01 X-29.85506 Y142.03783Z-0.14816
G01 X-29.97718 Y142.17021Z-0.14784
G01 X-30.07385 Y142.33440Z-0.14750
G01 X-30.13118 Y142.51614Z-0.14718
G01 X-30.14840 Y142.68500Z-0.14694
G01 X-30.14840 Y144.20900Z-0.14547
G01 X-30.13118 Y144.37788Z-0.14550
G01 X-30.07761 Y144.54984Z-0.14557
G01 X-29.98947 Y144.70691Z-0.14569
G01 X-29.85506 Y144.85619Z-0.14588
G01 X-29.70807 Y144.96028Z-0.14608
G01 X-29.56252 Y145.02507Z-0.14628
G01 X-29.37649 Y145.06630Z-0.14654
G01 X-29.18594 Y145.06465Z-0.14681
G01 X-29.01025 Y145.02507Z-0.14705
G01 X-28.86471 Y144.96028Z-0.14725
G01 X-28.71772 Y144.85619Z-0.14745
G01 X-28.58330 Y144.70691Z-0.14764
G01 X-28.49892 Y144.55962Z-0.14776
G01 X-28.44594 Y144.39833Z-0.14783
G01 X-28.42493 Y144.21946Z-0.14786
G01 X-28.42493 Y142.67456Z-0.14920
G01 X-28.44594 Y142.49569Z-0.14939
G01 X-28.49892 Y142.33440Z-0.14951
G01 X-28.58330 Y142.18711Z-0.14958
G01 X-28.71772 Y142.03783Z-0.14959
G01 X-28.84660 Y141.94421Z-0.14955
G01 X-28.93639 Y141.90184Z-0.14949
G01 X-28.93639 Y141.17271Z-0.15039
G01 X-28.96722 Y141.02991Z-0.15053
G01 X-29.00121 Y140.97037Z-0.15056
G01 X-29.08406 Y140.88754Z-0.15057
G01 X-29.22780 Y140.82800Z-0.15047
G01 X-30.50639 Y140.82272Z-0.14897
G01 X-30.50639 Y135.82272Z-0.15572 ;segmented line. Max segment length set to 5
G01 X-30.50639 Y130.82272Z-0.16247 ;segmented line. Max segment length set to 5
G01 X-30.50639 Y128.79198Z-0.16521
G01 X-28.82674 Y127.11236Z-0.16779
G01 X-28.69580 Y127.12582Z-0.16780
G01 X-27.89578 Y127.12582Z-0.16794
G01 X-27.71902 Y127.10779Z-0.16799
G01 X-27.52974 Y127.04799Z-0.16809
G01 X-27.36677 Y126.95391Z-0.16822
G01 X-27.22036 Y126.81990Z-0.16840
G01 X-27.11160 Y126.66649Z-0.16858
G01 X-27.04358 Y126.51371Z-0.16876
G01 X-27.00236 Y126.33022Z-0.16897
G01 X-27.00017 Y126.14218Z-0.16917
G04 P0 ( dwell for no time -- G64 should not smooth over this point )
G00 Z5.00000 ( retract )

G00 X-27.00017 Y128.68218 ( rapid move to begin. )
G01 F300.00000
G01 Z-0.16639
G04 P0 ( dwell for no time -- G64 should not smooth over this point )
G01 F600.00000
G01 X-27.00017 Y128.68218Z-0.16639
G01 X-27.04358 Y128.47791Z-0.16660
G01 X-27.12207 Y128.30702Z-0.16677
G01 X-27.22697 Y128.16359Z-0.16690
G01 X-27.35864 Y128.04428Z-0.16700
G01 X-27.52974 Y127.94362Z-0.16708
G01 X-27.69854 Y127.88818Z-0.16710
G01 X-27.88534 Y127.86636Z-0.16708
G01 X-28.70624 Y127.86636Z-0.16690
G01 X-28.89303 Y127.88818Z-0.16683
G01 X-29.06184 Y127.94362Z-0.16672
G01 X-29.22480 Y128.03771Z-0.16656
G01 X-29.37121 Y128.17172Z-0.16636
G01 X-29.47520 Y128.31581Z-0.16615
G01 X-29.54799 Y128.47791Z-0.16592
G01 X-29.58922 Y128.66140Z-0.16567
G01 X-29.59140 Y128.84944Z-0.16543
G01 X-29.54799 Y129.05371Z-0.16518
G01 X-29.46951 Y129.22460Z-0.16499
G01 X-29.37121 Y129.35990Z-0.16485
G01 X-29.23293 Y129.48733Z-0.16474
G01 X-29.06184 Y129.58799Z-0.16467
G01 X-28.89303 Y129.64344Z-0.16466
G01 X-28.70624 Y129.66526Z-0.16470
G01 X-27.88534 Y129.66526Z-0.16500
G01 X-27.69854 Y129.64344Z-0.16509
G01 X-27.52974 Y129.58799Z-0.16521
G01 X-27.36677 Y129.49391Z-0.16537
G01 X-27.22036 Y129.35990Z-0.16557
G01 X-27.11638 Y129.21581Z-0.16577
G01 X-27.04358 Y129.05371Z-0.16597
G01 X-27.00073 Y128.85988Z-0.16619
G01 X-27.00017 Y128.68218Z-0.16639
G04 P0 ( dwell for no time -- G64 should not smooth over this point )
G00 Z5.00000 ( retract )

G00 X-23.90320 Y136.18260 ( rapid move to begin. )
G01 F300.00000
G01 Z-0.16075
G04 P0 ( dwell for no time -- G64 should not smooth over this point )
G01 F600.00000
G01 X-23.90320 Y136.18260Z-0.16075
G01 X-23.92040 Y136.01374Z-0.16088
G01 X-23.97396 Y135.84178Z-0.16099
G01 X-24.07440 Y135.66781Z-0.16106
G01 X-24.18839 Y135.54201Z-0.16108
G01 X-24.32540 Y135.44181Z-0.16106
G01 X-24.50891 Y135.36009Z-0.16099
G01 X-24.67508 Y135.32532Z-0.16090
G01 X-24.85529 Y135.32532Z-0.16076
G01 X-25.02146 Y135.36009Z-0.16060
G01 X-25.18687 Y135.43134Z-0.16040
G01 X-25.34937 Y135.54943Z-0.16016
G01 X-25.46827 Y135.68471Z-0.15993
G01 X-25.54790 Y135.82268Z-0.15973
G01 X-25.60564 Y135.99329Z-0.15952
G01 X-25.62720 Y136.18260Z-0.15931
G01 X-25.62720 Y137.70662Z-0.15779
G01 X-25.60998 Y137.87548Z-0.15764
G01 X-25.55265 Y138.05722Z-0.15752
G01 X-25.46827 Y138.20451Z-0.15745
G01 X-25.34198 Y138.34721Z-0.15744
G01 X-25.18687 Y138.45788Z-0.15748
G01 X-25.03157 Y138.52643Z-0.15757
G01 X-24.84483 Y138.56443Z-0.15773
G01 X-24.66474 Y138.56225Z-0.15791
G01 X-24.49880 Y138.52643Z-0.15811
G01 X-24.34351 Y138.45788Z-0.15833
G01 X-24.18839 Y138.34721Z-0.15858
G01 X-24.07440 Y138.22140Z-0.15880
G01 X-23.98247 Y138.06654Z-0.15903
G01 X-23.92474 Y137.89593Z-0.15923
G01 X-23.90320 Y137.70662Z-0.15942
G01 X-23.90320 Y136.18260Z-0.16075
G04 P0 ( dwell for no time -- G64 should not smooth over this point )
G00 Z5.00000 ( retract )

G00 X-28.42440 Y136.18260 ( rapid move to begin. )
G01 F300.00000
G01 Z-0.15699
G04 P0 ( dwell for no time -- G64 should not smooth over this point )
G01 F600.00000
G01 X-28.42440 Y136.18260Z-0.15699
G01 X-28.44160 Y136.01374Z-0.15717
G01 X-28.49516 Y135.84178Z-0.15734
G01 X-28.59560 Y135.66781Z-0.15747
G01 X-28.71772 Y135.53543Z-0.15753
G01 X-28.84660 Y135.44181Z-0.15754
G01 X-29.03011 Y135.36009Z-0.15750
G01 X-29.19628 Y135.32532Z-0.15742
G01 X-29.37649 Y135.32532Z-0.15728
G01 X-29.54266 Y135.36009Z-0.15711
G01 X-29.70807 Y135.43134Z-0.15689
G01 X-29.87057 Y135.54943Z-0.15661
G01 X-29.98947 Y135.68471Z-0.15634
G01 X-30.06910 Y135.82268Z-0.15609
G01 X-30.12684 Y135.99329Z-0.15582
G01 X-30.14840 Y136.18260Z-0.15555
G01 X-30.14840 Y137.70662Z-0.15353
G01 X-30.13118 Y137.87548Z-0.15332
G01 X-30.07385 Y138.05722Z-0.15314
G01 X-29.98947 Y138.20451Z-0.15303
G01 X-29.85506 Y138.35379Z-0.15296
G01 X-29.70807 Y138.45788Z-0.15298
G01 X-29.55277 Y138.52643Z-0.15304
G01 X-29.37649 Y138.56390Z-0.15317
G01 X-29.19628 Y138.56390Z-0.15335
G01 X-29.01025 Y138.52267Z-0.15359
G01 X-28.85539 Y138.45313Z-0.15383
G01 X-28.71772 Y138.35379Z-0.15409
G01 X-28.59560 Y138.22140Z-0.15437
G01 X-28.50367 Y138.06654Z-0.15465
G01 X-28.44594 Y137.89593Z-0.15491
G01 X-28.42440 Y137.70662Z-0.15516
G01 X-28.42440 Y136.18260Z-0.15699
G04 P0 ( dwell for no time -- G64 should not smooth over this point )
G00 Z5.00000 ( retract )

G00 X-34.62017 Y131.22218 ( rapid move to begin. )
G01 F300.00000
G01 Z-0.15326
G04 P0 ( dwell for no time -- G64 should not smooth over this point )
G01 F600.00000
G01 X-34.62017 Y131.22218Z-0.15326
G01 X-34.66358 Y131.01791Z-0.15343
G01 X-34.74207 Y130.84702Z-0.15348
G01 X-34.84036 Y130.71172Z-0.15344
G01 X-34.97864 Y130.58428Z-0.15331
G01 X-35.14974 Y130.48362Z-0.15307
G01 X-35.31854 Y130.42818Z-0.15278
G01 X-35.50534 Y130.40636Z-0.15241
G01 X-36.32624 Y130.40636Z-0.15067
G01 X-36.51303 Y130.42818Z-0.15024
G01 X-36.68184 Y130.48362Z-0.14982
G01 X-36.84480 Y130.57771Z-0.14936
G01 X-36.99121 Y130.71172Z-0.14888
G01 X-37.09520 Y130.85581Z-0.14849
G01 X-37.16799 Y131.01791Z-0.14814
G01 X-37.20922 Y131.20140Z-0.14783
G01 X-37.21140 Y131.38944Z-0.14760
G01 X-37.16799 Y131.59371Z-0.14744
G01 X-37.08951 Y131.76460Z-0.14740
G01 X-36.99121 Y131.89990Z-0.14744
G01 X-36.85293 Y132.02733Z-0.14758
G01 X-36.68184 Y132.12799Z-0.14781
G01 X-36.51303 Y132.18344Z-0.14809
G01 X-36.32624 Y132.20526Z-0.14846
G01 X-35.50534 Y132.20526Z-0.15017
G01 X-35.31854 Y132.18344Z-0.15059
G01 X-35.14974 Y132.12799Z-0.15101
G01 X-34.98677 Y132.03391Z-0.15147
G01 X-34.84036 Y131.89990Z-0.15194
G01 X-34.73638 Y131.75581Z-0.15234
G01 X-34.66358 Y131.59371Z-0.15270
G01 X-34.62073 Y131.39988Z-0.15303
G01 X-34.62017 Y131.22218Z-0.15326
G04 P0 ( dwell for no time -- G64 should not smooth over this point )
G00 Z5.00000 ( retract )

G00 X-40.26133 Y142.72536 ( rapid move to begin. )
G01 F300.00000
G01 Z-0.12818
G04 P0 ( dwell for no time -- G64 should not smooth over this point )
G01 F600.00000
G01 X-40.26133 Y142.72536Z-0.12818
G01 X-40.30731 Y142.30885Z-0.12858
G01 X-40.43888 Y141.91098Z-0.12878
G01 X-40.64371 Y141.55729Z-0.12880
G01 X-40.93233 Y141.23923Z-0.12861
G01 X-41.26329 Y140.99943Z-0.12826
G01 X-41.65633 Y140.82622Z-0.12770
G01 X-42.05620 Y140.74179Z-0.12703
G01 X-42.48571 Y140.74342Z-0.12621
G01 X-42.89514 Y140.83270Z-0.12533
G01 X-43.26829 Y140.99943Z-0.12444
G01 X-43.61479 Y141.25320Z-0.12351
G01 X-43.89356 Y141.56608Z-0.12264
G01 X-44.10120 Y141.93008Z-0.12186
G01 X-44.22427 Y142.30885Z-0.12123
G01 X-44.27024 Y142.72536Z-0.12070
G01 X-44.22427 Y143.16277Z-0.12032
G01 X-44.10120 Y143.54154Z-0.12014
G01 X-43.90710 Y143.88212Z-0.12023
G01 X-45.06996 Y145.04501Z-0.11809
G01 X-50.06996 Y145.04501Z-0.10886 ;segmented line. Max segment length set to 5
G01 X-54.96090 Y145.04501Z-0.10112
G01 X-58.19775 Y141.81563Z-0.09829
G01 X-58.27539 Y141.77415Z-0.09822
G01 X-58.39028 Y141.75129Z-0.09808
G01 X-59.05042 Y141.75081Z-0.09715
G01 X-59.05098 Y141.19501Z-0.09761
G01 X-59.07219 Y140.99851Z-0.09774
G01 X-59.13275 Y140.81037Z-0.09781
G01 X-59.24712 Y140.61228Z-0.09781
G01 X-59.37976 Y140.46577Z-0.09775
G01 X-59.53932 Y140.34916Z-0.09762
G01 X-59.73821 Y140.25881Z-0.09741
G01 X-59.95220 Y140.21502Z-0.09714
G01 X-60.16018 Y140.21721Z-0.09684
G01 X-60.35337 Y140.25881Z-0.09653
G01 X-60.53414 Y140.33870Z-0.09621
G01 X-60.71181 Y140.46577Z-0.09586
G01 X-60.85675 Y140.62920Z-0.09552
G01 X-60.95509 Y140.80062Z-0.09524
G01 X-61.01669 Y140.98840Z-0.09500
G01 X-61.04059 Y141.19501Z-0.09480
G01 X-61.04115 Y142.99615Z-0.09335
G01 X-61.02103 Y143.19277Z-0.09322
G01 X-60.95034 Y143.41032Z-0.09314
G01 X-60.84445 Y143.58934Z-0.09314
G01 X-60.70366 Y143.74242Z-0.09321
G01 X-60.53414 Y143.86292Z-0.09341
G01 X-60.36315 Y143.93905Z-0.09364
G01 X-60.13937 Y143.98659Z-0.09395
G01 X-59.93140 Y143.98441Z-0.09424
G01 X-59.74832 Y143.94550Z-0.09449
G01 X-59.53932 Y143.85246Z-0.09478
G01 X-59.37976 Y143.73585Z-0.09505
G01 X-59.24712 Y143.58934Z-0.09535
G01 X-59.13275 Y143.39124Z-0.09568
G01 X-59.07219 Y143.20311Z-0.09592
G01 X-59.05098 Y143.00661Z-0.09611
G01 X-59.05042 Y142.45081Z-0.09657
G01 X-58.54507 Y142.45081Z-0.09728
G01 X-55.35338 Y145.64250Z-0.10058
G01 X-55.24871 Y145.71418Z-0.10072
G01 X-55.11569 Y145.74453Z-0.10091
G01 X-50.11569 Y145.74032Z-0.10877 ;segmented line. Max segment length set to 5
G01 X-45.11569 Y145.73612Z-0.11800 ;segmented line. Max segment length set to 5
G01 X-44.84718 Y145.73589Z-0.11850
G01 X-44.73895 Y145.69106Z-0.11870
G01 X-44.67750 Y145.64250Z-0.11881
G01 X-43.40705 Y144.37204Z-0.12116
G01 X-43.26829 Y144.47219Z-0.12141
G01 X-42.89514 Y144.63892Z-0.12210
G01 X-42.46491 Y144.73038Z-0.12290
G01 X-42.05620 Y144.72982Z-0.12365
G01 X-41.65633 Y144.64539Z-0.12439
G01 X-41.25450 Y144.46650Z-0.12513
G01 X-40.91678 Y144.21842Z-0.12575
G01 X-40.65028 Y143.92246Z-0.12625
G01 X-40.43888 Y143.56064Z-0.12690
G01 X-40.30731 Y143.16277Z-0.12760
G01 X-40.26133 Y142.72536Z-0.12818
G04 P0 ( dwell for no time -- G64 should not smooth over this point )
G00 Z5.00000 ( retract )

G00 X-44.96033 Y142.72536 ( rapid move to begin. )
G01 F300.00000
G01 Z-0.11941
G04 P0 ( dwell for no time -- G64 should not smooth over this point )
G01 F600.00000
G01 X-44.96033 Y142.72536Z-0.11941
G01 X-45.00631 Y142.30885Z-0.11976
G01 X-45.12937 Y141.93008Z-0.11992
G01 X-45.34271 Y141.55729Z-0.11991
G01 X-45.61578 Y141.25320Z-0.11971
G01 X-45.96229 Y140.99943Z-0.11931
G01 X-46.33544 Y140.83270Z-0.11877
G01 X-46.75520 Y140.74179Z-0.11806
G01 X-47.16391 Y140.74124Z-0.11728
G01 X-47.58436 Y140.82894Z-0.11639
G01 X-47.95797 Y140.99468Z-0.11552
G01 X-48.29825 Y141.23923Z-0.11463
G01 X-48.58029 Y141.54916Z-0.11379
G01 X-48.80020 Y141.93008Z-0.11301
G01 X-48.92761 Y142.32929Z-0.11238
G01 X-48.96924 Y142.74626Z-0.11190
G01 X-48.92327 Y143.16277Z-0.11158
G01 X-48.80020 Y143.54154Z-0.11144
G01 X-48.58687 Y143.91433Z-0.11160
G01 X-48.31379 Y144.21842Z-0.11210
G01 X-47.97608 Y144.46650Z-0.11272
G01 X-47.58436 Y144.64268Z-0.11345
G01 X-47.17438 Y144.72982Z-0.11420
G01 X-46.76566 Y144.73038Z-0.11496
G01 X-46.35533 Y144.64539Z-0.11571
G01 X-45.96229 Y144.47219Z-0.11644
G01 X-45.63133 Y144.23239Z-0.11705
G01 X-45.34928 Y143.92246Z-0.11757
G01 X-45.12937 Y143.54154Z-0.11824
G01 X-45.00196 Y143.14232Z-0.11889
G01 X-44.96033 Y142.72536Z-0.11941
G04 P0 ( dwell for no time -- G64 should not smooth over this point )
G00 Z5.00000 ( retract )

G00 X-52.79578 Y130.90580 ( rapid move to begin. )
G01 F300.00000
G01 Z-0.11563
G04 P0 ( dwell for no time -- G64 should not smooth over this point )
G01 F600.00000
G01 X-52.79578 Y130.90580Z-0.11563
G01 X-52.81815 Y130.70857Z-0.11577
G01 X-52.86984 Y130.54951Z-0.11583
G01 X-52.96197 Y130.38558Z-0.11584
G01 X-53.09357 Y130.23699Z-0.11577
G01 X-53.25511 Y130.12162Z-0.11563
G01 X-53.41767 Y130.04987Z-0.11544
G01 X-53.59138 Y130.01238Z-0.11521
G01 X-53.78986 Y130.01075Z-0.11491
G01 X-53.98368 Y130.05360Z-0.11457
G01 X-54.14579 Y130.12640Z-0.11426
G01 X-54.28988 Y130.23039Z-0.11395
G01 X-54.41731 Y130.36866Z-0.11364
G01 X-54.51797 Y130.53976Z-0.11333
G01 X-54.57611 Y130.71870Z-0.11309
G01 X-54.59524 Y130.89536Z-0.11290
G01 X-54.59580 Y131.70582Z-0.11219
G01 X-54.57776 Y131.88258Z-0.11207
G01 X-54.51797 Y132.07186Z-0.11199
G01 X-54.41731 Y132.24295Z-0.11199
G01 X-54.28988 Y132.38123Z-0.11206
G01 X-54.14579 Y132.48522Z-0.11219
G01 X-53.98368 Y132.55802Z-0.11237
G01 X-53.78986 Y132.60087Z-0.11262
G01 X-53.60172 Y132.60087Z-0.11290
G01 X-53.41767 Y132.56175Z-0.11321
G01 X-53.25511 Y132.49000Z-0.11352
G01 X-53.09357 Y132.37463Z-0.11387
G01 X-52.96768 Y132.23483Z-0.11418
G01 X-52.87835 Y132.08121Z-0.11445
G01 X-52.81546 Y131.89292Z-0.11472
G01 X-52.79578 Y131.70582Z-0.11491
G01 X-52.79578 Y130.90580Z-0.11563
G04 P0 ( dwell for no time -- G64 should not smooth over this point )
G00 Z5.00000 ( retract )

G00 X-55.33578 Y123.28580 ( rapid move to begin. )
G01 F300.00000
G01 Z-0.11838
G04 P0 ( dwell for no time -- G64 should not smooth over this point )
G01 F600.00000
G01 X-55.33578 Y123.28580Z-0.11838
G01 X-55.35815 Y123.08857Z-0.11851
G01 X-55.40984 Y122.92951Z-0.11857
G01 X-55.50197 Y122.76558Z-0.11856
G01 X-55.63357 Y122.61699Z-0.11848
G01 X-55.79511 Y122.50162Z-0.11832
G01 X-55.95767 Y122.42987Z-0.11812
G01 X-56.13138 Y122.39238Z-0.11787
G01 X-56.31942 Y122.39019Z-0.11757
G01 X-56.52368 Y122.43360Z-0.11721
G01 X-56.67646 Y122.50162Z-0.11690
G01 X-56.82988 Y122.61039Z-0.11656
G01 X-56.96389 Y122.75679Z-0.11622
G01 X-57.05322 Y122.91041Z-0.11595
G01 X-57.11611 Y123.09870Z-0.11569
G01 X-57.13524 Y123.27536Z-0.11551
G01 X-57.13580 Y124.08582Z-0.11482
G01 X-57.11776 Y124.26258Z-0.11470
G01 X-57.06173 Y124.44211Z-0.11464
G01 X-56.95731 Y124.62295Z-0.11465
G01 X-56.82988 Y124.76123Z-0.11473
G01 X-56.67646 Y124.87000Z-0.11488
G01 X-56.50380 Y124.94447Z-0.11509
G01 X-56.32986 Y124.98087Z-0.11534
G01 X-56.14172 Y124.98087Z-0.11563
G01 X-55.96778 Y124.94447Z-0.11594
G01 X-55.79511 Y124.87000Z-0.11628
G01 X-55.64169 Y124.76123Z-0.11661
G01 X-55.50197 Y124.60604Z-0.11697
G01 X-55.40984 Y124.44211Z-0.11726
G01 X-55.35546 Y124.27292Z-0.11749
G01 X-55.33578 Y124.08582Z-0.11768
G01 X-55.33578 Y123.28580Z-0.11838
G04 P0 ( dwell for no time -- G64 should not smooth over this point )
G00 Z5.00000 ( retract )

G00 X-52.79578 Y123.28580 ( rapid move to begin. )
G01 F300.00000
G01 Z-0.12243
G04 P0 ( dwell for no time -- G64 should not smooth over this point )
G01 F600.00000
G01 X-52.79578 Y123.28580Z-0.12243
G01 X-52.81815 Y123.08857Z-0.12257
G01 X-52.87835 Y122.91041Z-0.12264
G01 X-52.96768 Y122.75679Z-0.12263
G01 X-53.08617 Y122.62438Z-0.12256
G01 X-53.23700 Y122.51209Z-0.12241
G01 X-53.42778 Y122.42715Z-0.12218
G01 X-53.60172 Y122.39075Z-0.12194
G01 X-53.77942 Y122.39019Z-0.12165
G01 X-53.98368 Y122.43360Z-0.12129
G01 X-54.14579 Y122.50640Z-0.12096
G01 X-54.28988 Y122.61039Z-0.12064
G01 X-54.42961 Y122.76558Z-0.12028
G01 X-54.51797 Y122.91976Z-0.12000
G01 X-54.57342 Y123.08857Z-0.11977
G01 X-54.59524 Y123.27536Z-0.11957
G01 X-54.59580 Y124.08582Z-0.11886
G01 X-54.57776 Y124.26258Z-0.11873
G01 X-54.52173 Y124.44211Z-0.11866
G01 X-54.41731 Y124.62295Z-0.11867
G01 X-54.28988 Y124.76123Z-0.11875
G01 X-54.14579 Y124.86522Z-0.11889
G01 X-54.04579 Y124.91036Z-0.11901
G01 X-54.04579 Y125.28610Z-0.11868
G01 X-59.04579 Y125.28610Z-0.11079 ;segmented line. Max segment length set to 5
G01 X-59.71540 Y125.28610Z-0.10974
G01 X-59.84009 Y125.30944Z-0.10952
G01 X-59.91771 Y125.35094Z-0.10936
G01 X-63.45405 Y128.88567Z-0.10103 ;segmented line. Max segment length set to 5
G01 X-66.99039 Y132.42040Z-0.09295 ;segmented line. Max segment length set to 5
G01 X-70.52673 Y135.95512Z-0.08513 ;segmented line. Max segment length set to 5
G01 X-74.06307 Y139.48985Z-0.07793 ;segmented line. Max segment length set to 5
G01 X-76.32507 Y141.75081Z-0.07685
G01 X-76.83045 Y141.75081Z-0.07694
G01 X-76.83098 Y141.19501Z-0.07728
G01 X-76.85488 Y140.98840Z-0.07741
G01 X-76.91275 Y140.81037Z-0.07753
G01 X-77.02712 Y140.61228Z-0.07767
G01 X-77.15976 Y140.46577Z-0.07778
G01 X-77.31932 Y140.34916Z-0.07788
G01 X-77.52832 Y140.25612Z-0.07797
G01 X-77.71140 Y140.21721Z-0.07802
G01 X-77.91937 Y140.21502Z-0.07805
G01 X-78.14315 Y140.26257Z-0.07806
G01 X-78.33225 Y140.34916Z-0.07804
G01 X-78.49181 Y140.46577Z-0.07800
G01 X-78.63675 Y140.62920Z-0.07793
G01 X-78.73509 Y140.80062Z-0.07784
G01 X-78.79669 Y140.98840Z-0.07775
G01 X-78.82115 Y141.20545Z-0.07763
G01 X-78.82059 Y143.00661Z-0.07660
G01 X-78.79669 Y143.21321Z-0.07648
G01 X-78.73883 Y143.39124Z-0.07636
G01 X-78.62445 Y143.58934Z-0.07622
G01 X-78.49181 Y143.73585Z-0.07611
G01 X-78.31414 Y143.86292Z-0.07603
G01 X-78.13337 Y143.94280Z-0.07599
G01 X-77.91937 Y143.98659Z-0.07594
G01 X-77.71140 Y143.98441Z-0.07590
G01 X-77.51821 Y143.94280Z-0.07585
G01 X-77.33743 Y143.86292Z-0.07581
G01 X-77.15976 Y143.73585Z-0.07580
G01 X-77.01483 Y143.57242Z-0.07587
G01 X-76.91648 Y143.40100Z-0.07595
G01 X-76.85488 Y143.21321Z-0.07605
G01 X-76.83045 Y142.99615Z-0.07618
G01 X-76.83045 Y142.45081Z-0.07651
G01 X-76.12151 Y142.44553Z-0.07637
G01 X-76.03728 Y142.41997Z-0.07637
G01 X-75.93261 Y142.34829Z-0.07640
G01 X-72.39708 Y138.81276Z-0.08042 ;segmented line. Max segment length set to 5
G01 X-68.86154 Y135.27723Z-0.08806 ;segmented line. Max segment length set to 5
G01 X-65.32601 Y131.74170Z-0.09597 ;segmented line. Max segment length set to 5
G01 X-61.79048 Y128.20617Z-0.10413 ;segmented line. Max segment length set to 5
G01 X-59.57041 Y125.98610Z-0.10939
G01 X-54.57041 Y125.98610Z-0.11724 ;segmented line. Max segment length set to 5
G01 X-53.69580 Y125.98610Z-0.11861
G01 X-53.57109 Y125.96278Z-0.11882
G01 X-53.44170 Y125.87632Z-0.11910
G01 X-53.37662 Y125.77891Z-0.11929
G01 X-53.35491 Y125.71391Z-0.11938
G01 X-53.34579 Y124.91036Z-0.12011
G01 X-53.24579 Y124.86522Z-0.12031
G01 X-53.10169 Y124.76123Z-0.12063
G01 X-52.97426 Y124.62295Z-0.12096
G01 X-52.87835 Y124.46121Z-0.12125
G01 X-52.81815 Y124.28305Z-0.12151
G01 X-52.79578 Y124.08582Z-0.12172
G01 X-52.79578 Y123.28580Z-0.12243
G04 P0 ( dwell for no time -- G64 should not smooth over this point )
G00 Z5.00000 ( retract )

G00 X-48.00178 Y104.71314 ( rapid move to begin. )
G01 F300.00000
G01 Z-0.10808
G04 P0 ( dwell for no time -- G64 should not smooth over this point )
G01 F600.00000
G01 X-48.00178 Y104.71314Z-0.10808
G01 X-48.00178 Y105.71314Z-0.10965
G01 X-48.01872 Y105.87953Z-0.10987
G01 X-48.07526 Y106.05886Z-0.11002
G01 X-48.17072 Y106.22088Z-0.11006
G01 X-48.28303 Y106.34481Z-0.10999
G01 X-48.43612 Y106.45400Z-0.10981
G01 X-48.58913 Y106.52154Z-0.10957
G01 X-48.76294 Y106.55847Z-0.10922
G01 X-48.94064 Y106.55847Z-0.10881
G01 X-49.11445 Y106.52154Z-0.10836
G01 X-49.26746 Y106.45400Z-0.10790
G01 X-49.41242 Y106.35139Z-0.10740
G01 X-49.53945 Y106.21276Z-0.10689
G01 X-49.62829 Y106.05886Z-0.10644
G01 X-49.68321 Y105.88987Z-0.10605
G01 X-49.70124 Y105.72360Z-0.10575
G01 X-49.70178 Y104.71314Z-0.10415
G01 X-49.68486 Y104.54674Z-0.10393
G01 X-49.62829 Y104.36742Z-0.10378
G01 X-49.53287 Y104.20539Z-0.10374
G01 X-49.42794 Y104.08886Z-0.10380
G01 X-49.28557 Y103.98271Z-0.10396
G01 X-49.11445 Y103.90473Z-0.10424
G01 X-48.93018 Y103.86724Z-0.10460
G01 X-48.76294 Y103.86780Z-0.10499
G01 X-48.58913 Y103.90473Z-0.10545
G01 X-48.41801 Y103.98271Z-0.10597
G01 X-48.27562 Y104.08886Z-0.10646
G01 X-48.16411 Y104.21352Z-0.10691
G01 X-48.07526 Y104.36742Z-0.10736
G01 X-48.02307 Y104.52630Z-0.10773
G01 X-48.00178 Y104.71314Z-0.10808
G04 P0 ( dwell for no time -- G64 should not smooth over this point )
G00 Z5.00000 ( retract )

G00 X-50.54178 Y104.71314 ( rapid move to begin. )
G01 F300.00000
G01 Z-0.10222
G04 P0 ( dwell for no time -- G64 should not smooth over this point )
G01 F600.00000
G01 X-50.54178 Y104.71314Z-0.10222
G01 X-50.54178 Y105.71314Z-0.10379
G01 X-50.55872 Y105.87953Z-0.10401
G01 X-50.61526 Y106.05886Z-0.10416
G01 X-50.71072 Y106.22088Z-0.10420
G01 X-50.83116 Y106.35139Z-0.10413
G01 X-50.97612 Y106.45400Z-0.10395
G01 X-51.12913 Y106.52154Z-0.10371
G01 X-51.30294 Y106.55847Z-0.10336
G01 X-51.48064 Y106.55847Z-0.10295
G01 X-51.65445 Y106.52154Z-0.10249
G01 X-51.80746 Y106.45400Z-0.10204
G01 X-51.95242 Y106.35139Z-0.10154
G01 X-52.07945 Y106.21276Z-0.10103
G01 X-52.16829 Y106.05886Z-0.10058
G01 X-52.22321 Y105.88987Z-0.10018
G01 X-52.24124 Y105.72360Z-0.09987
G01 X-52.24178 Y104.71314Z-0.09828
G01 X-52.22486 Y104.54674Z-0.09806
G01 X-52.16829 Y104.36742Z-0.09792
G01 X-52.07287 Y104.20539Z-0.09788
G01 X-51.96055 Y104.08147Z-0.09795
G01 X-51.82557 Y103.98271Z-0.09810
G01 X-51.65445 Y103.90473Z-0.09838
G01 X-51.47018 Y103.86724Z-0.09874
G01 X-51.30294 Y103.86780Z-0.09913
G01 X-51.12913 Y103.90473Z-0.09959
G01 X-50.95801 Y103.98271Z-0.10010
G01 X-50.81562 Y104.08886Z-0.10060
G01 X-50.70411 Y104.21352Z-0.10105
G01 X-50.61526 Y104.36742Z-0.10150
G01 X-50.56307 Y104.52630Z-0.10187
G01 X-50.54178 Y104.71314Z-0.10222
G04 P0 ( dwell for no time -- G64 should not smooth over this point )
G00 Z5.00000 ( retract )

G00 X-83.80890 Y100.92082 ( rapid move to begin. )
G01 F300.00000
G01 Z-0.05124
G04 P0 ( dwell for no time -- G64 should not smooth over this point )
G01 F600.00000
G01 X-83.80890 Y100.92082Z-0.05124
G01 X-83.85015 Y100.72676Z-0.05097
G01 X-83.92437 Y100.56542Z-0.05081
G01 X-84.01652 Y100.43857Z-0.05075
G01 X-84.15518 Y100.31155Z-0.05077
G01 X-84.31883 Y100.21894Z-0.05090
G01 X-84.46795 Y100.17050Z-0.05108
G01 X-84.64433 Y100.14975Z-0.05135
G01 X-85.66523 Y100.14975Z-0.05316
G01 X-85.84163 Y100.17050Z-0.05350
G01 X-86.00983 Y100.22745Z-0.05389
G01 X-86.15441 Y100.31155Z-0.05428
G01 X-86.29304 Y100.43857Z-0.05471
G01 X-86.39566 Y100.58353Z-0.05511
G01 X-86.46320 Y100.73654Z-0.05546
G01 X-86.50013 Y100.91035Z-0.05579
G01 X-86.50013 Y101.08805Z-0.05606
G01 X-86.45944 Y101.27164Z-0.05627
G01 X-86.38522 Y101.43298Z-0.05639
G01 X-86.29304 Y101.55983Z-0.05643
G01 X-86.15441 Y101.68688Z-0.05640
G01 X-85.99073 Y101.77946Z-0.05628
G01 X-85.83152 Y101.83065Z-0.05611
G01 X-85.65479 Y101.84921Z-0.05585
G01 X-84.64433 Y101.84865Z-0.05422
G01 X-84.47806 Y101.83065Z-0.05392
G01 X-84.29973 Y101.77098Z-0.05353
G01 X-84.14705 Y101.68028Z-0.05313
G01 X-84.02312 Y101.56796Z-0.05273
G01 X-83.92437 Y101.43298Z-0.05233
G01 X-83.85015 Y101.27164Z-0.05193
G01 X-83.80946 Y101.08805Z-0.05153
G01 X-83.80890 Y100.92082Z-0.05124
G04 P0 ( dwell for no time -- G64 should not smooth over this point )
G00 Z5.00000 ( retract )

G00 X-83.80890 Y98.38082 ( rapid move to begin. )
G01 F300.00000
G01 Z-0.04796
G04 P0 ( dwell for no time -- G64 should not smooth over this point )
G01 F600.00000
G01 X-83.80890 Y98.38082Z-0.04796
G01 X-83.84367 Y98.20665Z-0.04794
G01 X-83.92437 Y98.02542Z-0.04801
G01 X-84.02312 Y97.89045Z-0.04813
G01 X-84.14705 Y97.77813Z-0.04831
G01 X-84.30907 Y97.68270Z-0.04858
G01 X-84.46795 Y97.63050Z-0.04886
G01 X-84.64433 Y97.60975Z-0.04919
G01 X-85.66523 Y97.60975Z-0.05115
G01 X-85.84163 Y97.63050Z-0.05149
G01 X-86.00051 Y97.68270Z-0.05182
G01 X-86.14562 Y97.76583Z-0.05213
G01 X-86.28646 Y97.89045Z-0.05244
G01 X-86.38522 Y98.02542Z-0.05268
G01 X-86.46320 Y98.19654Z-0.05290
G01 X-86.50013 Y98.37035Z-0.05303
G01 X-86.50013 Y98.54805Z-0.05310
G01 X-86.46320 Y98.72186Z-0.05309
G01 X-86.38522 Y98.89298Z-0.05301
G01 X-86.28646 Y99.02796Z-0.05288
G01 X-86.16254 Y99.14028Z-0.05269
G01 X-86.00051 Y99.23573Z-0.05243
G01 X-85.84163 Y99.28793Z-0.05216
G01 X-85.66523 Y99.30865Z-0.05184
G01 X-84.64433 Y99.30865Z-0.04995
G01 X-84.46795 Y99.28793Z-0.04962
G01 X-84.30907 Y99.23573Z-0.04930
G01 X-84.16394 Y99.15257Z-0.04899
G01 X-84.02312 Y99.02796Z-0.04867
G01 X-83.92437 Y98.89298Z-0.04843
G01 X-83.85015 Y98.73164Z-0.04821
G01 X-83.80946 Y98.54805Z-0.04804
G01 X-83.80890 Y98.38082Z-0.04796
G04 P0 ( dwell for no time -- G64 should not smooth over this point )
G00 Z5.00000 ( retract )

G00 X-83.80890 Y95.84082 ( rapid move to begin. )
G01 F300.00000
G01 Z-0.04673
G04 P0 ( dwell for no time -- G64 should not smooth over this point )
G01 F600.00000
G01 X-83.80890 Y95.84082Z-0.04673
G01 X-83.84367 Y95.66665Z-0.04671
G01 X-83.92437 Y95.48542Z-0.04679
G01 X-84.01652 Y95.35857Z-0.04691
G01 X-84.14705 Y95.23813Z-0.04712
G01 X-84.30907 Y95.14270Z-0.04740
G01 X-84.46795 Y95.09050Z-0.04770
G01 X-84.64433 Y95.06975Z-0.04804
G01 X-85.66523 Y95.06975Z-0.05011
G01 X-85.84163 Y95.09050Z-0.05047
G01 X-86.00051 Y95.14270Z-0.05082
G01 X-86.15441 Y95.23155Z-0.05116
G01 X-86.29304 Y95.35857Z-0.05149
G01 X-86.39566 Y95.50353Z-0.05175
G01 X-86.46320 Y95.65654Z-0.05194
G01 X-86.49850 Y95.82002Z-0.05207
G01 X-86.50069 Y95.99761Z-0.05215
G01 X-86.46320 Y96.18186Z-0.05214
G01 X-86.38522 Y96.35298Z-0.05205
G01 X-86.28646 Y96.48796Z-0.05191
G01 X-86.16254 Y96.60028Z-0.05171
G01 X-86.00051 Y96.69573Z-0.05143
G01 X-85.84163 Y96.74793Z-0.05114
G01 X-85.66523 Y96.76865Z-0.05080
G01 X-84.64433 Y96.76865Z-0.04881
G01 X-84.46795 Y96.74793Z-0.04846
G01 X-84.30907 Y96.69573Z-0.04812
G01 X-84.16394 Y96.61257Z-0.04780
G01 X-84.02312 Y96.48796Z-0.04746
G01 X-83.92437 Y96.35298Z-0.04720
G01 X-83.85015 Y96.19164Z-0.04698
G01 X-83.81108 Y96.01839Z-0.04682
G01 X-83.80890 Y95.84082Z-0.04673
G04 P0 ( dwell for no time -- G64 should not smooth over this point )
G00 Z5.00000 ( retract )

G00 X-83.80890 Y93.30082 ( rapid move to begin. )
G01 F300.00000
G01 Z-0.04550
G04 P0 ( dwell for no time -- G64 should not smooth over this point )
G01 F600.00000
G01 X-83.80890 Y93.30082Z-0.04550
G01 X-83.84367 Y93.12665Z-0.04548
G01 X-83.92437 Y92.94542Z-0.04557
G01 X-84.01652 Y92.81857Z-0.04570
G01 X-84.14705 Y92.69813Z-0.04592
G01 X-84.30907 Y92.60270Z-0.04622
G01 X-84.46795 Y92.55050Z-0.04653
G01 X-84.64433 Y92.52975Z-0.04690
G01 X-85.66523 Y92.52975Z-0.04907
G01 X-85.84163 Y92.55050Z-0.04945
G01 X-86.00051 Y92.60270Z-0.04981
G01 X-86.15441 Y92.69155Z-0.05018
G01 X-86.29304 Y92.81857Z-0.05052
G01 X-86.39566 Y92.96353Z-0.05079
G01 X-86.46320 Y93.11654Z-0.05099
G01 X-86.49850 Y93.28002Z-0.05113
G01 X-86.50069 Y93.45761Z-0.05120
G01 X-86.46320 Y93.64186Z-0.05119
G01 X-86.38522 Y93.81298Z-0.05109
G01 X-86.28646 Y93.94796Z-0.05094
G01 X-86.16254 Y94.06028Z-0.05072
G01 X-86.00051 Y94.15573Z-0.05043
G01 X-85.84163 Y94.20793Z-0.05012
G01 X-85.66523 Y94.22865Z-0.04977
G01 X-84.64433 Y94.22865Z-0.04766
G01 X-84.46795 Y94.20793Z-0.04729
G01 X-84.30907 Y94.15573Z-0.04694
G01 X-84.16394 Y94.07257Z-0.04660
G01 X-84.02312 Y93.94796Z-0.04625
G01 X-83.92437 Y93.81298Z-0.04598
G01 X-83.85015 Y93.65164Z-0.04575
G01 X-83.81108 Y93.47839Z-0.04559
G01 X-83.80890 Y93.30082Z-0.04550
G04 P0 ( dwell for no time -- G64 should not smooth over this point )
G00 Z5.00000 ( retract )

G00 X-130.97078 Y113.99082 ( rapid move to begin. )
G01 F300.00000
G01 Z-0.11826
G04 P0 ( dwell for no time -- G64 should not smooth over this point )
G01 F600.00000
G01 X-130.97078 Y113.99082Z-0.11826
G01 X-131.00006 Y113.92011Z-0.11811
G01 X-131.07078 Y113.89082Z-0.11794
G01 X-132.62579 Y113.89082Z-0.11497
G01 X-132.63108 Y113.18193Z-0.11409
G01 X-132.65663 Y113.09770Z-0.11394
G01 X-132.72170 Y113.00030Z-0.11370
G01 X-132.78975 Y112.94444Z-0.11351
G01 X-132.91721 Y112.89580Z-0.11321
G01 X-133.41162 Y112.89052Z-0.11229
G01 X-136.94714 Y109.35497Z-0.10219 ;segmented line. Max segment length set to 5
G01 X-136.99218 Y109.30993Z-0.10207
G01 X-136.99218 Y104.30993Z-0.09709 ;segmented line. Max segment length set to 5
G01 X-136.99218 Y99.30993Z-0.09213 ;segmented line. Max segment length set to 5
G01 X-136.99218 Y98.06748Z-0.09232
G01 X-134.69061 Y95.75845Z-0.09497
G01 X-134.64913 Y95.68080Z-0.09502
G01 X-134.62627 Y95.56591Z-0.09505
G01 X-134.62579 Y94.90582Z-0.09508
G01 X-133.37578 Y94.90582Z-0.09630
G01 X-133.30506 Y94.87653Z-0.09636
G01 X-133.27578 Y94.80582Z-0.09639
G01 X-133.28340 Y91.56755Z-0.09637
G01 X-133.32023 Y91.52267Z-0.09633
G01 X-133.37578 Y91.50580Z-0.09629
G01 X-134.62579 Y91.50580Z-0.09525
G01 X-134.62579 Y89.82582Z-0.09534
G01 X-133.37578 Y89.82582Z-0.09629
G01 X-133.30506 Y89.79653Z-0.09634
G01 X-133.27771 Y89.74533Z-0.09636
G01 X-133.28340 Y86.48755Z-0.09634
G01 X-133.32023 Y86.44267Z-0.09631
G01 X-133.37578 Y86.42580Z-0.09628
G01 X-136.59530 Y86.42773Z-0.09429
G01 X-136.64651 Y86.45509Z-0.09425
G01 X-136.67580 Y86.52580Z-0.09423
G01 X-136.67387 Y89.74533Z-0.09379
G01 X-136.64651 Y89.79653Z-0.09381
G01 X-136.57580 Y89.82582Z-0.09386
G01 X-135.32579 Y89.82582Z-0.09480
G01 X-135.32579 Y91.50580Z-0.09467
G01 X-136.57580 Y91.50580Z-0.09364
G01 X-136.63135 Y91.52267Z-0.09359
G01 X-136.66818 Y91.56755Z-0.09355
G01 X-136.67387 Y94.82533Z-0.09311
G01 X-136.64651 Y94.87653Z-0.09313
G01 X-136.57580 Y94.90582Z-0.09319
G01 X-135.32579 Y94.90582Z-0.09440
G01 X-135.32579 Y95.41115Z-0.09436
G01 X-137.58966 Y97.67503Z-0.09173
G01 X-137.66134 Y97.77970Z-0.09163
G01 X-137.68689 Y97.86393Z-0.09159
G01 X-137.68526 Y102.86393Z-0.09473 ;segmented line. Max segment length set to 5
G01 X-137.68363 Y107.86393Z-0.09953 ;segmented line. Max segment length set to 5
G01 X-137.68308 Y109.53271Z-0.10113
G01 X-137.63825 Y109.64094Z-0.10131
G01 X-137.58966 Y109.70239Z-0.10145
G01 X-134.05414 Y113.23793Z-0.11149 ;segmented line. Max segment length set to 5
G01 X-133.80407 Y113.48800Z-0.11225
G01 X-133.74263 Y113.53657Z-0.11242
G01 X-133.63440 Y113.58140Z-0.11268
G01 X-133.32579 Y113.59052Z-0.11327
G01 X-133.32579 Y113.89082Z-0.11363
G01 X-134.88078 Y113.89082Z-0.11066
G01 X-134.93635 Y113.90766Z-0.11057
G01 X-134.97318 Y113.95254Z-0.11055
G01 X-134.98078 Y117.80082Z-0.11477
G01 X-134.97318 Y117.83907Z-0.11483
G01 X-134.93635 Y117.88395Z-0.11496
G01 X-134.88078 Y117.90082Z-0.11509
G01 X-131.07078 Y117.90082Z-0.12316
G01 X-131.00006 Y117.87151Z-0.12327
G01 X-130.97078 Y117.80082Z-0.12324
G01 X-130.97078 Y113.99082Z-0.11826
G04 P0 ( dwell for no time -- G64 should not smooth over this point )
G00 Z5.00000 ( retract )

G00 X-117.70891 Y98.38082 ( rapid move to begin. )
G01 F300.00000
G01 Z-0.11376
G04 P0 ( dwell for no time -- G64 should not smooth over this point )
G01 F600.00000
G01 X-117.70891 Y98.38082Z-0.11376
G01 X-117.75013 Y98.18676Z-0.11359
G01 X-117.81866 Y98.03421Z-0.11342
G01 X-117.91652 Y97.89857Z-0.11322
G01 X-118.05516 Y97.77155Z-0.11299
G01 X-118.21884 Y97.67894Z-0.11275
G01 X-118.36796 Y97.63050Z-0.11256
G01 X-118.54434 Y97.60975Z-0.11235
G01 X-119.56524 Y97.60975Z-0.11125
G01 X-119.74162 Y97.63050Z-0.11107
G01 X-119.90984 Y97.68745Z-0.11092
G01 X-120.05439 Y97.77155Z-0.11081
G01 X-120.19305 Y97.89857Z-0.11073
G01 X-120.29567 Y98.04353Z-0.11070
G01 X-120.36318 Y98.19654Z-0.11070
G01 X-120.39849 Y98.36002Z-0.11075
G01 X-120.40067 Y98.53761Z-0.11085
G01 X-120.35945 Y98.73164Z-0.11100
G01 X-120.29567 Y98.87487Z-0.11115
G01 X-120.19305 Y99.01983Z-0.11134
G01 X-120.05439 Y99.14688Z-0.11157
G01 X-119.89074 Y99.23946Z-0.11181
G01 X-119.72117 Y99.29227Z-0.11204
G01 X-119.55480 Y99.30921Z-0.11224
G01 X-118.54434 Y99.30865Z-0.11340
G01 X-118.36796 Y99.28793Z-0.11359
G01 X-118.19973 Y99.23098Z-0.11375
G01 X-118.05516 Y99.14688Z-0.11387
G01 X-117.93052 Y99.03538Z-0.11394
G01 X-117.81866 Y98.88422Z-0.11397
G01 X-117.75013 Y98.73164Z-0.11394
G01 X-117.70944 Y98.54805Z-0.11387
G01 X-117.70891 Y98.38082Z-0.11376
G04 P0 ( dwell for no time -- G64 should not smooth over this point )
G00 Z5.00000 ( retract )

G00 X-117.70891 Y95.84082 ( rapid move to begin. )
G01 F300.00000
G01 Z-0.11211
G04 P0 ( dwell for no time -- G64 should not smooth over this point )
G01 F600.00000
G01 X-117.70891 Y95.84082Z-0.11211
G01 X-117.75013 Y95.64676Z-0.11194
G01 X-117.81866 Y95.49421Z-0.11177
G01 X-117.91652 Y95.35857Z-0.11159
G01 X-118.05516 Y95.23155Z-0.11137
G01 X-118.21884 Y95.13894Z-0.11115
G01 X-118.36796 Y95.09050Z-0.11097
G01 X-118.54434 Y95.06975Z-0.11079
G01 X-119.56524 Y95.06975Z-0.10979
G01 X-119.74162 Y95.09050Z-0.10963
G01 X-119.90984 Y95.14745Z-0.10950
G01 X-120.05439 Y95.23155Z-0.10940
G01 X-120.19305 Y95.35857Z-0.10933
G01 X-120.29567 Y95.50353Z-0.10931
G01 X-120.36318 Y95.65654Z-0.10933
G01 X-120.39849 Y95.82002Z-0.10938
G01 X-120.40067 Y95.99761Z-0.10947
G01 X-120.35945 Y96.19164Z-0.10962
G01 X-120.29567 Y96.33487Z-0.10976
G01 X-120.19305 Y96.47983Z-0.10995
G01 X-120.05439 Y96.60688Z-0.11016
G01 X-119.89074 Y96.69946Z-0.11039
G01 X-119.72117 Y96.75227Z-0.11059
G01 X-119.55480 Y96.76921Z-0.11078
G01 X-118.54434 Y96.76865Z-0.11184
G01 X-118.36796 Y96.74793Z-0.11201
G01 X-118.19973 Y96.69098Z-0.11215
G01 X-118.05516 Y96.60688Z-0.11224
G01 X-117.93052 Y96.49538Z-0.11230
G01 X-117.81866 Y96.34422Z-0.11232
G01 X-117.75013 Y96.19164Z-0.11229
G01 X-117.70944 Y96.00805Z-0.11221
G01 X-117.70891 Y95.84082Z-0.11211
G04 P0 ( dwell for no time -- G64 should not smooth over this point )
G00 Z5.00000 ( retract )

G00 X-117.70891 Y88.22082 ( rapid move to begin. )
G01 F300.00000
G01 Z-0.10713
G04 P0 ( dwell for no time -- G64 should not smooth over this point )
G01 F600.00000
G01 X-117.70891 Y88.22082Z-0.10713
