( pcb2gcode 1.3.2 )
( Software-independent Gcode )

G94 ( Millimeters per minute feed rate. )
G21 ( Units == Millimeters. )

G90 ( Absolute coordinates. )
G00 S10000 ( RPM spindle speed. )
G64 P0.01000 ( set maximum deviation from commanded toolpath )
G01 F600.00000 ( Feedrate. )

G01 F600.00000 ( Feedrate. )
M3 ( Spindle on clockwise. )
G04 P1.00000
G04 P0 ( dwell for no time -- G64 should not smooth over this point )
G00 Z5.00000 ( retract )

G00 X-10.68740 Y131.21222 ( rapid move to begin. )
G01 F300.00000
G01 Z-0.14000
G04 P0 ( dwell for no time -- G64 should not smooth over this point )
G01 F600.00000
G01 X-10.68740 Y131.21222
G01 X-10.68959 Y131.42020
G01 X-10.73119 Y131.61339
G01 X-10.81107 Y131.79416
G01 X-10.93815 Y131.97184
G01 X-11.10157 Y132.11677
G01 X-11.27300 Y132.21512
G01 X-11.46078 Y132.27671
G01 X-11.67785 Y132.30115
G01 X-13.46855 Y132.30115
G01 X-13.68559 Y132.27671
G01 X-13.88270 Y132.21037
G01 X-14.06172 Y132.10447
G01 X-14.21480 Y131.96368
G01 X-14.33052 Y131.80348
G01 X-14.39689 Y131.65581
G01 X-25.99550 Y131.65581
G01 X-25.99547 Y139.44744
G01 X-24.46914 Y140.98668
G01 X-24.43853 Y141.04802
G01 X-24.41567 Y141.16290
G01 X-24.41519 Y141.90184
G01 X-24.32540 Y141.94421
G01 X-24.19652 Y142.03783
G01 X-24.06210 Y142.18711
G01 X-23.97772 Y142.33440
G01 X-23.92474 Y142.49569
G01 X-23.90320 Y142.68500
G01 X-23.90320 Y144.20900
G01 X-23.92040 Y144.37788
G01 X-23.97772 Y144.55962
G01 X-24.07440 Y144.72380
G01 X-24.19652 Y144.85619
G01 X-24.32540 Y144.94981
G01 X-24.41519 Y144.99218
G01 X-24.41519 Y145.72131
G01 X-24.43853 Y145.84600
G01 X-24.51770 Y145.96878
G01 X-25.23731 Y146.68839
G01 X-25.34198 Y146.76007
G01 X-25.47498 Y146.79042
G01 X-129.61170 Y146.79042
G01 X-129.74470 Y146.76007
G01 X-129.84937 Y146.68839
G01 X-135.87867 Y140.65909
G01 X-135.95035 Y140.55442
G01 X-135.98070 Y140.42140
G01 X-135.98118 Y131.29310
G01 X-135.95035 Y131.15030
G01 X-135.87867 Y131.04562
G01 X-127.70579 Y122.87272
G01 X-127.70579 Y108.21809
G01 X-127.91457 Y108.12273
G01 X-128.09184 Y107.99327
G01 X-128.25140 Y107.81359
G01 X-128.36067 Y107.62322
G01 X-128.43174 Y107.40452
G01 X-128.45524 Y107.18626
G01 X-128.43174 Y106.94709
G01 X-128.36443 Y106.73818
G01 X-128.25140 Y106.53803
G01 X-128.09184 Y106.35835
G01 X-127.89646 Y106.21842
G01 X-127.69570 Y106.12965
G01 X-127.48110 Y106.08347
G01 X-127.25125 Y106.08129
G01 X-127.01547 Y106.12977
G01 X-126.87023 Y106.19528
G01 X-124.44570 Y103.77143
G01 X-124.34829 Y103.70636
G01 X-124.26406 Y103.68081
G01 X-123.53884 Y103.67550
G01 X-121.40509 Y101.54172
G01 X-121.39597 Y93.30140
G01 X-121.35114 Y93.19317
G01 X-121.29531 Y93.12513
G01 X-121.24113 Y93.08314
G01 X-121.13288 Y93.03831
G01 X-120.32490 Y93.02922
G01 X-120.28520 Y92.94542
G01 X-120.19305 Y92.81857
G01 X-120.05439 Y92.69155
G01 X-119.89074 Y92.59894
G01 X-119.74162 Y92.55050
G01 X-119.56524 Y92.52975
G01 X-118.54434 Y92.52975
G01 X-118.36796 Y92.55050
G01 X-118.21884 Y92.59894
G01 X-118.06395 Y92.68583
G01 X-117.91652 Y92.81857
G01 X-117.81866 Y92.95421
G01 X-117.75013 Y93.10676
G01 X-117.70891 Y93.30082
G01 X-117.70944 Y93.46805
G01 X-117.74368 Y93.63175
G01 X-117.82437 Y93.81298
G01 X-117.93052 Y93.95538
G01 X-118.05516 Y94.06688
G01 X-118.19973 Y94.15098
G01 X-118.36796 Y94.20793
G01 X-118.55478 Y94.22921
G01 X-119.55480 Y94.22921
G01 X-119.74162 Y94.20793
G01 X-119.90984 Y94.15098
G01 X-120.06255 Y94.06028
G01 X-120.19305 Y93.93983
G01 X-120.28520 Y93.81298
G01 X-120.32490 Y93.72921
G01 X-120.70509 Y93.72921
G01 X-120.71421 Y101.76450
G01 X-120.75904 Y101.87273
G01 X-120.80760 Y101.93420
G01 X-122.89891 Y104.02551
G01 X-117.88434 Y109.04008
G01 X-117.73911 Y108.97457
G01 X-117.52409 Y108.92827
G01 X-117.27347 Y108.92827
G01 X-117.05887 Y108.97445
G01 X-116.85811 Y109.06322
G01 X-116.65534 Y109.21054
G01 X-116.50317 Y109.38283
G01 X-116.39865 Y109.56388
G01 X-116.32118 Y109.80223
G01 X-116.29880 Y110.02060
G01 X-116.32118 Y110.23899
G01 X-116.39390 Y110.46802
G01 X-116.51546 Y110.67531
G01 X-116.67088 Y110.84465
G01 X-116.84879 Y110.97325
G01 X-117.06898 Y111.06949
G01 X-117.29425 Y111.11513
G01 X-117.50332 Y111.11513
G01 X-117.72859 Y111.06949
G01 X-117.94878 Y110.97325
G01 X-118.12668 Y110.84465
G01 X-118.28211 Y110.67531
G01 X-118.39895 Y110.47734
G01 X-118.47639 Y110.23899
G01 X-118.49879 Y110.02060
G01 X-118.47639 Y109.80223
G01 X-118.38119 Y109.53317
G01 X-123.53887 Y104.37550
G01 X-124.06051 Y104.37550
G01 X-126.37338 Y106.68837
G01 X-126.27983 Y106.94709
G01 X-126.25634 Y107.16536
G01 X-126.27983 Y107.40452
G01 X-126.34714 Y107.61344
G01 X-126.46586 Y107.82238
G01 X-126.61973 Y107.99327
G01 X-126.79700 Y108.12273
G01 X-127.00579 Y108.21809
G01 X-127.00579 Y123.01770
G01 X-127.02913 Y123.14241
G01 X-127.10830 Y123.26520
G01 X-135.28118 Y131.43808
G01 X-135.28118 Y140.26664
G01 X-129.45691 Y146.09091
G01 X-25.62977 Y146.09091
G01 X-25.11519 Y145.57633
G01 X-25.11521 Y144.99218
G01 X-25.20498 Y144.94981
G01 X-25.33386 Y144.85619
G01 X-25.46827 Y144.70691
G01 X-25.55265 Y144.55962
G01 X-25.60564 Y144.39833
G01 X-25.62720 Y144.20900
G01 X-25.62720 Y142.68500
G01 X-25.60998 Y142.51614
G01 X-25.55265 Y142.33440
G01 X-25.45598 Y142.17021
G01 X-25.33386 Y142.03783
G01 X-25.20498 Y141.94421
G01 X-25.11521 Y141.90184
G01 X-25.11519 Y141.31769
G01 X-26.59298 Y139.83989
G01 X-26.66464 Y139.73522
G01 X-26.69019 Y139.65099
G01 X-26.69550 Y131.65581
G01 X-27.07124 Y131.65581
G01 X-27.11638 Y131.75581
G01 X-27.22036 Y131.89990
G01 X-27.35864 Y132.02733
G01 X-27.52039 Y132.12324
G01 X-27.70868 Y132.18614
G01 X-27.89578 Y132.20582
G01 X-28.69580 Y132.20582
G01 X-28.87256 Y132.18779
G01 X-29.05208 Y132.13175
G01 X-29.22480 Y132.03391
G01 X-29.37121 Y131.89990
G01 X-29.47520 Y131.75581
G01 X-29.55445 Y131.57382
G01 X-29.59140 Y131.38944
G01 X-29.59140 Y131.22218
G01 X-29.55445 Y131.03780
G01 X-29.47520 Y130.85581
G01 X-29.35722 Y130.69620
G01 X-29.22480 Y130.57771
G01 X-29.07119 Y130.48837
G01 X-28.87256 Y130.42383
G01 X-28.69580 Y130.40580
G01 X-27.89578 Y130.40580
G01 X-27.69854 Y130.42818
G01 X-27.52974 Y130.48362
G01 X-27.36677 Y130.57771
G01 X-27.22036 Y130.71172
G01 X-27.11638 Y130.85581
G01 X-27.07124 Y130.95581
G01 X-14.39689 Y130.95581
G01 X-14.32483 Y130.79935
G01 X-14.21480 Y130.64794
G01 X-14.06172 Y130.50714
G01 X-13.88270 Y130.40125
G01 X-13.67548 Y130.33221
G01 X-13.46855 Y130.31045
G01 X-11.67785 Y130.31045
G01 X-11.47089 Y130.33221
G01 X-11.27300 Y130.39650
G01 X-11.09279 Y130.50057
G01 X-10.94554 Y130.63239
G01 X-10.81107 Y130.81746
G01 X-10.73119 Y130.99823
G01 X-10.68740 Y131.21222
G04 P0 ( dwell for no time -- G64 should not smooth over this point )
G00 Z5.00000 ( retract )

G00 X-6.87578 Y118.60580 ( rapid move to begin. )
G01 F300.00000
G01 Z-0.14000
G04 P0 ( dwell for no time -- G64 should not smooth over this point )
G01 F600.00000
G01 X-6.87578 Y118.60580
G01 X-6.90252 Y118.36699
G01 X-6.97090 Y118.15840
G01 X-7.08586 Y117.95924
G01 X-7.24789 Y117.78177
G01 X-7.42579 Y117.65317
G01 X-7.62579 Y117.56353
G01 X-7.62579 Y87.55320
G01 X-7.64913 Y87.42852
G01 X-7.72830 Y87.30573
G01 X-28.18178 Y66.85226
G01 X-28.18178 Y58.22327
G01 X-28.09801 Y58.18357
G01 X-27.97116 Y58.09139
G01 X-27.85072 Y57.96088
G01 X-27.76001 Y57.80820
G01 X-27.70307 Y57.63998
G01 X-27.68178 Y57.45314
G01 X-27.68234 Y56.44267
G01 X-27.70037 Y56.27641
G01 X-27.76001 Y56.09810
G01 X-27.83842 Y55.96231
G01 X-27.95562 Y55.82886
G01 X-28.09801 Y55.72271
G01 X-28.25935 Y55.64849
G01 X-28.44294 Y55.60780
G01 X-28.62064 Y55.60780
G01 X-28.79445 Y55.64473
G01 X-28.94746 Y55.71227
G01 X-29.09242 Y55.81489
G01 X-29.22516 Y55.96231
G01 X-29.31205 Y56.11717
G01 X-29.36049 Y56.26630
G01 X-29.38178 Y56.45314
G01 X-29.38178 Y57.45314
G01 X-29.36049 Y57.63998
G01 X-29.30354 Y57.80820
G01 X-29.21287 Y57.96088
G01 X-29.09242 Y58.09139
G01 X-28.96557 Y58.18357
G01 X-28.88180 Y58.22324
G01 X-28.88178 Y66.99721
G01 X-28.87268 Y67.07501
G01 X-28.82785 Y67.18324
G01 X-8.32579 Y87.69816
G01 X-8.32579 Y117.56353
G01 X-8.51646 Y117.64842
G01 X-8.70369 Y117.78177
G01 X-8.86571 Y117.95924
G01 X-8.98067 Y118.15840
G01 X-9.04905 Y118.36699
G01 X-9.07580 Y118.60580
G01 X-9.04905 Y118.84463
G01 X-8.98067 Y119.05322
G01 X-8.86571 Y119.25238
G01 X-8.71923 Y119.41588
G01 X-8.51646 Y119.56320
G01 X-8.30559 Y119.65469
G01 X-8.08032 Y119.70033
G01 X-7.86081 Y119.69977
G01 X-7.62609 Y119.64821
G01 X-7.42579 Y119.55845
G01 X-7.23234 Y119.41588
G01 X-7.08586 Y119.25238
G01 X-6.97090 Y119.05322
G01 X-6.90252 Y118.84463
G01 X-6.87578 Y118.60580
G04 P0 ( dwell for no time -- G64 should not smooth over this point )
G00 Z5.00000 ( retract )

G00 X-11.95634 Y113.51536 ( rapid move to begin. )
G01 F300.00000
G01 Z-0.14000
G04 P0 ( dwell for no time -- G64 should not smooth over this point )
G01 F600.00000
G01 X-11.95634 Y113.51536
G01 X-11.97818 Y113.74419
G01 X-12.05090 Y113.97322
G01 X-12.16586 Y114.17238
G01 X-12.31234 Y114.33588
G01 X-12.51511 Y114.48320
G01 X-12.71587 Y114.57197
G01 X-12.95125 Y114.62033
G01 X-13.18110 Y114.61815
G01 X-13.39570 Y114.57197
G01 X-13.59646 Y114.48320
G01 X-13.78369 Y114.34985
G01 X-13.95140 Y114.16359
G01 X-14.06067 Y113.97322
G01 X-14.13339 Y113.74419
G01 X-14.15580 Y113.52580
G01 X-14.13339 Y113.30743
G01 X-14.05592 Y113.06908
G01 X-13.94571 Y112.87924
G01 X-13.79923 Y112.71574
G01 X-13.61457 Y112.57888
G01 X-13.40579 Y112.48353
G01 X-13.40579 Y104.71908
G01 X-31.31926 Y86.80561
G01 X-31.39846 Y86.68280
G01 X-31.42178 Y86.55811
G01 X-31.42180 Y58.22324
G01 X-31.50557 Y58.18357
G01 X-31.63242 Y58.09139
G01 X-31.75287 Y57.96088
G01 X-31.84354 Y57.80820
G01 X-31.90049 Y57.63998
G01 X-31.92178 Y57.45314
G01 X-31.92178 Y56.45314
G01 X-31.90049 Y56.26630
G01 X-31.85205 Y56.11717
G01 X-31.76516 Y55.96231
G01 X-31.63242 Y55.81489
G01 X-31.48746 Y55.71227
G01 X-31.33445 Y55.64473
G01 X-31.16064 Y55.60780
G01 X-30.98294 Y55.60780
G01 X-30.80913 Y55.64473
G01 X-30.63801 Y55.72271
G01 X-30.49562 Y55.82886
G01 X-30.37842 Y55.96231
G01 X-30.30001 Y56.09810
G01 X-30.24037 Y56.27641
G01 X-30.22178 Y56.45314
G01 X-30.22178 Y57.45314
G01 X-30.24307 Y57.63998
G01 X-30.30001 Y57.80820
G01 X-30.39072 Y57.96088
G01 X-30.51116 Y58.09139
G01 X-30.63801 Y58.18357
G01 X-30.72178 Y58.22327
G01 X-30.72178 Y86.41313
G01 X-12.77061 Y104.37179
G01 X-12.72913 Y104.44941
G01 X-12.70579 Y104.57410
G01 X-12.70579 Y112.48353
G01 X-12.51511 Y112.56842
G01 X-12.32789 Y112.70177
G01 X-12.16586 Y112.87924
G01 X-12.04714 Y113.08818
G01 X-11.98252 Y113.28699
G01 X-11.95634 Y113.51536
G04 P0 ( dwell for no time -- G64 should not smooth over this point )
G00 Z5.00000 ( retract )

G00 X-17.03578 Y118.60580 ( rapid move to begin. )
G01 F300.00000
G01 Z-0.14000
G04 P0 ( dwell for no time -- G64 should not smooth over this point )
G01 F600.00000
G01 X-17.03578 Y118.60580
G01 X-17.06252 Y118.36699
G01 X-17.13090 Y118.15840
G01 X-17.24017 Y117.96803
G01 X-17.39234 Y117.79574
G01 X-17.59511 Y117.64842
G01 X-17.80598 Y117.55693
G01 X-18.03125 Y117.51129
G01 X-18.25076 Y117.51184
G01 X-18.46559 Y117.55693
G01 X-18.69457 Y117.65888
G01 X-18.87923 Y117.79574
G01 X-19.01911 Y117.95111
G01 X-19.14067 Y118.15840
G01 X-19.17291 Y118.25581
G01 X-26.34549 Y118.25581
G01 X-26.48829 Y118.28665
G01 X-26.59298 Y118.35832
G01 X-34.11047 Y125.87581
G01 X-34.61578 Y125.87581
G01 X-34.61771 Y125.40629
G01 X-34.64509 Y125.35511
G01 X-34.69627 Y125.32773
G01 X-37.11580 Y125.32580
G01 X-37.17135 Y125.34266
G01 X-37.19893 Y125.37025
G01 X-37.21580 Y125.42580
G01 X-37.20818 Y127.06407
G01 X-37.17135 Y127.10895
G01 X-37.11580 Y127.12582
G01 X-34.69627 Y127.12389
G01 X-34.64509 Y127.09651
G01 X-34.61771 Y127.04533
G01 X-34.61578 Y126.57581
G01 X-33.95568 Y126.57533
G01 X-33.84080 Y126.55247
G01 X-33.76315 Y126.51099
G01 X-26.20050 Y118.95581
G01 X-19.17291 Y118.95581
G01 X-19.14067 Y119.05322
G01 X-19.02571 Y119.25238
G01 X-18.87923 Y119.41588
G01 X-18.69457 Y119.55273
G01 X-18.46559 Y119.65469
G01 X-18.25076 Y119.69977
G01 X-18.03125 Y119.70033
G01 X-17.80598 Y119.65469
G01 X-17.59511 Y119.56320
G01 X-17.39234 Y119.41588
G01 X-17.24017 Y119.24359
G01 X-17.13090 Y119.05322
G01 X-17.06252 Y118.84463
G01 X-17.03578 Y118.60580
G04 P0 ( dwell for no time -- G64 should not smooth over this point )
G00 Z5.00000 ( retract )

G00 X-22.11578 Y113.52580 ( rapid move to begin. )
G01 F300.00000
G01 Z-0.14000
G04 P0 ( dwell for no time -- G64 should not smooth over this point )
G01 F600.00000
G01 X-22.11578 Y113.52580
G01 X-22.13983 Y113.29709
G01 X-22.20714 Y113.08818
G01 X-22.32586 Y112.87924
G01 X-22.47234 Y112.71574
G01 X-22.67511 Y112.56842
G01 X-22.87587 Y112.47965
G01 X-23.11125 Y112.43129
G01 X-23.32032 Y112.43129
G01 X-23.54559 Y112.47693
G01 X-23.77457 Y112.57888
G01 X-23.95923 Y112.71574
G01 X-24.09911 Y112.87111
G01 X-24.22067 Y113.07840
G01 X-24.25291 Y113.17581
G01 X-35.50689 Y113.17581
G01 X-35.64971 Y113.20665
G01 X-35.75438 Y113.27832
G01 X-49.89146 Y127.41541
G01 X-57.18568 Y127.41541
G01 X-57.31040 Y127.43875
G01 X-57.38802 Y127.48025
G01 X-59.06097 Y129.15317
G01 X-59.10244 Y129.23082
G01 X-59.12530 Y129.34570
G01 X-59.12579 Y130.00580
G01 X-59.59531 Y130.00773
G01 X-59.63135 Y130.02266
G01 X-59.66818 Y130.06755
G01 X-59.66818 Y132.54407
G01 X-59.63135 Y132.58895
G01 X-59.57580 Y132.60582
G01 X-57.97578 Y132.60582
G01 X-57.92023 Y132.58895
G01 X-57.89264 Y132.56137
G01 X-57.87578 Y132.50582
G01 X-57.87771 Y130.08629
G01 X-57.90509 Y130.03511
G01 X-57.95627 Y130.00773
G01 X-58.42579 Y130.00580
G01 X-58.42579 Y129.50049
G01 X-57.04070 Y128.11540
G01 X-49.74648 Y128.11540
G01 X-49.62179 Y128.09206
G01 X-49.54414 Y128.05058
G01 X-35.36190 Y113.87581
G01 X-24.25291 Y113.87581
G01 X-24.22067 Y113.97322
G01 X-24.09911 Y114.18051
G01 X-23.95923 Y114.33588
G01 X-23.77457 Y114.47273
G01 X-23.54559 Y114.57469
G01 X-23.32032 Y114.62033
G01 X-23.11125 Y114.62033
G01 X-22.87587 Y114.57197
G01 X-22.67511 Y114.48320
G01 X-22.47234 Y114.33588
G01 X-22.32017 Y114.16359
G01 X-22.20714 Y113.96344
G01 X-22.13983 Y113.75452
G01 X-22.11578 Y113.52580
G04 P0 ( dwell for no time -- G64 should not smooth over this point )
G00 Z5.00000 ( retract )

G00 X-14.98178 Y104.71314 ( rapid move to begin. )
G01 F300.00000
G01 Z-0.14000
G04 P0 ( dwell for no time -- G64 should not smooth over this point )
G01 F600.00000
G01 X-14.98178 Y104.71314
G01 X-14.98178 Y105.71314
G01 X-14.99872 Y105.87953
G01 X-15.05526 Y106.05886
G01 X-15.15072 Y106.22088
G01 X-15.27116 Y106.35139
G01 X-15.40680 Y106.44925
G01 X-15.56913 Y106.52154
G01 X-15.75338 Y106.55903
G01 X-15.93098 Y106.55685
G01 X-16.09445 Y106.52154
G01 X-16.25678 Y106.44925
G01 X-16.39242 Y106.35139
G01 X-16.52516 Y106.20397
G01 X-16.60829 Y106.05886
G01 X-16.66486 Y105.87953
G01 X-16.68178 Y105.71314
G01 X-16.68124 Y104.70267
G01 X-16.66486 Y104.54674
G01 X-16.61205 Y104.37717
G01 X-16.52516 Y104.22231
G01 X-16.39242 Y104.07489
G01 X-16.25678 Y103.97702
G01 X-16.18178 Y103.94304
G01 X-16.18178 Y103.35780
G01 X-30.97707 Y88.56250
G01 X-67.92684 Y88.56250
G01 X-68.04017 Y88.76359
G01 X-68.20789 Y88.94985
G01 X-68.39511 Y89.08320
G01 X-68.58609 Y89.16821
G01 X-68.83125 Y89.22033
G01 X-69.05076 Y89.21977
G01 X-69.26559 Y89.17469
G01 X-69.47646 Y89.08320
G01 X-69.67923 Y88.93588
G01 X-69.82571 Y88.77238
G01 X-69.89744 Y88.64921
G01 X-83.88467 Y88.64921
G01 X-83.92437 Y88.73298
G01 X-84.01652 Y88.85983
G01 X-84.14705 Y88.98028
G01 X-84.30907 Y89.07573
G01 X-84.46795 Y89.12793
G01 X-84.65479 Y89.14921
G01 X-85.65479 Y89.14921
G01 X-85.84163 Y89.12793
G01 X-86.00051 Y89.07573
G01 X-86.16254 Y88.98028
G01 X-86.29304 Y88.85983
G01 X-86.38522 Y88.73298
G01 X-86.45944 Y88.57164
G01 X-86.49850 Y88.39839
G01 X-86.50069 Y88.22082
G01 X-86.46589 Y88.04665
G01 X-86.38522 Y87.86542
G01 X-86.28646 Y87.73045
G01 X-86.16254 Y87.61813
G01 X-85.99073 Y87.51894
G01 X-85.82116 Y87.46616
G01 X-85.65479 Y87.44922
G01 X-84.65479 Y87.44922
G01 X-84.46795 Y87.47050
G01 X-84.30907 Y87.52270
G01 X-84.14705 Y87.61813
G01 X-84.01652 Y87.73857
G01 X-83.91868 Y87.87421
G01 X-83.88467 Y87.94922
G01 X-70.01776 Y87.94922
G01 X-69.93592 Y87.66908
G01 X-69.81911 Y87.47111
G01 X-69.67184 Y87.30835
G01 X-69.49457 Y87.17888
G01 X-69.28548 Y87.08341
G01 X-69.04032 Y87.03129
G01 X-68.82081 Y87.03184
G01 X-68.60598 Y87.07693
G01 X-68.37700 Y87.17888
G01 X-68.19973 Y87.30835
G01 X-68.05246 Y87.47111
G01 X-67.93565 Y87.66908
G01 X-67.87050 Y87.86250
G01 X-30.75429 Y87.87162
G01 X-30.64606 Y87.91645
G01 X-30.58459 Y87.96501
G01 X-15.58429 Y102.96531
G01 X-15.51261 Y103.06999
G01 X-15.48706 Y103.15424
G01 X-15.48180 Y103.94304
G01 X-15.39801 Y103.98271
G01 X-15.27116 Y104.07489
G01 X-15.14411 Y104.21352
G01 X-15.05526 Y104.36742
G01 X-15.00307 Y104.52630
G01 X-14.98178 Y104.71314
G04 P0 ( dwell for no time -- G64 should not smooth over this point )
G00 Z5.00000 ( retract )

G00 X-17.52178 Y104.71314 ( rapid move to begin. )
G01 F300.00000
G01 Z-0.14000
G04 P0 ( dwell for no time -- G64 should not smooth over this point )
G01 F600.00000
G01 X-17.52178 Y104.71314
G01 X-17.52178 Y105.71314
G01 X-17.53872 Y105.87953
G01 X-17.59526 Y106.05886
G01 X-17.69072 Y106.22088
G01 X-17.81116 Y106.35139
G01 X-17.94680 Y106.44925
G01 X-18.10913 Y106.52154
G01 X-18.29338 Y106.55903
G01 X-18.47098 Y106.55685
G01 X-18.63445 Y106.52154
G01 X-18.80557 Y106.44357
G01 X-18.94055 Y106.34481
G01 X-19.05945 Y106.21276
G01 X-19.14354 Y106.06820
G01 X-19.20486 Y105.87953
G01 X-19.22178 Y105.71314
G01 X-19.22124 Y104.70267
G01 X-19.20486 Y104.54674
G01 X-19.15205 Y104.37717
G01 X-19.06516 Y104.22231
G01 X-18.94055 Y104.08147
G01 X-18.80557 Y103.98271
G01 X-18.72180 Y103.94304
G01 X-18.72180 Y103.35777
G01 X-30.97705 Y91.10252
G01 X-75.54684 Y91.10252
G01 X-75.67246 Y91.32051
G01 X-75.81973 Y91.48327
G01 X-75.99700 Y91.61273
G01 X-76.22598 Y91.71469
G01 X-76.44081 Y91.75977
G01 X-76.66032 Y91.76033
G01 X-76.88559 Y91.71469
G01 X-77.11457 Y91.61273
G01 X-77.29923 Y91.47588
G01 X-77.44571 Y91.31238
G01 X-77.51744 Y91.18921
G01 X-83.88467 Y91.18921
G01 X-83.92437 Y91.27298
G01 X-84.01652 Y91.39983
G01 X-84.14705 Y91.52028
G01 X-84.30907 Y91.61573
G01 X-84.46795 Y91.66793
G01 X-84.65479 Y91.68921
G01 X-85.66523 Y91.68865
G01 X-85.84163 Y91.66793
G01 X-86.00051 Y91.61573
G01 X-86.15441 Y91.52688
G01 X-86.29304 Y91.39983
G01 X-86.39566 Y91.25487
G01 X-86.46320 Y91.10186
G01 X-86.50069 Y90.91761
G01 X-86.49850 Y90.74002
G01 X-86.46320 Y90.57654
G01 X-86.38522 Y90.40542
G01 X-86.28646 Y90.27045
G01 X-86.16254 Y90.15813
G01 X-85.99073 Y90.05894
G01 X-85.82116 Y90.00616
G01 X-85.65479 Y89.98922
G01 X-84.65479 Y89.98922
G01 X-84.46795 Y90.01050
G01 X-84.30907 Y90.06270
G01 X-84.14705 Y90.15813
G01 X-84.01652 Y90.27857
G01 X-83.92437 Y90.40542
G01 X-83.88469 Y90.48919
G01 X-77.63779 Y90.48922
G01 X-77.55592 Y90.20908
G01 X-77.44571 Y90.01924
G01 X-77.29923 Y89.85574
G01 X-77.09646 Y89.70842
G01 X-76.88559 Y89.61693
G01 X-76.66032 Y89.57129
G01 X-76.44081 Y89.57184
G01 X-76.22598 Y89.61693
G01 X-75.99700 Y89.71888
G01 X-75.81973 Y89.84835
G01 X-75.67246 Y90.01111
G01 X-75.55090 Y90.21840
G01 X-75.49050 Y90.40253
G01 X-30.75429 Y90.41162
G01 X-30.64606 Y90.45645
G01 X-30.58459 Y90.50501
G01 X-18.12429 Y102.96531
G01 X-18.05261 Y103.06999
G01 X-18.02706 Y103.15424
G01 X-18.02180 Y103.94304
G01 X-17.93801 Y103.98271
G01 X-17.81116 Y104.07489
G01 X-17.68411 Y104.21352
G01 X-17.59526 Y104.36742
G01 X-17.54307 Y104.52630
G01 X-17.52178 Y104.71314
G04 P0 ( dwell for no time -- G64 should not smooth over this point )
G00 Z5.00000 ( retract )

G00 X-20.06178 Y104.71314 ( rapid move to begin. )
G01 F300.00000
G01 Z-0.14000
G04 P0 ( dwell for no time -- G64 should not smooth over this point )
G01 F600.00000
G01 X-20.06178 Y104.71314
G01 X-20.06178 Y105.71314
G01 X-20.07872 Y105.87953
G01 X-20.13526 Y106.05886
G01 X-20.23072 Y106.22088
G01 X-20.34303 Y106.34481
G01 X-20.49612 Y106.45400
G01 X-20.64913 Y106.52154
G01 X-20.83338 Y106.55903
G01 X-21.01098 Y106.55685
G01 X-21.17445 Y106.52154
G01 X-21.33678 Y106.44925
G01 X-21.47242 Y106.35139
G01 X-21.59945 Y106.21276
G01 X-21.68829 Y106.05886
G01 X-21.74049 Y105.89998
G01 X-21.76124 Y105.72360
G01 X-21.76178 Y104.71314
G01 X-21.74486 Y104.54674
G01 X-21.68829 Y104.36742
G01 X-21.59287 Y104.20539
G01 X-21.48794 Y104.08886
G01 X-21.34557 Y103.98271
G01 X-21.17445 Y103.90473
G01 X-20.99018 Y103.86724
G01 X-20.81260 Y103.86943
G01 X-20.64913 Y103.90473
G01 X-20.49612 Y103.97227
G01 X-20.35116 Y104.07489
G01 X-20.21842 Y104.22231
G01 X-20.13526 Y104.36742
G01 X-20.08307 Y104.52630
G01 X-20.06178 Y104.71314
G04 P0 ( dwell for no time -- G64 should not smooth over this point )
G00 Z5.00000 ( retract )

G00 X-22.60178 Y104.71314 ( rapid move to begin. )
G01 F300.00000
G01 Z-0.14000
G04 P0 ( dwell for no time -- G64 should not smooth over this point )
G01 F600.00000
G01 X-22.60178 Y104.71314
G01 X-22.60178 Y105.71314
G01 X-22.61872 Y105.87953
G01 X-22.67526 Y106.05886
G01 X-22.77072 Y106.22088
G01 X-22.88303 Y106.34481
G01 X-23.03612 Y106.45400
G01 X-23.18913 Y106.52154
G01 X-23.37338 Y106.55903
G01 X-23.55098 Y106.55685
G01 X-23.71445 Y106.52154
G01 X-23.87678 Y106.44925
G01 X-24.01242 Y106.35139
G01 X-24.13945 Y106.21276
G01 X-24.22829 Y106.05886
G01 X-24.28049 Y105.89998
G01 X-24.30124 Y105.72360
G01 X-24.30178 Y104.71314
G01 X-24.28486 Y104.54674
G01 X-24.22829 Y104.36742
G01 X-24.13287 Y104.20539
G01 X-24.02794 Y104.08886
G01 X-23.88557 Y103.98271
G01 X-23.71445 Y103.90473
G01 X-23.53018 Y103.86724
G01 X-23.35260 Y103.86943
G01 X-23.18913 Y103.90473
G01 X-23.03612 Y103.97227
G01 X-22.89116 Y104.07489
G01 X-22.75842 Y104.22231
G01 X-22.67526 Y104.36742
G01 X-22.62307 Y104.52630
G01 X-22.60178 Y104.71314
G04 P0 ( dwell for no time -- G64 should not smooth over this point )
G00 Z5.00000 ( retract )

G00 X-25.14178 Y104.71314 ( rapid move to begin. )
G01 F300.00000
G01 Z-0.14000
G04 P0 ( dwell for no time -- G64 should not smooth over this point )
G01 F600.00000
G01 X-25.14178 Y104.71314
G01 X-25.14178 Y105.71314
G01 X-25.15872 Y105.87953
G01 X-25.21526 Y106.05886
G01 X-25.31072 Y106.22088
G01 X-25.43116 Y106.35139
G01 X-25.56680 Y106.44925
G01 X-25.72913 Y106.52154
G01 X-25.91338 Y106.55903
G01 X-26.09098 Y106.55685
G01 X-26.25445 Y106.52154
G01 X-26.41678 Y106.44925
G01 X-26.55242 Y106.35139
G01 X-26.67945 Y106.21276
G01 X-26.76829 Y106.05886
G01 X-26.82049 Y105.89998
G01 X-26.84124 Y105.72360
G01 X-26.84178 Y104.71314
G01 X-26.82486 Y104.54674
G01 X-26.76829 Y104.36742
G01 X-26.67287 Y104.20539
G01 X-26.56794 Y104.08886
G01 X-26.42557 Y103.98271
G01 X-26.25445 Y103.90473
G01 X-26.07018 Y103.86724
G01 X-25.89260 Y103.86943
G01 X-25.72913 Y103.90473
G01 X-25.56680 Y103.97702
G01 X-25.43116 Y104.07489
G01 X-25.29842 Y104.22231
G01 X-25.21526 Y104.36742
G01 X-25.16307 Y104.52630
G01 X-25.14178 Y104.71314
G04 P0 ( dwell for no time -- G64 should not smooth over this point )
G00 Z5.00000 ( retract )

G00 X-26.07579 Y99.97581 ( rapid move to begin. )
G01 F300.00000
G01 Z-0.14000
G04 P0 ( dwell for no time -- G64 should not smooth over this point )
G01 F600.00000
G01 X-26.07579 Y99.97581
G01 X-26.07579 Y101.67581
G01 X-26.09263 Y101.73136
G01 X-26.12024 Y101.75897
G01 X-26.17579 Y101.77581
G01 X-26.67579 Y101.77581
G01 X-26.68107 Y102.48470
G01 X-26.70662 Y102.56892
G01 X-26.77170 Y102.66633
G01 X-27.62646 Y103.50887
G01 X-27.73469 Y103.55371
G01 X-27.80268 Y103.56232
G01 X-28.18178 Y103.56280
G01 X-28.18178 Y103.94304
G01 X-28.09801 Y103.98271
G01 X-27.97116 Y104.07489
G01 X-27.85072 Y104.20539
G01 X-27.75526 Y104.36742
G01 X-27.69872 Y104.54674
G01 X-27.68178 Y104.71314
G01 X-27.68178 Y105.71314
G01 X-27.70307 Y105.89998
G01 X-27.75526 Y106.05886
G01 X-27.83842 Y106.20397
G01 X-27.96303 Y106.34481
G01 X-28.09801 Y106.44357
G01 X-28.25935 Y106.51778
G01 X-28.45338 Y106.55903
G01 X-28.62064 Y106.55847
G01 X-28.80423 Y106.51778
G01 X-28.96557 Y106.44357
G01 X-29.10794 Y106.33742
G01 X-29.21287 Y106.22088
G01 X-29.30829 Y106.05886
G01 X-29.36049 Y105.89998
G01 X-29.38178 Y105.71314
G01 X-29.38178 Y104.71314
G01 X-29.36486 Y104.54674
G01 X-29.31205 Y104.37717
G01 X-29.21945 Y104.21352
G01 X-29.10794 Y104.08886
G01 X-28.96557 Y103.98271
G01 X-28.88180 Y103.94304
G01 X-28.87649 Y103.15424
G01 X-28.85094 Y103.06999
G01 X-28.78587 Y102.97260
G01 X-28.67459 Y102.89364
G01 X-28.59036 Y102.86808
G01 X-27.95747 Y102.86280
G01 X-27.37579 Y102.28114
G01 X-27.37579 Y101.77581
G01 X-27.89529 Y101.77388
G01 X-27.94650 Y101.74652
G01 X-27.97385 Y101.69531
G01 X-27.96817 Y99.93753
G01 X-27.93134 Y99.89265
G01 X-27.87579 Y99.87581
G01 X-26.17579 Y99.87581
G01 X-26.10508 Y99.90510
G01 X-26.07579 Y99.97581
G04 P0 ( dwell for no time -- G64 should not smooth over this point )
G00 Z5.00000 ( retract )

G00 X-32.76178 Y104.71314 ( rapid move to begin. )
G01 F300.00000
G01 Z-0.14000
G04 P0 ( dwell for no time -- G64 should not smooth over this point )
G01 F600.00000
G01 X-32.76178 Y104.71314
G01 X-32.76178 Y105.71314
G01 X-32.78307 Y105.89998
G01 X-32.83526 Y106.05886
G01 X-32.93072 Y106.22088
G01 X-33.05116 Y106.35139
G01 X-33.17801 Y106.44357
G01 X-33.26178 Y106.48327
G01 X-33.27090 Y107.29121
G01 X-33.31573 Y107.39944
G01 X-33.37158 Y107.46749
G01 X-33.46897 Y107.53256
G01 X-33.55322 Y107.55812
G01 X-48.84460 Y107.56340
G01 X-58.42579 Y117.14459
G01 X-58.42579 Y122.46126
G01 X-58.32579 Y122.50640
G01 X-58.17357 Y122.61699
G01 X-58.04197 Y122.76558
G01 X-57.94984 Y122.92951
G01 X-57.89546 Y123.09870
G01 X-57.87634 Y123.27536
G01 X-57.87634 Y124.09626
G01 X-57.89546 Y124.27292
G01 X-57.95835 Y124.46121
G01 X-58.04768 Y124.61483
G01 X-58.18169 Y124.76123
G01 X-58.33511 Y124.87000
G01 X-58.48789 Y124.93802
G01 X-58.68172 Y124.98087
G01 X-58.85942 Y124.98143
G01 X-59.06368 Y124.93802
G01 X-59.23457 Y124.85953
G01 X-59.36988 Y124.76123
G01 X-59.49731 Y124.62295
G01 X-59.59322 Y124.46121
G01 X-59.65611 Y124.27292
G01 X-59.67524 Y124.09626
G01 X-59.67524 Y123.27536
G01 X-59.65342 Y123.08857
G01 X-59.60173 Y122.92951
G01 X-59.50961 Y122.76558
G01 X-59.36988 Y122.61039
G01 X-59.22579 Y122.50640
G01 X-59.12579 Y122.46126
G01 X-59.12050 Y116.94103
G01 X-59.09495 Y116.85680
G01 X-59.02988 Y116.75939
G01 X-58.34806 Y116.07692
G01 X-71.72988 Y102.69432
G01 X-71.79495 Y102.59691
G01 X-71.82530 Y102.46392
G01 X-71.82579 Y101.17581
G01 X-75.51867 Y101.17581
G01 X-75.55090 Y101.27322
G01 X-75.66017 Y101.46359
G01 X-75.81234 Y101.63588
G01 X-75.99700 Y101.77273
G01 X-76.20609 Y101.86821
G01 X-76.43048 Y101.91815
G01 X-76.66032 Y101.92033
G01 X-76.89611 Y101.87184
G01 X-77.04135 Y101.80634
G01 X-77.98211 Y102.74710
G01 X-78.08678 Y102.81878
G01 X-78.17101 Y102.84433
G01 X-85.72578 Y102.84962
G01 X-85.72578 Y113.79082
G01 X-84.17080 Y113.79082
G01 X-84.11522 Y113.80766
G01 X-84.07839 Y113.85254
G01 X-84.07270 Y117.72033
G01 X-84.11522 Y117.78395
G01 X-84.17080 Y117.80082
G01 X-88.01905 Y117.79320
G01 X-88.06393 Y117.75637
G01 X-88.08080 Y117.70082
G01 X-88.07318 Y113.85254
G01 X-88.03635 Y113.80766
G01 X-87.98080 Y113.79082
G01 X-86.42578 Y113.79082
G01 X-86.42578 Y102.83961
G01 X-86.53112 Y102.79567
G01 X-86.59258 Y102.74710
G01 X-87.40257 Y101.93710
G01 X-87.48176 Y101.81431
G01 X-87.50508 Y101.68960
G01 X-87.50508 Y83.21920
G01 X-87.48176 Y83.09451
G01 X-87.39530 Y82.96513
G01 X-87.34112 Y82.92314
G01 X-87.23289 Y82.87831
G01 X-86.42489 Y82.86922
G01 X-86.38522 Y82.78542
G01 X-86.29304 Y82.65857
G01 X-86.16254 Y82.53813
G01 X-86.00051 Y82.44270
G01 X-85.84163 Y82.39050
G01 X-85.65479 Y82.36922
G01 X-84.65479 Y82.36922
G01 X-84.46795 Y82.39050
G01 X-84.30907 Y82.44270
G01 X-84.15518 Y82.53155
G01 X-84.03051 Y82.64305
G01 X-83.91868 Y82.79421
G01 X-83.85015 Y82.94676
G01 X-83.80890 Y83.14082
G01 X-83.80890 Y83.29761
G01 X-83.84367 Y83.47175
G01 X-83.91393 Y83.63487
G01 X-84.01652 Y83.77983
G01 X-84.14705 Y83.90028
G01 X-84.29973 Y83.99098
G01 X-84.48840 Y84.05227
G01 X-84.65479 Y84.06921
G01 X-85.65479 Y84.06921
G01 X-85.82116 Y84.05227
G01 X-86.00051 Y83.99573
G01 X-86.16254 Y83.90028
G01 X-86.29304 Y83.77983
G01 X-86.38522 Y83.65298
G01 X-86.42489 Y83.56921
G01 X-86.80508 Y83.56921
G01 X-86.80508 Y101.54464
G01 X-86.20013 Y102.14959
G01 X-78.37457 Y102.14959
G01 X-77.53820 Y101.31325
G01 X-77.63339 Y101.04419
G01 X-77.65524 Y100.81536
G01 X-77.62905 Y100.58699
G01 X-77.55592 Y100.36908
G01 X-77.44571 Y100.17924
G01 X-77.28369 Y100.00177
G01 X-77.09646 Y99.86842
G01 X-76.89570 Y99.77965
G01 X-76.66032 Y99.73129
G01 X-76.43048 Y99.73347
G01 X-76.20609 Y99.78341
G01 X-75.99700 Y99.87888
G01 X-75.81234 Y100.01574
G01 X-75.66017 Y100.18803
G01 X-75.55090 Y100.37840
G01 X-75.51867 Y100.47581
G01 X-71.62076 Y100.47581
G01 X-69.91820 Y98.77325
G01 X-70.01339 Y98.50419
G01 X-70.03580 Y98.28580
G01 X-70.01339 Y98.06743
G01 X-69.93592 Y97.82908
G01 X-69.82571 Y97.63924
G01 X-69.67923 Y97.47574
G01 X-69.47646 Y97.32842
G01 X-69.26559 Y97.23693
G01 X-69.05076 Y97.19184
G01 X-68.81048 Y97.19347
G01 X-68.60598 Y97.23693
G01 X-68.39511 Y97.32842
G01 X-68.20789 Y97.46177
G01 X-68.04586 Y97.63924
G01 X-67.93565 Y97.82908
G01 X-67.86252 Y98.04699
G01 X-67.83578 Y98.28580
G01 X-67.85818 Y98.50419
G01 X-67.93565 Y98.74254
G01 X-68.04586 Y98.93238
G01 X-68.19973 Y99.10327
G01 X-68.37700 Y99.23273
G01 X-68.58609 Y99.32821
G01 X-68.82081 Y99.37977
G01 X-69.05076 Y99.37977
G01 X-69.27611 Y99.33184
G01 X-69.42132 Y99.26634
G01 X-71.12579 Y100.97078
G01 X-71.12579 Y102.30913
G01 X-57.85309 Y115.58193
G01 X-49.23708 Y106.96592
G01 X-49.11427 Y106.88674
G01 X-48.98959 Y106.86340
G01 X-33.96178 Y106.86340
G01 X-33.96178 Y106.48327
G01 X-34.04557 Y106.44357
G01 X-34.17242 Y106.35139
G01 X-34.30516 Y106.20397
G01 X-34.38829 Y106.05886
G01 X-34.44049 Y105.89998
G01 X-34.46178 Y105.71314
G01 X-34.46178 Y104.71314
G01 X-34.44321 Y104.53641
G01 X-34.38829 Y104.36742
G01 X-34.29287 Y104.20539
G01 X-34.17242 Y104.07489
G01 X-34.04557 Y103.98271
G01 X-33.96178 Y103.94304
G01 X-33.96178 Y103.54614
G01 X-34.04512 Y103.50887
G01 X-34.10658 Y103.46028
G01 X-34.94184 Y102.61215
G01 X-34.97244 Y102.55081
G01 X-34.99530 Y102.43590
G01 X-34.99579 Y101.77581
G01 X-35.51529 Y101.77388
G01 X-35.55134 Y101.75897
G01 X-35.58817 Y101.71409
G01 X-35.59579 Y99.97581
G01 X-35.57895 Y99.92026
G01 X-35.53406 Y99.88343
G01 X-33.79579 Y99.87581
G01 X-33.74024 Y99.89265
G01 X-33.71263 Y99.92026
G01 X-33.69579 Y99.97581
G01 X-33.69772 Y101.69531
G01 X-33.72508 Y101.74652
G01 X-33.77628 Y101.77388
G01 X-34.29579 Y101.77581
G01 X-34.29579 Y102.28114
G01 X-33.71410 Y102.86280
G01 X-33.55322 Y102.86808
G01 X-33.48708 Y102.88614
G01 X-33.40945 Y102.92765
G01 X-33.31573 Y103.02678
G01 X-33.28512 Y103.08810
G01 X-33.26226 Y103.20301
G01 X-33.26178 Y103.94304
G01 X-33.17801 Y103.98271
G01 X-33.05116 Y104.07489
G01 X-32.92411 Y104.21352
G01 X-32.83526 Y104.36742
G01 X-32.78307 Y104.52630
G01 X-32.76178 Y104.71314
G04 P0 ( dwell for no time -- G64 should not smooth over this point )
G00 Z5.00000 ( retract )

G00 X-35.30178 Y104.71314 ( rapid move to begin. )
G01 F300.00000
G01 Z-0.14000
G04 P0 ( dwell for no time -- G64 should not smooth over this point )
G01 F600.00000
G01 X-35.30178 Y104.71314
G01 X-35.30178 Y105.71314
G01 X-35.31872 Y105.87953
G01 X-35.37526 Y106.05886
G01 X-35.47072 Y106.22088
G01 X-35.58303 Y106.34481
G01 X-35.73612 Y106.45400
G01 X-35.88913 Y106.52154
G01 X-36.06294 Y106.55847
G01 X-36.24064 Y106.55847
G01 X-36.41445 Y106.52154
G01 X-36.56746 Y106.45400
G01 X-36.71242 Y106.35139
G01 X-36.83945 Y106.21276
G01 X-36.92829 Y106.05886
G01 X-36.98321 Y105.88987
G01 X-37.00124 Y105.72360
G01 X-37.00178 Y104.71314
G01 X-36.98486 Y104.54674
G01 X-36.92829 Y104.36742
G01 X-36.83287 Y104.20539
G01 X-36.72794 Y104.08886
G01 X-36.58557 Y103.98271
G01 X-36.41445 Y103.90473
G01 X-36.23018 Y103.86724
G01 X-36.06294 Y103.86780
G01 X-35.88913 Y103.90473
G01 X-35.71801 Y103.98271
G01 X-35.57562 Y104.08886
G01 X-35.46411 Y104.21352
G01 X-35.37526 Y104.36742
G01 X-35.32307 Y104.52630
G01 X-35.30178 Y104.71314
G04 P0 ( dwell for no time -- G64 should not smooth over this point )
G00 Z5.00000 ( retract )

G00 X-37.84178 Y104.71314 ( rapid move to begin. )
G01 F300.00000
G01 Z-0.14000
G04 P0 ( dwell for no time -- G64 should not smooth over this point )
G01 F600.00000
G01 X-37.84178 Y104.71314
G01 X-37.84178 Y105.71314
G01 X-37.85872 Y105.87953
G01 X-37.91526 Y106.05886
G01 X-38.01072 Y106.22088
G01 X-38.13116 Y106.35139
G01 X-38.27612 Y106.45400
G01 X-38.42913 Y106.52154
G01 X-38.60294 Y106.55847
G01 X-38.78064 Y106.55847
G01 X-38.95445 Y106.52154
G01 X-39.10746 Y106.45400
G01 X-39.25242 Y106.35139
G01 X-39.37945 Y106.21276
G01 X-39.46829 Y106.05886
G01 X-39.52321 Y105.88987
G01 X-39.54124 Y105.72360
G01 X-39.54178 Y104.71314
G01 X-39.52486 Y104.54674
G01 X-39.46829 Y104.36742
G01 X-39.37287 Y104.20539
G01 X-39.26055 Y104.08147
G01 X-39.12557 Y103.98271
G01 X-38.95445 Y103.90473
G01 X-38.77018 Y103.86724
G01 X-38.60294 Y103.86780
G01 X-38.42913 Y103.90473
G01 X-38.25801 Y103.98271
G01 X-38.11562 Y104.08886
G01 X-38.00411 Y104.21352
G01 X-37.91526 Y104.36742
G01 X-37.86307 Y104.52630
G01 X-37.84178 Y104.71314
G04 P0 ( dwell for no time -- G64 should not smooth over this point )
G00 Z5.00000 ( retract )

G00 X-40.38178 Y104.71314 ( rapid move to begin. )
G01 F300.00000
G01 Z-0.14000
G04 P0 ( dwell for no time -- G64 should not smooth over this point )
G01 F600.00000
G01 X-40.38178 Y104.71314
G01 X-40.38178 Y105.71314
G01 X-40.39872 Y105.87953
G01 X-40.45526 Y106.05886
G01 X-40.55072 Y106.22088
G01 X-40.66303 Y106.34481
G01 X-40.81612 Y106.45400
G01 X-40.96913 Y106.52154
G01 X-41.14294 Y106.55847
G01 X-41.32064 Y106.55847
G01 X-41.49445 Y106.52154
G01 X-41.64746 Y106.45400
G01 X-41.79242 Y106.35139
G01 X-41.91945 Y106.21276
G01 X-42.00829 Y106.05886
G01 X-42.06049 Y105.89998
G01 X-42.08124 Y105.72360
G01 X-42.08178 Y104.71314
G01 X-42.06486 Y104.54674
G01 X-42.00829 Y104.36742
G01 X-41.91287 Y104.20539
G01 X-41.80794 Y104.08886
G01 X-41.66557 Y103.98271
G01 X-41.49445 Y103.90473
G01 X-41.31018 Y103.86724
G01 X-41.14294 Y103.86780
G01 X-40.96913 Y103.90473
G01 X-40.79801 Y103.98271
G01 X-40.65562 Y104.08886
G01 X-40.54411 Y104.21352
G01 X-40.45526 Y104.36742
G01 X-40.40307 Y104.52630
G01 X-40.38178 Y104.71314
G04 P0 ( dwell for no time -- G64 should not smooth over this point )
G00 Z5.00000 ( retract )

G00 X-42.92178 Y104.71314 ( rapid move to begin. )
G01 F300.00000
G01 Z-0.14000
G04 P0 ( dwell for no time -- G64 should not smooth over this point )
G01 F600.00000
G01 X-42.92178 Y104.71314
G01 X-42.92178 Y105.71314
G01 X-42.93872 Y105.87953
G01 X-42.99526 Y106.05886
G01 X-43.09072 Y106.22088
G01 X-43.20303 Y106.34481
G01 X-43.35612 Y106.45400
G01 X-43.50913 Y106.52154
G01 X-43.68294 Y106.55847
G01 X-43.86064 Y106.55847
G01 X-44.03445 Y106.52154
G01 X-44.18746 Y106.45400
G01 X-44.33242 Y106.35139
G01 X-44.45945 Y106.21276
G01 X-44.54829 Y106.05886
G01 X-44.60321 Y105.88987
G01 X-44.62124 Y105.72360
G01 X-44.62178 Y104.71314
G01 X-44.60486 Y104.54674
G01 X-44.54829 Y104.36742
G01 X-44.45287 Y104.20539
G01 X-44.34794 Y104.08886
G01 X-44.20557 Y103.98271
G01 X-44.03445 Y103.90473
G01 X-43.85018 Y103.86724
G01 X-43.68294 Y103.86780
G01 X-43.50913 Y103.90473
G01 X-43.35612 Y103.97227
G01 X-43.21116 Y104.07489
G01 X-43.07842 Y104.22231
G01 X-42.99526 Y104.36742
G01 X-42.94307 Y104.52630
G01 X-42.92178 Y104.71314
G04 P0 ( dwell for no time -- G64 should not smooth over this point )
G00 Z5.00000 ( retract )

G00 X-45.46178 Y104.71314 ( rapid move to begin. )
G01 F300.00000
G01 Z-0.14000
G04 P0 ( dwell for no time -- G64 should not smooth over this point )
G01 F600.00000
G01 X-45.46178 Y104.71314
G01 X-45.46178 Y105.71314
G01 X-45.47872 Y105.87953
G01 X-45.53526 Y106.05886
G01 X-45.63072 Y106.22088
G01 X-45.75116 Y106.35139
G01 X-45.89612 Y106.45400
G01 X-46.04913 Y106.52154
G01 X-46.22294 Y106.55847
G01 X-46.40064 Y106.55847
G01 X-46.57445 Y106.52154
G01 X-46.72746 Y106.45400
G01 X-46.87242 Y106.35139
G01 X-46.99945 Y106.21276
G01 X-47.08829 Y106.05886
G01 X-47.14321 Y105.88987
G01 X-47.16124 Y105.72360
G01 X-47.16178 Y104.71314
G01 X-47.14486 Y104.54674
G01 X-47.08829 Y104.36742
G01 X-46.99287 Y104.20539
G01 X-46.88794 Y104.08886
G01 X-46.74557 Y103.98271
G01 X-46.57445 Y103.90473
G01 X-46.39018 Y103.86724
G01 X-46.22294 Y103.86780
G01 X-46.04913 Y103.90473
G01 X-45.87801 Y103.98271
G01 X-45.73562 Y104.08886
G01 X-45.62411 Y104.21352
G01 X-45.53526 Y104.36742
G01 X-45.48307 Y104.52630
G01 X-45.46178 Y104.71314
G04 P0 ( dwell for no time -- G64 should not smooth over this point )
G00 Z5.00000 ( retract )

G00 X-27.00017 Y126.14218 ( rapid move to begin. )
G01 F300.00000
G01 Z-0.14000
G04 P0 ( dwell for no time -- G64 should not smooth over this point )
G01 F600.00000
G01 X-27.00017 Y126.14218
G01 X-27.04358 Y125.93791
G01 X-27.11638 Y125.77581
G01 X-27.22036 Y125.63172
G01 X-27.37556 Y125.49199
G01 X-27.53949 Y125.39986
G01 X-27.69854 Y125.34818
G01 X-27.89578 Y125.32580
G01 X-28.70624 Y125.32636
G01 X-28.89303 Y125.34818
G01 X-29.06184 Y125.40362
G01 X-29.21602 Y125.49199
G01 X-29.35722 Y125.61620
G01 X-29.47520 Y125.77581
G01 X-29.54799 Y125.93791
G01 X-29.58922 Y126.12140
G01 X-29.59140 Y126.30944
G01 X-29.55445 Y126.49382
G01 X-29.47997 Y126.66649
G01 X-29.43560 Y126.73126
G01 X-31.10387 Y128.39953
G01 X-31.15244 Y128.46097
G01 X-31.19727 Y128.56920
G01 X-31.20639 Y140.82272
G01 X-36.01349 Y140.82320
G01 X-36.12840 Y140.84604
G01 X-36.20602 Y140.88754
G01 X-36.42553 Y141.09958
G01 X-36.57361 Y140.99468
G01 X-36.95733 Y140.82622
G01 X-37.35720 Y140.74179
G01 X-37.76591 Y140.74124
G01 X-38.17625 Y140.82622
G01 X-38.55997 Y140.99468
G01 X-38.91579 Y141.25320
G01 X-39.19456 Y141.56608
G01 X-39.40220 Y141.93008
G01 X-39.52527 Y142.30885
G01 X-39.57124 Y142.72536
G01 X-39.52527 Y143.16277
G01 X-39.39369 Y143.56064
G01 X-39.18887 Y143.91433
G01 X-38.91579 Y144.21842
G01 X-38.56929 Y144.47219
G01 X-38.19614 Y144.63892
G01 X-37.78671 Y144.72820
G01 X-37.35720 Y144.72982
G01 X-36.94722 Y144.64268
G01 X-36.57361 Y144.47694
G01 X-36.21778 Y144.21842
G01 X-35.94471 Y143.91433
G01 X-35.73988 Y143.56064
G01 X-35.60396 Y143.14232
G01 X-35.56233 Y142.74626
G01 X-35.60396 Y142.32929
G01 X-35.73137 Y141.93008
G01 X-35.92550 Y141.58949
G01 X-35.85870 Y141.52269
G01 X-29.63639 Y141.52272
G01 X-29.63639 Y141.90184
G01 X-29.72618 Y141.94421
G01 X-29.85506 Y142.03783
G01 X-29.97718 Y142.17021
G01 X-30.07385 Y142.33440
G01 X-30.13118 Y142.51614
G01 X-30.14840 Y142.68500
G01 X-30.14840 Y144.20900
G01 X-30.13118 Y144.37788
G01 X-30.07761 Y144.54984
G01 X-29.98947 Y144.70691
G01 X-29.85506 Y144.85619
G01 X-29.70807 Y144.96028
G01 X-29.56252 Y145.02507
G01 X-29.37649 Y145.06630
G01 X-29.18594 Y145.06465
G01 X-29.01025 Y145.02507
G01 X-28.86471 Y144.96028
G01 X-28.71772 Y144.85619
G01 X-28.58330 Y144.70691
G01 X-28.49892 Y144.55962
G01 X-28.44594 Y144.39833
G01 X-28.42493 Y144.21946
G01 X-28.42493 Y142.67456
G01 X-28.44594 Y142.49569
G01 X-28.49892 Y142.33440
G01 X-28.58330 Y142.18711
G01 X-28.71772 Y142.03783
G01 X-28.84660 Y141.94421
G01 X-28.93639 Y141.90184
G01 X-28.93639 Y141.17271
G01 X-28.96722 Y141.02991
G01 X-29.00121 Y140.97037
G01 X-29.08406 Y140.88754
G01 X-29.22780 Y140.82800
G01 X-30.50639 Y140.82272
G01 X-30.50639 Y128.79198
G01 X-28.82674 Y127.11236
G01 X-28.69580 Y127.12582
G01 X-27.89578 Y127.12582
G01 X-27.71902 Y127.10779
G01 X-27.52974 Y127.04799
G01 X-27.36677 Y126.95391
G01 X-27.22036 Y126.81990
G01 X-27.11160 Y126.66649
G01 X-27.04358 Y126.51371
G01 X-27.00236 Y126.33022
G01 X-27.00017 Y126.14218
G04 P0 ( dwell for no time -- G64 should not smooth over this point )
G00 Z5.00000 ( retract )

G00 X-27.00017 Y128.68218 ( rapid move to begin. )
G01 F300.00000
G01 Z-0.14000
G04 P0 ( dwell for no time -- G64 should not smooth over this point )
G01 F600.00000
G01 X-27.00017 Y128.68218
G01 X-27.04358 Y128.47791
G01 X-27.12207 Y128.30702
G01 X-27.22697 Y128.16359
G01 X-27.35864 Y128.04428
G01 X-27.52974 Y127.94362
G01 X-27.69854 Y127.88818
G01 X-27.88534 Y127.86636
G01 X-28.70624 Y127.86636
G01 X-28.89303 Y127.88818
G01 X-29.06184 Y127.94362
G01 X-29.22480 Y128.03771
G01 X-29.37121 Y128.17172
G01 X-29.47520 Y128.31581
G01 X-29.54799 Y128.47791
G01 X-29.58922 Y128.66140
G01 X-29.59140 Y128.84944
G01 X-29.54799 Y129.05371
G01 X-29.46951 Y129.22460
G01 X-29.37121 Y129.35990
G01 X-29.23293 Y129.48733
G01 X-29.06184 Y129.58799
G01 X-28.89303 Y129.64344
G01 X-28.70624 Y129.66526
G01 X-27.88534 Y129.66526
G01 X-27.69854 Y129.64344
G01 X-27.52974 Y129.58799
G01 X-27.36677 Y129.49391
G01 X-27.22036 Y129.35990
G01 X-27.11638 Y129.21581
G01 X-27.04358 Y129.05371
G01 X-27.00073 Y128.85988
G01 X-27.00017 Y128.68218
G04 P0 ( dwell for no time -- G64 should not smooth over this point )
G00 Z5.00000 ( retract )

G00 X-23.90320 Y136.18260 ( rapid move to begin. )
G01 F300.00000
G01 Z-0.14000
G04 P0 ( dwell for no time -- G64 should not smooth over this point )
G01 F600.00000
G01 X-23.90320 Y136.18260
G01 X-23.92040 Y136.01374
G01 X-23.97396 Y135.84178
G01 X-24.07440 Y135.66781
G01 X-24.18839 Y135.54201
G01 X-24.32540 Y135.44181
G01 X-24.50891 Y135.36009
G01 X-24.67508 Y135.32532
G01 X-24.85529 Y135.32532
G01 X-25.02146 Y135.36009
G01 X-25.18687 Y135.43134
G01 X-25.34937 Y135.54943
G01 X-25.46827 Y135.68471
G01 X-25.54790 Y135.82268
G01 X-25.60564 Y135.99329
G01 X-25.62720 Y136.18260
G01 X-25.62720 Y137.70662
G01 X-25.60998 Y137.87548
G01 X-25.55265 Y138.05722
G01 X-25.46827 Y138.20451
G01 X-25.34198 Y138.34721
G01 X-25.18687 Y138.45788
G01 X-25.03157 Y138.52643
G01 X-24.84483 Y138.56443
G01 X-24.66474 Y138.56225
G01 X-24.49880 Y138.52643
G01 X-24.34351 Y138.45788
G01 X-24.18839 Y138.34721
G01 X-24.07440 Y138.22140
G01 X-23.98247 Y138.06654
G01 X-23.92474 Y137.89593
G01 X-23.90320 Y137.70662
G01 X-23.90320 Y136.18260
G04 P0 ( dwell for no time -- G64 should not smooth over this point )
G00 Z5.00000 ( retract )

G00 X-28.42440 Y136.18260 ( rapid move to begin. )
G01 F300.00000
G01 Z-0.14000
G04 P0 ( dwell for no time -- G64 should not smooth over this point )
G01 F600.00000
G01 X-28.42440 Y136.18260
G01 X-28.44160 Y136.01374
G01 X-28.49516 Y135.84178
G01 X-28.59560 Y135.66781
G01 X-28.71772 Y135.53543
G01 X-28.84660 Y135.44181
G01 X-29.03011 Y135.36009
G01 X-29.19628 Y135.32532
G01 X-29.37649 Y135.32532
G01 X-29.54266 Y135.36009
G01 X-29.70807 Y135.43134
G01 X-29.87057 Y135.54943
G01 X-29.98947 Y135.68471
G01 X-30.06910 Y135.82268
G01 X-30.12684 Y135.99329
G01 X-30.14840 Y136.18260
G01 X-30.14840 Y137.70662
G01 X-30.13118 Y137.87548
G01 X-30.07385 Y138.05722
G01 X-29.98947 Y138.20451
G01 X-29.85506 Y138.35379
G01 X-29.70807 Y138.45788
G01 X-29.55277 Y138.52643
G01 X-29.37649 Y138.56390
G01 X-29.19628 Y138.56390
G01 X-29.01025 Y138.52267
G01 X-28.85539 Y138.45313
G01 X-28.71772 Y138.35379
G01 X-28.59560 Y138.22140
G01 X-28.50367 Y138.06654
G01 X-28.44594 Y137.89593
G01 X-28.42440 Y137.70662
G01 X-28.42440 Y136.18260
G04 P0 ( dwell for no time -- G64 should not smooth over this point )
G00 Z5.00000 ( retract )

G00 X-34.62017 Y131.22218 ( rapid move to begin. )
G01 F300.00000
G01 Z-0.14000
G04 P0 ( dwell for no time -- G64 should not smooth over this point )
G01 F600.00000
G01 X-34.62017 Y131.22218
G01 X-34.66358 Y131.01791
G01 X-34.74207 Y130.84702
G01 X-34.84036 Y130.71172
G01 X-34.97864 Y130.58428
G01 X-35.14974 Y130.48362
G01 X-35.31854 Y130.42818
G01 X-35.50534 Y130.40636
G01 X-36.32624 Y130.40636
G01 X-36.51303 Y130.42818
G01 X-36.68184 Y130.48362
G01 X-36.84480 Y130.57771
G01 X-36.99121 Y130.71172
G01 X-37.09520 Y130.85581
G01 X-37.16799 Y131.01791
G01 X-37.20922 Y131.20140
G01 X-37.21140 Y131.38944
G01 X-37.16799 Y131.59371
G01 X-37.08951 Y131.76460
G01 X-36.99121 Y131.89990
G01 X-36.85293 Y132.02733
G01 X-36.68184 Y132.12799
G01 X-36.51303 Y132.18344
G01 X-36.32624 Y132.20526
G01 X-35.50534 Y132.20526
G01 X-35.31854 Y132.18344
G01 X-35.14974 Y132.12799
G01 X-34.98677 Y132.03391
G01 X-34.84036 Y131.89990
G01 X-34.73638 Y131.75581
G01 X-34.66358 Y131.59371
G01 X-34.62073 Y131.39988
G01 X-34.62017 Y131.22218
G04 P0 ( dwell for no time -- G64 should not smooth over this point )
G00 Z5.00000 ( retract )

G00 X-40.26133 Y142.72536 ( rapid move to begin. )
G01 F300.00000
G01 Z-0.14000
G04 P0 ( dwell for no time -- G64 should not smooth over this point )
G01 F600.00000
G01 X-40.26133 Y142.72536
G01 X-40.30731 Y142.30885
G01 X-40.43888 Y141.91098
G01 X-40.64371 Y141.55729
G01 X-40.93233 Y141.23923
G01 X-41.26329 Y140.99943
G01 X-41.65633 Y140.82622
G01 X-42.05620 Y140.74179
G01 X-42.48571 Y140.74342
G01 X-42.89514 Y140.83270
G01 X-43.26829 Y140.99943
G01 X-43.61479 Y141.25320
G01 X-43.89356 Y141.56608
G01 X-44.10120 Y141.93008
G01 X-44.22427 Y142.30885
G01 X-44.27024 Y142.72536
G01 X-44.22427 Y143.16277
G01 X-44.10120 Y143.54154
G01 X-43.90710 Y143.88212
G01 X-45.06996 Y145.04501
G01 X-54.96090 Y145.04501
G01 X-58.19775 Y141.81563
G01 X-58.27539 Y141.77415
G01 X-58.39028 Y141.75129
G01 X-59.05042 Y141.75081
G01 X-59.05098 Y141.19501
G01 X-59.07219 Y140.99851
G01 X-59.13275 Y140.81037
G01 X-59.24712 Y140.61228
G01 X-59.37976 Y140.46577
G01 X-59.53932 Y140.34916
G01 X-59.73821 Y140.25881
G01 X-59.95220 Y140.21502
G01 X-60.16018 Y140.21721
G01 X-60.35337 Y140.25881
G01 X-60.53414 Y140.33870
G01 X-60.71181 Y140.46577
G01 X-60.85675 Y140.62920
G01 X-60.95509 Y140.80062
G01 X-61.01669 Y140.98840
G01 X-61.04059 Y141.19501
G01 X-61.04115 Y142.99615
G01 X-61.02103 Y143.19277
G01 X-60.95034 Y143.41032
G01 X-60.84445 Y143.58934
G01 X-60.70366 Y143.74242
G01 X-60.53414 Y143.86292
G01 X-60.36315 Y143.93905
G01 X-60.13937 Y143.98659
G01 X-59.93140 Y143.98441
G01 X-59.74832 Y143.94550
G01 X-59.53932 Y143.85246
G01 X-59.37976 Y143.73585
G01 X-59.24712 Y143.58934
G01 X-59.13275 Y143.39124
G01 X-59.07219 Y143.20311
G01 X-59.05098 Y143.00661
G01 X-59.05042 Y142.45081
G01 X-58.54507 Y142.45081
G01 X-55.35338 Y145.64250
G01 X-55.24871 Y145.71418
G01 X-55.11569 Y145.74453
G01 X-44.84718 Y145.73589
G01 X-44.73895 Y145.69106
G01 X-44.67750 Y145.64250
G01 X-43.40705 Y144.37204
G01 X-43.26829 Y144.47219
G01 X-42.89514 Y144.63892
G01 X-42.46491 Y144.73038
G01 X-42.05620 Y144.72982
G01 X-41.65633 Y144.64539
G01 X-41.25450 Y144.46650
G01 X-40.91678 Y144.21842
G01 X-40.65028 Y143.92246
G01 X-40.43888 Y143.56064
G01 X-40.30731 Y143.16277
G01 X-40.26133 Y142.72536
G04 P0 ( dwell for no time -- G64 should not smooth over this point )
G00 Z5.00000 ( retract )

G00 X-44.96033 Y142.72536 ( rapid move to begin. )
G01 F300.00000
G01 Z-0.14000
G04 P0 ( dwell for no time -- G64 should not smooth over this point )
G01 F600.00000
G01 X-44.96033 Y142.72536
G01 X-45.00631 Y142.30885
G01 X-45.12937 Y141.93008
G01 X-45.34271 Y141.55729
G01 X-45.61578 Y141.25320
G01 X-45.96229 Y140.99943
G01 X-46.33544 Y140.83270
G01 X-46.75520 Y140.74179
G01 X-47.16391 Y140.74124
G01 X-47.58436 Y140.82894
G01 X-47.95797 Y140.99468
G01 X-48.29825 Y141.23923
G01 X-48.58029 Y141.54916
G01 X-48.80020 Y141.93008
G01 X-48.92761 Y142.32929
G01 X-48.96924 Y142.74626
G01 X-48.92327 Y143.16277
G01 X-48.80020 Y143.54154
G01 X-48.58687 Y143.91433
G01 X-48.31379 Y144.21842
G01 X-47.97608 Y144.46650
G01 X-47.58436 Y144.64268
G01 X-47.17438 Y144.72982
G01 X-46.76566 Y144.73038
G01 X-46.35533 Y144.64539
G01 X-45.96229 Y144.47219
G01 X-45.63133 Y144.23239
G01 X-45.34928 Y143.92246
G01 X-45.12937 Y143.54154
G01 X-45.00196 Y143.14232
G01 X-44.96033 Y142.72536
G04 P0 ( dwell for no time -- G64 should not smooth over this point )
G00 Z5.00000 ( retract )

G00 X-52.79578 Y130.90580 ( rapid move to begin. )
G01 F300.00000
G01 Z-0.14000
G04 P0 ( dwell for no time -- G64 should not smooth over this point )
G01 F600.00000
G01 X-52.79578 Y130.90580
G01 X-52.81815 Y130.70857
G01 X-52.86984 Y130.54951
G01 X-52.96197 Y130.38558
G01 X-53.09357 Y130.23699
G01 X-53.25511 Y130.12162
G01 X-53.41767 Y130.04987
G01 X-53.59138 Y130.01238
G01 X-53.78986 Y130.01075
G01 X-53.98368 Y130.05360
G01 X-54.14579 Y130.12640
G01 X-54.28988 Y130.23039
G01 X-54.41731 Y130.36866
G01 X-54.51797 Y130.53976
G01 X-54.57611 Y130.71870
G01 X-54.59524 Y130.89536
G01 X-54.59580 Y131.70582
G01 X-54.57776 Y131.88258
G01 X-54.51797 Y132.07186
G01 X-54.41731 Y132.24295
G01 X-54.28988 Y132.38123
G01 X-54.14579 Y132.48522
G01 X-53.98368 Y132.55802
G01 X-53.78986 Y132.60087
G01 X-53.60172 Y132.60087
G01 X-53.41767 Y132.56175
G01 X-53.25511 Y132.49000
G01 X-53.09357 Y132.37463
G01 X-52.96768 Y132.23483
G01 X-52.87835 Y132.08121
G01 X-52.81546 Y131.89292
G01 X-52.79578 Y131.70582
G01 X-52.79578 Y130.90580
G04 P0 ( dwell for no time -- G64 should not smooth over this point )
G00 Z5.00000 ( retract )

G00 X-55.33578 Y123.28580 ( rapid move to begin. )
G01 F300.00000
G01 Z-0.14000
G04 P0 ( dwell for no time -- G64 should not smooth over this point )
G01 F600.00000
G01 X-55.33578 Y123.28580
G01 X-55.35815 Y123.08857
G01 X-55.40984 Y122.92951
G01 X-55.50197 Y122.76558
G01 X-55.63357 Y122.61699
G01 X-55.79511 Y122.50162
G01 X-55.95767 Y122.42987
G01 X-56.13138 Y122.39238
G01 X-56.31942 Y122.39019
G01 X-56.52368 Y122.43360
G01 X-56.67646 Y122.50162
G01 X-56.82988 Y122.61039
G01 X-56.96389 Y122.75679
G01 X-57.05322 Y122.91041
G01 X-57.11611 Y123.09870
G01 X-57.13524 Y123.27536
G01 X-57.13580 Y124.08582
G01 X-57.11776 Y124.26258
G01 X-57.06173 Y124.44211
G01 X-56.95731 Y124.62295
G01 X-56.82988 Y124.76123
G01 X-56.67646 Y124.87000
G01 X-56.50380 Y124.94447
G01 X-56.32986 Y124.98087
G01 X-56.14172 Y124.98087
G01 X-55.96778 Y124.94447
G01 X-55.79511 Y124.87000
G01 X-55.64169 Y124.76123
G01 X-55.50197 Y124.60604
G01 X-55.40984 Y124.44211
G01 X-55.35546 Y124.27292
G01 X-55.33578 Y124.08582
G01 X-55.33578 Y123.28580
G04 P0 ( dwell for no time -- G64 should not smooth over this point )
G00 Z5.00000 ( retract )

G00 X-52.79578 Y123.28580 ( rapid move to begin. )
G01 F300.00000
G01 Z-0.14000
G04 P0 ( dwell for no time -- G64 should not smooth over this point )
G01 F600.00000
G01 X-52.79578 Y123.28580
G01 X-52.81815 Y123.08857
G01 X-52.87835 Y122.91041
G01 X-52.96768 Y122.75679
G01 X-53.08617 Y122.62438
G01 X-53.23700 Y122.51209
G01 X-53.42778 Y122.42715
G01 X-53.60172 Y122.39075
G01 X-53.77942 Y122.39019
G01 X-53.98368 Y122.43360
G01 X-54.14579 Y122.50640
G01 X-54.28988 Y122.61039
G01 X-54.42961 Y122.76558
G01 X-54.51797 Y122.91976
G01 X-54.57342 Y123.08857
G01 X-54.59524 Y123.27536
G01 X-54.59580 Y124.08582
G01 X-54.57776 Y124.26258
G01 X-54.52173 Y124.44211
G01 X-54.41731 Y124.62295
G01 X-54.28988 Y124.76123
G01 X-54.14579 Y124.86522
G01 X-54.04579 Y124.91036
G01 X-54.04579 Y125.28610
G01 X-59.71540 Y125.28610
G01 X-59.84009 Y125.30944
G01 X-59.91771 Y125.35094
G01 X-76.32507 Y141.75081
G01 X-76.83045 Y141.75081
G01 X-76.83098 Y141.19501
G01 X-76.85488 Y140.98840
G01 X-76.91275 Y140.81037
G01 X-77.02712 Y140.61228
G01 X-77.15976 Y140.46577
G01 X-77.31932 Y140.34916
G01 X-77.52832 Y140.25612
G01 X-77.71140 Y140.21721
G01 X-77.91937 Y140.21502
G01 X-78.14315 Y140.26257
G01 X-78.33225 Y140.34916
G01 X-78.49181 Y140.46577
G01 X-78.63675 Y140.62920
G01 X-78.73509 Y140.80062
G01 X-78.79669 Y140.98840
G01 X-78.82115 Y141.20545
G01 X-78.82059 Y143.00661
G01 X-78.79669 Y143.21321
G01 X-78.73883 Y143.39124
G01 X-78.62445 Y143.58934
G01 X-78.49181 Y143.73585
G01 X-78.31414 Y143.86292
G01 X-78.13337 Y143.94280
G01 X-77.91937 Y143.98659
G01 X-77.71140 Y143.98441
G01 X-77.51821 Y143.94280
G01 X-77.33743 Y143.86292
G01 X-77.15976 Y143.73585
G01 X-77.01483 Y143.57242
G01 X-76.91648 Y143.40100
G01 X-76.85488 Y143.21321
G01 X-76.83045 Y142.99615
G01 X-76.83045 Y142.45081
G01 X-76.12151 Y142.44553
G01 X-76.03728 Y142.41997
G01 X-75.93261 Y142.34829
G01 X-59.57041 Y125.98610
G01 X-53.69580 Y125.98610
G01 X-53.57109 Y125.96278
G01 X-53.44170 Y125.87632
G01 X-53.37662 Y125.77891
G01 X-53.35491 Y125.71391
G01 X-53.34579 Y124.91036
G01 X-53.24579 Y124.86522
G01 X-53.10169 Y124.76123
G01 X-52.97426 Y124.62295
G01 X-52.87835 Y124.46121
G01 X-52.81815 Y124.28305
G01 X-52.79578 Y124.08582
G01 X-52.79578 Y123.28580
G04 P0 ( dwell for no time -- G64 should not smooth over this point )
G00 Z5.00000 ( retract )

G00 X-48.00178 Y104.71314 ( rapid move to begin. )
G01 F300.00000
G01 Z-0.14000
G04 P0 ( dwell for no time -- G64 should not smooth over this point )
G01 F600.00000
G01 X-48.00178 Y104.71314
G01 X-48.00178 Y105.71314
G01 X-48.01872 Y105.87953
G01 X-48.07526 Y106.05886
G01 X-48.17072 Y106.22088
G01 X-48.28303 Y106.34481
G01 X-48.43612 Y106.45400
G01 X-48.58913 Y106.52154
G01 X-48.76294 Y106.55847
G01 X-48.94064 Y106.55847
G01 X-49.11445 Y106.52154
G01 X-49.26746 Y106.45400
G01 X-49.41242 Y106.35139
G01 X-49.53945 Y106.21276
G01 X-49.62829 Y106.05886
G01 X-49.68321 Y105.88987
G01 X-49.70124 Y105.72360
G01 X-49.70178 Y104.71314
G01 X-49.68486 Y104.54674
G01 X-49.62829 Y104.36742
G01 X-49.53287 Y104.20539
G01 X-49.42794 Y104.08886
G01 X-49.28557 Y103.98271
G01 X-49.11445 Y103.90473
G01 X-48.93018 Y103.86724
G01 X-48.76294 Y103.86780
G01 X-48.58913 Y103.90473
G01 X-48.41801 Y103.98271
G01 X-48.27562 Y104.08886
G01 X-48.16411 Y104.21352
G01 X-48.07526 Y104.36742
G01 X-48.02307 Y104.52630
G01 X-48.00178 Y104.71314
G04 P0 ( dwell for no time -- G64 should not smooth over this point )
G00 Z5.00000 ( retract )

G00 X-50.54178 Y104.71314 ( rapid move to begin. )
G01 F300.00000
G01 Z-0.14000
G04 P0 ( dwell for no time -- G64 should not smooth over this point )
G01 F600.00000
G01 X-50.54178 Y104.71314
G01 X-50.54178 Y105.71314
G01 X-50.55872 Y105.87953
G01 X-50.61526 Y106.05886
G01 X-50.71072 Y106.22088
G01 X-50.83116 Y106.35139
G01 X-50.97612 Y106.45400
G01 X-51.12913 Y106.52154
G01 X-51.30294 Y106.55847
G01 X-51.48064 Y106.55847
G01 X-51.65445 Y106.52154
G01 X-51.80746 Y106.45400
G01 X-51.95242 Y106.35139
G01 X-52.07945 Y106.21276
G01 X-52.16829 Y106.05886
G01 X-52.22321 Y105.88987
G01 X-52.24124 Y105.72360
G01 X-52.24178 Y104.71314
G01 X-52.22486 Y104.54674
G01 X-52.16829 Y104.36742
G01 X-52.07287 Y104.20539
G01 X-51.96055 Y104.08147
G01 X-51.82557 Y103.98271
G01 X-51.65445 Y103.90473
G01 X-51.47018 Y103.86724
G01 X-51.30294 Y103.86780
G01 X-51.12913 Y103.90473
G01 X-50.95801 Y103.98271
G01 X-50.81562 Y104.08886
G01 X-50.70411 Y104.21352
G01 X-50.61526 Y104.36742
G01 X-50.56307 Y104.52630
G01 X-50.54178 Y104.71314
G04 P0 ( dwell for no time -- G64 should not smooth over this point )
G00 Z5.00000 ( retract )

G00 X-83.80890 Y100.92082 ( rapid move to begin. )
G01 F300.00000
G01 Z-0.14000
G04 P0 ( dwell for no time -- G64 should not smooth over this point )
G01 F600.00000
G01 X-83.80890 Y100.92082
G01 X-83.85015 Y100.72676
G01 X-83.92437 Y100.56542
G01 X-84.01652 Y100.43857
G01 X-84.15518 Y100.31155
G01 X-84.31883 Y100.21894
G01 X-84.46795 Y100.17050
G01 X-84.64433 Y100.14975
G01 X-85.66523 Y100.14975
G01 X-85.84163 Y100.17050
G01 X-86.00983 Y100.22745
G01 X-86.15441 Y100.31155
G01 X-86.29304 Y100.43857
G01 X-86.39566 Y100.58353
G01 X-86.46320 Y100.73654
G01 X-86.50013 Y100.91035
G01 X-86.50013 Y101.08805
G01 X-86.45944 Y101.27164
G01 X-86.38522 Y101.43298
G01 X-86.29304 Y101.55983
G01 X-86.15441 Y101.68688
G01 X-85.99073 Y101.77946
G01 X-85.83152 Y101.83065
G01 X-85.65479 Y101.84921
G01 X-84.64433 Y101.84865
G01 X-84.47806 Y101.83065
G01 X-84.29973 Y101.77098
G01 X-84.14705 Y101.68028
G01 X-84.02312 Y101.56796
G01 X-83.92437 Y101.43298
G01 X-83.85015 Y101.27164
G01 X-83.80946 Y101.08805
G01 X-83.80890 Y100.92082
G04 P0 ( dwell for no time -- G64 should not smooth over this point )
G00 Z5.00000 ( retract )

G00 X-83.80890 Y98.38082 ( rapid move to begin. )
G01 F300.00000
G01 Z-0.14000
G04 P0 ( dwell for no time -- G64 should not smooth over this point )
G01 F600.00000
G01 X-83.80890 Y98.38082
G01 X-83.84367 Y98.20665
G01 X-83.92437 Y98.02542
G01 X-84.02312 Y97.89045
G01 X-84.14705 Y97.77813
G01 X-84.30907 Y97.68270
G01 X-84.46795 Y97.63050
G01 X-84.64433 Y97.60975
G01 X-85.66523 Y97.60975
G01 X-85.84163 Y97.63050
G01 X-86.00051 Y97.68270
G01 X-86.14562 Y97.76583
G01 X-86.28646 Y97.89045
G01 X-86.38522 Y98.02542
G01 X-86.46320 Y98.19654
G01 X-86.50013 Y98.37035
G01 X-86.50013 Y98.54805
G01 X-86.46320 Y98.72186
G01 X-86.38522 Y98.89298
G01 X-86.28646 Y99.02796
G01 X-86.16254 Y99.14028
G01 X-86.00051 Y99.23573
G01 X-85.84163 Y99.28793
G01 X-85.66523 Y99.30865
G01 X-84.64433 Y99.30865
G01 X-84.46795 Y99.28793
G01 X-84.30907 Y99.23573
G01 X-84.16394 Y99.15257
G01 X-84.02312 Y99.02796
G01 X-83.92437 Y98.89298
G01 X-83.85015 Y98.73164
G01 X-83.80946 Y98.54805
G01 X-83.80890 Y98.38082
G04 P0 ( dwell for no time -- G64 should not smooth over this point )
G00 Z5.00000 ( retract )

G00 X-83.80890 Y95.84082 ( rapid move to begin. )
G01 F300.00000
G01 Z-0.14000
G04 P0 ( dwell for no time -- G64 should not smooth over this point )
G01 F600.00000
G01 X-83.80890 Y95.84082
G01 X-83.84367 Y95.66665
G01 X-83.92437 Y95.48542
G01 X-84.01652 Y95.35857
G01 X-84.14705 Y95.23813
G01 X-84.30907 Y95.14270
G01 X-84.46795 Y95.09050
G01 X-84.64433 Y95.06975
G01 X-85.66523 Y95.06975
G01 X-85.84163 Y95.09050
G01 X-86.00051 Y95.14270
G01 X-86.15441 Y95.23155
G01 X-86.29304 Y95.35857
G01 X-86.39566 Y95.50353
G01 X-86.46320 Y95.65654
G01 X-86.49850 Y95.82002
G01 X-86.50069 Y95.99761
G01 X-86.46320 Y96.18186
G01 X-86.38522 Y96.35298
G01 X-86.28646 Y96.48796
G01 X-86.16254 Y96.60028
G01 X-86.00051 Y96.69573
G01 X-85.84163 Y96.74793
G01 X-85.66523 Y96.76865
G01 X-84.64433 Y96.76865
G01 X-84.46795 Y96.74793
G01 X-84.30907 Y96.69573
G01 X-84.16394 Y96.61257
G01 X-84.02312 Y96.48796
G01 X-83.92437 Y96.35298
G01 X-83.85015 Y96.19164
G01 X-83.81108 Y96.01839
G01 X-83.80890 Y95.84082
G04 P0 ( dwell for no time -- G64 should not smooth over this point )
G00 Z5.00000 ( retract )

G00 X-83.80890 Y93.30082 ( rapid move to begin. )
G01 F300.00000
G01 Z-0.14000
G04 P0 ( dwell for no time -- G64 should not smooth over this point )
G01 F600.00000
G01 X-83.80890 Y93.30082
G01 X-83.84367 Y93.12665
G01 X-83.92437 Y92.94542
G01 X-84.01652 Y92.81857
G01 X-84.14705 Y92.69813
G01 X-84.30907 Y92.60270
G01 X-84.46795 Y92.55050
G01 X-84.64433 Y92.52975
G01 X-85.66523 Y92.52975
G01 X-85.84163 Y92.55050
G01 X-86.00051 Y92.60270
G01 X-86.15441 Y92.69155
G01 X-86.29304 Y92.81857
G01 X-86.39566 Y92.96353
G01 X-86.46320 Y93.11654
G01 X-86.49850 Y93.28002
G01 X-86.50069 Y93.45761
G01 X-86.46320 Y93.64186
G01 X-86.38522 Y93.81298
G01 X-86.28646 Y93.94796
G01 X-86.16254 Y94.06028
G01 X-86.00051 Y94.15573
G01 X-85.84163 Y94.20793
G01 X-85.66523 Y94.22865
G01 X-84.64433 Y94.22865
G01 X-84.46795 Y94.20793
G01 X-84.30907 Y94.15573
G01 X-84.16394 Y94.07257
G01 X-84.02312 Y93.94796
G01 X-83.92437 Y93.81298
G01 X-83.85015 Y93.65164
G01 X-83.81108 Y93.47839
G01 X-83.80890 Y93.30082
G04 P0 ( dwell for no time -- G64 should not smooth over this point )
G00 Z5.00000 ( retract )

G00 X-130.97078 Y113.99082 ( rapid move to begin. )
G01 F300.00000
G01 Z-0.14000
G04 P0 ( dwell for no time -- G64 should not smooth over this point )
G01 F600.00000
G01 X-130.97078 Y113.99082
G01 X-131.00006 Y113.92011
G01 X-131.07078 Y113.89082
G01 X-132.62579 Y113.89082
G01 X-132.63108 Y113.18193
G01 X-132.65663 Y113.09770
G01 X-132.72170 Y113.00030
G01 X-132.78975 Y112.94444
G01 X-132.91721 Y112.89580
G01 X-133.41162 Y112.89052
G01 X-136.99218 Y109.30993
G01 X-136.99218 Y98.06748
G01 X-134.69061 Y95.75845
G01 X-134.64913 Y95.68080
G01 X-134.62627 Y95.56591
G01 X-134.62579 Y94.90582
G01 X-133.37578 Y94.90582
G01 X-133.30506 Y94.87653
G01 X-133.27578 Y94.80582
G01 X-133.28340 Y91.56755
G01 X-133.32023 Y91.52267
G01 X-133.37578 Y91.50580
G01 X-134.62579 Y91.50580
G01 X-134.62579 Y89.82582
G01 X-133.37578 Y89.82582
G01 X-133.30506 Y89.79653
G01 X-133.27771 Y89.74533
G01 X-133.28340 Y86.48755
G01 X-133.32023 Y86.44267
G01 X-133.37578 Y86.42580
G01 X-136.59530 Y86.42773
G01 X-136.64651 Y86.45509
G01 X-136.67580 Y86.52580
G01 X-136.67387 Y89.74533
G01 X-136.64651 Y89.79653
G01 X-136.57580 Y89.82582
G01 X-135.32579 Y89.82582
G01 X-135.32579 Y91.50580
G01 X-136.57580 Y91.50580
G01 X-136.63135 Y91.52267
G01 X-136.66818 Y91.56755
G01 X-136.67387 Y94.82533
G01 X-136.64651 Y94.87653
G01 X-136.57580 Y94.90582
G01 X-135.32579 Y94.90582
G01 X-135.32579 Y95.41115
G01 X-137.58966 Y97.67503
G01 X-137.66134 Y97.77970
G01 X-137.68689 Y97.86393
G01 X-137.68308 Y109.53271
G01 X-137.63825 Y109.64094
G01 X-137.58966 Y109.70239
G01 X-133.80407 Y113.48800
G01 X-133.74263 Y113.53657
G01 X-133.63440 Y113.58140
G01 X-133.32579 Y113.59052
G01 X-133.32579 Y113.89082
G01 X-134.88078 Y113.89082
G01 X-134.93635 Y113.90766
G01 X-134.97318 Y113.95254
G01 X-134.98078 Y117.80082
G01 X-134.97318 Y117.83907
G01 X-134.93635 Y117.88395
G01 X-134.88078 Y117.90082
G01 X-131.07078 Y117.90082
G01 X-131.00006 Y117.87151
G01 X-130.97078 Y117.80082
G01 X-130.97078 Y113.99082
G04 P0 ( dwell for no time -- G64 should not smooth over this point )
G00 Z5.00000 ( retract )

G00 X-117.70891 Y98.38082 ( rapid move to begin. )
G01 F300.00000
G01 Z-0.14000
G04 P0 ( dwell for no time -- G64 should not smooth over this point )
G01 F600.00000
G01 X-117.70891 Y98.38082
G01 X-117.75013 Y98.18676
G01 X-117.81866 Y98.03421
G01 X-117.91652 Y97.89857
G01 X-118.05516 Y97.77155
G01 X-118.21884 Y97.67894
G01 X-118.36796 Y97.63050
G01 X-118.54434 Y97.60975
G01 X-119.56524 Y97.60975
G01 X-119.74162 Y97.63050
G01 X-119.90984 Y97.68745
G01 X-120.05439 Y97.77155
G01 X-120.19305 Y97.89857
G01 X-120.29567 Y98.04353
G01 X-120.36318 Y98.19654
G01 X-120.39849 Y98.36002
G01 X-120.40067 Y98.53761
G01 X-120.35945 Y98.73164
G01 X-120.29567 Y98.87487
G01 X-120.19305 Y99.01983
G01 X-120.05439 Y99.14688
G01 X-119.89074 Y99.23946
G01 X-119.72117 Y99.29227
G01 X-119.55480 Y99.30921
G01 X-118.54434 Y99.30865
G01 X-118.36796 Y99.28793
G01 X-118.19973 Y99.23098
G01 X-118.05516 Y99.14688
G01 X-117.93052 Y99.03538
G01 X-117.81866 Y98.88422
G01 X-117.75013 Y98.73164
G01 X-117.70944 Y98.54805
G01 X-117.70891 Y98.38082
G04 P0 ( dwell for no time -- G64 should not smooth over this point )
G00 Z5.00000 ( retract )

G00 X-117.70891 Y95.84082 ( rapid move to begin. )
G01 F300.00000
G01 Z-0.14000
G04 P0 ( dwell for no time -- G64 should not smooth over this point )
G01 F600.00000
G01 X-117.70891 Y95.84082
G01 X-117.75013 Y95.64676
G01 X-117.81866 Y95.49421
G01 X-117.91652 Y95.35857
G01 X-118.05516 Y95.23155
G01 X-118.21884 Y95.13894
G01 X-118.36796 Y95.09050
G01 X-118.54434 Y95.06975
G01 X-119.56524 Y95.06975
G01 X-119.74162 Y95.09050
G01 X-119.90984 Y95.14745
G01 X-120.05439 Y95.23155
G01 X-120.19305 Y95.35857
G01 X-120.29567 Y95.50353
G01 X-120.36318 Y95.65654
G01 X-120.39849 Y95.82002
G01 X-120.40067 Y95.99761
G01 X-120.35945 Y96.19164
G01 X-120.29567 Y96.33487
G01 X-120.19305 Y96.47983
G01 X-120.05439 Y96.60688
G01 X-119.89074 Y96.69946
G01 X-119.72117 Y96.75227
G01 X-119.55480 Y96.76921
G01 X-118.54434 Y96.76865
G01 X-118.36796 Y96.74793
G01 X-118.19973 Y96.69098
G01 X-118.05516 Y96.60688
G01 X-117.93052 Y96.49538
G01 X-117.81866 Y96.34422
G01 X-117.75013 Y96.19164
G01 X-117.70944 Y96.00805
G01 X-117.70891 Y95.84082
G04 P0 ( dwell for no time -- G64 should not smooth over this point )
G00 Z5.00000 ( retract )

G00 X-117.70891 Y88.22082 ( rapid move to begin. )
G01 F300.00000
G01 Z-0.14000
G04 P0 ( dwell for no time -- G64 should not smooth over this point )
G01 F600.00000
G01 X-117.70891 Y88.22082
G01 X-117.75013 Y88.02676
G01 X-117.81866 Y87.87421
G01 X-117.91652 Y87.73857
G01 X-118.06395 Y87.60583
G01 X-118.21884 Y87.51894
G01 X-118.38841 Y87.46616
G01 X-118.55478 Y87.44922
G01 X-119.55480 Y87.44922
G01 X-119.74162 Y87.47050
G01 X-119.90984 Y87.52745
G01 X-120.06255 Y87.61813
G01 X-120.19305 Y87.73857
G01 X-120.28520 Y87.86542
G01 X-120.32490 Y87.94922
G01 X-126.27379 Y87.94922
G01 X-126.34714 Y87.68818
G01 X-126.46586 Y87.47924
G01 X-126.61973 Y87.30835
G01 X-126.81511 Y87.16842
G01 X-127.01587 Y87.07965
G01 X-127.25125 Y87.03129
G01 X-127.48110 Y87.03347
G01 X-127.69611 Y87.07977
G01 X-127.84135 Y87.14528
G01 X-141.13840 Y73.84823
G01 X-141.13840 Y36.61211
G01 X-138.62761 Y34.09385
G01 X-138.58613 Y34.01620
G01 X-138.56327 Y33.90132
G01 X-138.56279 Y33.24117
G01 X-138.01742 Y33.24115
G01 X-137.82083 Y33.22105
G01 X-137.62235 Y33.15885
G01 X-137.44117 Y33.05677
G01 X-137.27775 Y32.91184
G01 X-137.15067 Y32.73416
G01 X-137.07079 Y32.55339
G01 X-137.02700 Y32.33940
G01 X-137.02919 Y32.13142
G01 X-137.06810 Y31.94834
G01 X-137.16114 Y31.73935
G01 X-137.27775 Y31.57978
G01 X-137.44117 Y31.43485
G01 X-137.60328 Y31.34125
G01 X-137.80038 Y31.27491
G01 X-138.01745 Y31.25045
G01 X-139.80815 Y31.25045
G01 X-140.00475 Y31.27056
G01 X-140.20322 Y31.33277
G01 X-140.38440 Y31.43485
G01 X-140.54043 Y31.57239
G01 X-140.67490 Y31.75746
G01 X-140.75478 Y31.93823
G01 X-140.79857 Y32.15222
G01 X-140.79639 Y32.36020
G01 X-140.75102 Y32.56317
G01 X-140.66443 Y32.75227
G01 X-140.54782 Y32.91184
G01 X-140.40132 Y33.04447
G01 X-140.22230 Y33.15037
G01 X-140.02519 Y33.21671
G01 X-139.81859 Y33.24061
G01 X-139.26279 Y33.24117
G01 X-139.26279 Y33.74653
G01 X-141.73588 Y36.21963
G01 X-141.80756 Y36.32430
G01 X-141.83840 Y36.46710
G01 X-141.83840 Y73.99321
G01 X-141.81505 Y74.11790
G01 X-141.73588 Y74.24071
G01 X-128.33820 Y87.63837
G01 X-128.43339 Y87.90743
G01 X-128.45524 Y88.13626
G01 X-128.42905 Y88.36463
G01 X-128.36443 Y88.56344
G01 X-128.25140 Y88.76359
G01 X-128.09184 Y88.94327
G01 X-127.91457 Y89.07273
G01 X-127.69570 Y89.17197
G01 X-127.48110 Y89.21815
G01 X-127.25125 Y89.22033
G01 X-127.01587 Y89.17197
G01 X-126.81511 Y89.08320
G01 X-126.61973 Y88.94327
G01 X-126.47246 Y88.78051
G01 X-126.39413 Y88.64921
G01 X-120.32490 Y88.64921
G01 X-120.28520 Y88.73298
G01 X-120.19305 Y88.85983
G01 X-120.06255 Y88.98028
G01 X-119.90984 Y89.07098
G01 X-119.74162 Y89.12793
G01 X-119.55480 Y89.14921
G01 X-118.54434 Y89.14865
G01 X-118.36796 Y89.12793
G01 X-118.19973 Y89.07098
G01 X-118.05516 Y88.98688
G01 X-117.93052 Y88.87538
G01 X-117.82437 Y88.73298
G01 X-117.75013 Y88.57164
G01 X-117.70944 Y88.38805
G01 X-117.70891 Y88.22082
G04 P0 ( dwell for no time -- G64 should not smooth over this point )
G00 Z5.00000 ( retract )

G00 X-112.95578 Y70.01580 ( rapid move to begin. )
G01 F300.00000
G01 Z-0.14000
G04 P0 ( dwell for no time -- G64 should not smooth over this point )
G01 F600.00000
G01 X-112.95578 Y70.01580
G01 X-112.98506 Y69.94509
G01 X-113.05578 Y69.91580
G01 X-116.25580 Y69.91580
G01 X-116.32651 Y69.94509
G01 X-116.35387 Y69.99629
G01 X-116.34818 Y73.25407
G01 X-116.31135 Y73.29895
G01 X-116.25580 Y73.31582
G01 X-115.00579 Y73.31582
G01 X-115.00579 Y73.82113
G01 X-117.30197 Y76.11731
G01 X-117.37365 Y76.22201
G01 X-117.39920 Y76.30624
G01 X-117.40449 Y90.48922
G01 X-117.78467 Y90.48919
G01 X-117.82437 Y90.40542
G01 X-117.91652 Y90.27857
G01 X-118.04703 Y90.15813
G01 X-118.19973 Y90.06745
G01 X-118.36796 Y90.01050
G01 X-118.55478 Y89.98922
G01 X-119.56524 Y89.98975
G01 X-119.74162 Y90.01050
G01 X-119.89074 Y90.05894
G01 X-120.05439 Y90.15155
G01 X-120.19305 Y90.27857
G01 X-120.28520 Y90.40542
G01 X-120.32490 Y90.48919
G01 X-126.26898 Y90.48970
G01 X-126.38389 Y90.51253
G01 X-126.46152 Y90.55404
G01 X-126.87023 Y90.95528
G01 X-127.01547 Y90.88977
G01 X-127.23048 Y90.84347
G01 X-127.48110 Y90.84347
G01 X-127.69570 Y90.88965
G01 X-127.89646 Y90.97842
G01 X-128.09923 Y91.12574
G01 X-128.25140 Y91.29803
G01 X-128.36067 Y91.48840
G01 X-128.43339 Y91.71743
G01 X-128.45524 Y91.94626
G01 X-128.42905 Y92.17463
G01 X-128.36443 Y92.37344
G01 X-128.25140 Y92.57359
G01 X-128.08369 Y92.75985
G01 X-127.89646 Y92.89320
G01 X-127.70579 Y92.97809
G01 X-127.70579 Y98.33053
G01 X-135.22988 Y105.85530
G01 X-135.29495 Y105.95271
G01 X-135.32050 Y106.03694
G01 X-135.32579 Y106.79119
G01 X-135.50112 Y106.82901
G01 X-135.83457 Y106.97928
G01 X-136.11331 Y107.18245
G01 X-136.35682 Y107.45535
G01 X-136.53257 Y107.76414
G01 X-136.63864 Y108.09236
G01 X-136.67524 Y108.43536
G01 X-136.63864 Y108.79926
G01 X-136.52406 Y109.14658
G01 X-136.34453 Y109.45319
G01 X-136.11331 Y109.70917
G01 X-135.81646 Y109.92281
G01 X-135.50112 Y110.06261
G01 X-135.16384 Y110.13487
G01 X-134.78774 Y110.13487
G01 X-134.45045 Y110.06261
G01 X-134.13511 Y109.92281
G01 X-133.83826 Y109.70917
G01 X-133.60704 Y109.45319
G01 X-133.42752 Y109.14658
G01 X-133.31294 Y108.79926
G01 X-133.27634 Y108.43536
G01 X-133.31566 Y108.08225
G01 X-133.41901 Y107.76414
G01 X-133.59475 Y107.45535
G01 X-133.83826 Y107.18245
G01 X-134.13511 Y106.96881
G01 X-134.45045 Y106.82901
G01 X-134.62579 Y106.79119
G01 X-134.62579 Y106.24049
G01 X-127.10830 Y98.72301
G01 X-127.03662 Y98.61831
G01 X-127.00579 Y98.47551
G01 X-127.00576 Y92.97809
G01 X-126.79700 Y92.88273
G01 X-126.61973 Y92.75327
G01 X-126.46586 Y92.58238
G01 X-126.35565 Y92.39254
G01 X-126.27983 Y92.16452
G01 X-126.25634 Y91.92536
G01 X-126.27983 Y91.70709
G01 X-126.37338 Y91.44837
G01 X-126.11420 Y91.18921
G01 X-120.32490 Y91.18921
G01 X-120.28520 Y91.27298
G01 X-120.19305 Y91.39983
G01 X-120.06255 Y91.52028
G01 X-119.90984 Y91.61098
G01 X-119.74162 Y91.66793
G01 X-119.55480 Y91.68921
G01 X-118.55478 Y91.68921
G01 X-118.36796 Y91.66793
G01 X-118.19973 Y91.61098
G01 X-118.05516 Y91.52688
G01 X-117.91652 Y91.39983
G01 X-117.82437 Y91.27298
G01 X-117.78467 Y91.18921
G01 X-116.99590 Y91.18393
G01 X-116.86844 Y91.13526
G01 X-116.75844 Y91.02523
G01 X-116.71361 Y90.91700
G01 X-116.70449 Y90.83920
G01 X-116.70449 Y76.50979
G01 X-114.37061 Y74.16845
G01 X-114.32913 Y74.09080
G01 X-114.30627 Y73.97591
G01 X-114.30579 Y73.31582
G01 X-113.05578 Y73.31582
G01 X-113.00023 Y73.29895
G01 X-112.97264 Y73.27137
G01 X-112.95578 Y73.21582
G01 X-112.95578 Y70.01580
G04 P0 ( dwell for no time -- G64 should not smooth over this point )
G00 Z5.00000 ( retract )

G00 X-97.71634 Y71.60536 ( rapid move to begin. )
G01 F300.00000
G01 Z-0.14000
G04 P0 ( dwell for no time -- G64 should not smooth over this point )
G01 F600.00000
G01 X-97.71634 Y71.60536
G01 X-97.75566 Y71.97937
G01 X-97.85901 Y72.29748
G01 X-98.03475 Y72.60627
G01 X-98.28639 Y72.88575
G01 X-98.57511 Y73.09281
G01 X-98.88070 Y73.22885
G01 X-99.24854 Y73.30706
G01 X-99.60384 Y73.30487
G01 X-99.94112 Y73.23261
G01 X-100.27457 Y73.08234
G01 X-100.55331 Y72.87917
G01 X-100.78453 Y72.62319
G01 X-100.96406 Y72.31658
G01 X-101.07864 Y71.96926
G01 X-101.11524 Y71.60536
G01 X-101.07592 Y71.25225
G01 X-100.97257 Y70.93414
G01 X-100.79682 Y70.62535
G01 X-100.56070 Y70.35987
G01 X-100.25646 Y70.13881
G01 X-99.94112 Y69.99901
G01 X-99.76579 Y69.96119
G01 X-99.76579 Y69.41049
G01 X-104.81086 Y64.36473
G01 X-104.87596 Y64.26732
G01 X-104.90151 Y64.18310
G01 X-104.90680 Y63.64109
G01 X-105.09745 Y63.55620
G01 X-105.28470 Y63.42285
G01 X-105.44012 Y63.25351
G01 X-105.55694 Y63.05554
G01 X-105.63004 Y62.83763
G01 X-105.65625 Y62.60926
G01 X-105.63438 Y62.38043
G01 X-105.53921 Y62.11137
G01 X-107.18977 Y60.46080
G01 X-123.24415 Y60.46080
G01 X-123.25347 Y60.52857
G01 X-123.35886 Y60.84592
G01 X-123.52794 Y61.13441
G01 X-123.75332 Y61.38143
G01 X-124.02512 Y61.57619
G01 X-124.32136 Y61.70751
G01 X-124.63820 Y61.77540
G01 X-124.97257 Y61.77759
G01 X-125.31021 Y61.70751
G01 X-125.62456 Y61.56575
G01 X-125.88638 Y61.37485
G01 X-126.11592 Y61.11749
G01 X-126.28120 Y60.82682
G01 X-126.38247 Y60.50812
G01 X-126.41524 Y60.19626
G01 X-126.38247 Y59.86350
G01 X-126.27747 Y59.53502
G01 X-126.10363 Y59.23721
G01 X-125.88638 Y58.99677
G01 X-125.62456 Y58.80587
G01 X-125.30010 Y58.66142
G01 X-124.99337 Y58.59621
G01 X-124.65901 Y58.59403
G01 X-124.31158 Y58.66787
G01 X-124.00701 Y58.80587
G01 X-123.74519 Y58.99677
G01 X-123.51565 Y59.25412
G01 X-123.35411 Y59.53502
G01 X-123.28017 Y59.76080
G01 X-107.39478 Y59.76080
G01 X-107.39478 Y49.06377
G01 X-107.53920 Y49.03250
G01 X-107.85358 Y48.89075
G01 X-108.11540 Y48.69984
G01 X-108.33262 Y48.45940
G01 X-108.50646 Y48.16159
G01 X-108.60712 Y47.85359
G01 X-108.64423 Y47.50035
G01 X-108.60712 Y47.16804
G01 X-108.50171 Y46.85069
G01 X-108.34492 Y46.57914
G01 X-108.12279 Y46.32918
G01 X-107.85358 Y46.13086
G01 X-107.53920 Y45.98913
G01 X-107.20159 Y45.91902
G01 X-106.86719 Y45.92121
G01 X-106.54058 Y45.99286
G01 X-106.23600 Y46.13086
G01 X-105.98231 Y46.31519
G01 X-105.74467 Y46.57914
G01 X-105.58312 Y46.86004
G01 X-105.48246 Y47.16804
G01 X-105.44479 Y47.51082
G01 X-105.48246 Y47.85359
G01 X-105.58312 Y48.16159
G01 X-105.75036 Y48.45128
G01 X-105.96676 Y48.69245
G01 X-106.24479 Y48.89646
G01 X-106.55036 Y49.03250
G01 X-106.69478 Y49.06377
G01 X-106.69478 Y59.96583
G01 X-105.04233 Y61.61828
G01 X-104.89712 Y61.55277
G01 X-104.66131 Y61.50429
G01 X-104.43146 Y61.50647
G01 X-104.22699 Y61.54993
G01 X-103.99801 Y61.65188
G01 X-103.81335 Y61.78874
G01 X-103.66687 Y61.95224
G01 X-103.54813 Y62.16118
G01 X-103.48082 Y62.37009
G01 X-103.45735 Y62.58836
G01 X-103.48082 Y62.82752
G01 X-103.55663 Y63.05554
G01 X-103.67345 Y63.25351
G01 X-103.82887 Y63.42285
G01 X-104.01612 Y63.55620
G01 X-104.20680 Y63.64109
G01 X-104.20680 Y63.97954
G01 X-99.16170 Y69.02530
G01 X-99.09662 Y69.12271
G01 X-99.07107 Y69.20694
G01 X-99.06579 Y69.96119
G01 X-98.89045 Y69.99901
G01 X-98.55700 Y70.14928
G01 X-98.27826 Y70.35245
G01 X-98.04704 Y70.60843
G01 X-97.85901 Y70.93414
G01 X-97.75294 Y71.26236
G01 X-97.71634 Y71.60536
G04 P0 ( dwell for no time -- G64 should not smooth over this point )
G00 Z5.00000 ( retract )

G00 X-89.42634 Y57.51537 ( rapid move to begin. )
G01 F300.00000
G01 Z-0.14000
G04 P0 ( dwell for no time -- G64 should not smooth over this point )
G01 F600.00000
G01 X-89.42634 Y57.51537
G01 X-89.44983 Y57.75451
G01 X-89.51714 Y57.96345
G01 X-89.63586 Y58.17236
G01 X-89.79789 Y58.34986
G01 X-89.96700 Y58.47274
G01 X-90.17609 Y58.56822
G01 X-90.41081 Y58.61978
G01 X-90.65110 Y58.61813
G01 X-90.86611 Y58.57183
G01 X-91.01135 Y58.50632
G01 X-94.04680 Y61.54178
G01 X-94.04680 Y61.55653
G01 X-93.83801 Y61.65188
G01 X-93.66887 Y61.77477
G01 X-93.51345 Y61.94411
G01 X-93.39663 Y62.14208
G01 X-93.32082 Y62.37009
G01 X-93.29679 Y62.59880
G01 X-93.32353 Y62.83763
G01 X-93.38813 Y63.03644
G01 X-93.50116 Y63.23659
G01 X-93.65335 Y63.40888
G01 X-93.85612 Y63.55620
G01 X-94.06699 Y63.64769
G01 X-94.29226 Y63.69333
G01 X-94.51177 Y63.69277
G01 X-94.74647 Y63.64121
G01 X-94.95556 Y63.54573
G01 X-95.14024 Y63.40888
G01 X-95.28670 Y63.24538
G01 X-95.40544 Y63.03644
G01 X-95.47275 Y62.82752
G01 X-95.49625 Y62.60926
G01 X-95.47004 Y62.35999
G01 X-95.40544 Y62.16118
G01 X-95.29241 Y61.96103
G01 X-95.12470 Y61.77477
G01 X-94.93745 Y61.64142
G01 X-94.74680 Y61.55653
G01 X-94.73768 Y61.31902
G01 X-94.69285 Y61.21079
G01 X-94.64428 Y61.14932
G01 X-91.50822 Y58.01326
G01 X-91.60339 Y57.74417
G01 X-91.62524 Y57.51537
G01 X-91.60174 Y57.29711
G01 X-91.52592 Y57.06906
G01 X-91.41571 Y56.87925
G01 X-91.26923 Y56.71575
G01 X-91.06646 Y56.56843
G01 X-90.85559 Y56.47694
G01 X-90.64076 Y56.43183
G01 X-90.42125 Y56.43130
G01 X-90.17609 Y56.48339
G01 X-89.98511 Y56.56843
G01 X-89.79789 Y56.70175
G01 X-89.63586 Y56.87925
G01 X-89.51714 Y57.08816
G01 X-89.44983 Y57.29711
G01 X-89.42634 Y57.51537
G04 P0 ( dwell for no time -- G64 should not smooth over this point )
G00 Z5.00000 ( retract )

G00 X-84.34578 Y27.43580 ( rapid move to begin. )
G01 F300.00000
G01 Z-0.14000
G04 P0 ( dwell for no time -- G64 should not smooth over this point )
G01 F600.00000
G01 X-84.34578 Y27.43580
G01 X-84.34578 Y29.43582
G01 X-84.36264 Y29.49137
G01 X-84.39023 Y29.51895
G01 X-84.44578 Y29.53582
G01 X-86.46531 Y29.53389
G01 X-86.51649 Y29.50651
G01 X-86.54387 Y29.45533
G01 X-86.54577 Y28.78581
G01 X-87.05111 Y28.78581
G01 X-89.99540 Y31.73010
G01 X-90.10007 Y31.80178
G01 X-90.18432 Y31.82733
G01 X-98.47699 Y31.83261
G01 X-98.60168 Y31.80927
G01 X-98.72446 Y31.73010
G01 X-103.00980 Y27.44479
G01 X-104.78338 Y29.21837
G01 X-104.68818 Y29.48743
G01 X-104.66578 Y29.70580
G01 X-104.69252 Y29.94463
G01 X-104.76565 Y30.16254
G01 X-104.87586 Y30.35238
G01 X-105.02234 Y30.51588
G01 X-105.20700 Y30.65273
G01 X-105.43598 Y30.75469
G01 X-105.66125 Y30.80033
G01 X-105.88076 Y30.79977
G01 X-106.09559 Y30.75469
G01 X-106.30646 Y30.66320
G01 X-106.49369 Y30.52985
G01 X-106.65571 Y30.35238
G01 X-106.77443 Y30.14344
G01 X-106.84339 Y29.92419
G01 X-106.86580 Y29.70580
G01 X-106.84339 Y29.48743
G01 X-106.77443 Y29.26818
G01 X-106.65571 Y29.05924
G01 X-106.49369 Y28.88177
G01 X-106.30646 Y28.74842
G01 X-106.11548 Y28.66341
G01 X-105.88076 Y28.61184
G01 X-105.64048 Y28.61347
G01 X-105.42547 Y28.65977
G01 X-105.28023 Y28.72528
G01 X-103.35978 Y26.80484
G01 X-103.35978 Y23.76880
G01 X-104.10980 Y23.76880
G01 X-104.16535 Y23.75196
G01 X-104.20218 Y23.70708
G01 X-104.20980 Y21.46881
G01 X-104.18051 Y21.39809
G01 X-104.12930 Y21.37074
G01 X-101.90978 Y21.36881
G01 X-101.85423 Y21.38567
G01 X-101.82664 Y21.41326
G01 X-101.80978 Y21.46881
G01 X-101.81740 Y23.70708
G01 X-101.85423 Y23.75196
G01 X-101.90978 Y23.76880
G01 X-102.65979 Y23.76880
G01 X-102.65979 Y26.80484
G01 X-98.33203 Y31.13259
G01 X-90.38785 Y31.13259
G01 X-87.39842 Y28.15063
G01 X-87.32078 Y28.10915
G01 X-87.20589 Y28.08629
G01 X-86.54577 Y28.08581
G01 X-86.54580 Y27.43580
G01 X-86.52893 Y27.38025
G01 X-86.50135 Y27.35266
G01 X-86.44580 Y27.33580
G01 X-84.44578 Y27.33580
G01 X-84.37509 Y27.36511
G01 X-84.34578 Y27.43580
G04 P0 ( dwell for no time -- G64 should not smooth over this point )
G00 Z5.00000 ( retract )

G00 X-110.57278 Y7.50081 ( rapid move to begin. )
G01 F300.00000
G01 Z-0.14000
G04 P0 ( dwell for no time -- G64 should not smooth over this point )
G01 F600.00000
G01 X-110.57278 Y7.50081
G01 X-110.57278 Y11.31681
G01 X-110.60209 Y11.38752
G01 X-110.67278 Y11.41681
G01 X-114.48879 Y11.41681
G01 X-114.55951 Y11.38752
G01 X-114.58879 Y11.31681
G01 X-114.58879 Y7.50081
G01 X-114.55951 Y7.43010
G01 X-114.48879 Y7.40081
G01 X-110.67278 Y7.40081
G01 X-110.60209 Y7.43010
G01 X-110.57278 Y7.50081
G04 P0 ( dwell for no time -- G64 should not smooth over this point )
G00 Z5.00000 ( retract )

G00 X-86.18878 Y7.50081 ( rapid move to begin. )
G01 F300.00000
G01 Z-0.14000
G04 P0 ( dwell for no time -- G64 should not smooth over this point )
G01 F600.00000
G01 X-86.18878 Y7.50081
G01 X-86.21809 Y7.43010
G01 X-86.28878 Y7.40081
G01 X-90.10479 Y7.40081
G01 X-90.17551 Y7.43010
G01 X-90.20479 Y7.50081
G01 X-90.20479 Y11.31681
G01 X-90.17551 Y11.38752
G01 X-90.10479 Y11.41681
G01 X-86.28878 Y11.41681
G01 X-86.21809 Y11.38752
G01 X-86.18878 Y11.31681
G01 X-86.18878 Y7.50081
G04 P0 ( dwell for no time -- G64 should not smooth over this point )
G00 Z5.00000 ( retract )

G00 X-80.57278 Y7.50081 ( rapid move to begin. )
G01 F300.00000
G01 Z-0.14000
G04 P0 ( dwell for no time -- G64 should not smooth over this point )
G01 F600.00000
G01 X-80.57278 Y7.50081
G01 X-80.60207 Y7.43010
G01 X-80.67278 Y7.40081
G01 X-84.48878 Y7.40081
G01 X-84.55949 Y7.43010
G01 X-84.58878 Y7.50081
G01 X-84.58878 Y11.31681
G01 X-84.55949 Y11.38752
G01 X-84.48878 Y11.41681
G01 X-80.67278 Y11.41681
G01 X-80.60207 Y11.38752
G01 X-80.57278 Y11.31681
G01 X-80.57278 Y7.50081
G04 P0 ( dwell for no time -- G64 should not smooth over this point )
G00 Z5.00000 ( retract )

G00 X-68.87878 Y22.56880 ( rapid move to begin. )
G01 F300.00000
G01 Z-0.14000
G04 P0 ( dwell for no time -- G64 should not smooth over this point )
G01 F600.00000
G01 X-68.87878 Y22.56880
G01 X-68.90771 Y22.82842
G01 X-68.97878 Y23.04711
G01 X-69.10227 Y23.26537
G01 X-69.28396 Y23.46718
G01 X-69.48812 Y23.61279
G01 X-69.71807 Y23.71279
G01 X-69.95335 Y23.76225
G01 X-70.19376 Y23.76278
G01 X-70.43951 Y23.71279
G01 X-70.68756 Y23.60233
G01 X-70.87362 Y23.46718
G01 X-71.04301 Y23.28229
G01 X-71.17029 Y23.06621
G01 X-71.24987 Y22.82842
G01 X-71.27880 Y22.56880
G01 X-71.24987 Y22.30921
G01 X-71.17029 Y22.07139
G01 X-71.04301 Y21.85534
G01 X-70.88914 Y21.68443
G01 X-70.76107 Y21.58869
G01 X-71.28715 Y21.06261
G01 X-98.54593 Y21.06261
G01 X-99.44285 Y21.95956
G01 X-99.36978 Y22.09050
G01 X-99.29436 Y22.32966
G01 X-99.26978 Y22.56880
G01 X-99.29873 Y22.82842
G01 X-99.37353 Y23.05689
G01 X-99.49896 Y23.27416
G01 X-99.67496 Y23.46718
G01 X-99.87912 Y23.61279
G01 X-100.10907 Y23.71279
G01 X-100.34435 Y23.76225
G01 X-100.58476 Y23.76278
G01 X-100.83050 Y23.71279
G01 X-101.07856 Y23.60233
G01 X-101.26462 Y23.46718
G01 X-101.43401 Y23.28229
G01 X-101.56129 Y23.06621
G01 X-101.64087 Y22.82842
G01 X-101.66980 Y22.56880
G01 X-101.64087 Y22.30921
G01 X-101.56129 Y22.07139
G01 X-101.44061 Y21.86347
G01 X-101.26462 Y21.67046
G01 X-101.06980 Y21.52959
G01 X-100.85039 Y21.43129
G01 X-100.59522 Y21.37538
G01 X-100.33401 Y21.37701
G01 X-100.10907 Y21.42484
G01 X-99.96144 Y21.48819
G01 X-98.93109 Y20.45852
G01 X-98.81560 Y20.38595
G01 X-98.69088 Y20.36261
G01 X-71.13239 Y20.36309
G01 X-70.99937 Y20.39345
G01 X-70.90196 Y20.45852
G01 X-69.98500 Y21.37483
G01 X-69.69821 Y21.43129
G01 X-69.47878 Y21.52959
G01 X-69.26844 Y21.68443
G01 X-69.10796 Y21.86347
G01 X-68.97878 Y22.09050
G01 X-68.90336 Y22.32966
G01 X-68.87878 Y22.56880
G04 P0 ( dwell for no time -- G64 should not smooth over this point )
G00 Z5.00000 ( retract )

G00 X-49.35057 Y42.63219 ( rapid move to begin. )
G01 F300.00000
G01 Z-0.14000
G04 P0 ( dwell for no time -- G64 should not smooth over this point )
G01 F600.00000
G01 X-49.35057 Y42.63219
G01 X-49.35276 Y42.82022
G01 X-49.39025 Y42.99393
G01 X-49.46678 Y43.16582
G01 X-49.57076 Y43.30988
G01 X-49.70904 Y43.43734
G01 X-49.87079 Y43.53325
G01 X-50.06942 Y43.59777
G01 X-50.24618 Y43.61580
G01 X-51.04620 Y43.61580
G01 X-51.24343 Y43.59342
G01 X-51.42159 Y43.53325
G01 X-51.58333 Y43.43734
G01 X-51.72161 Y43.30988
G01 X-51.81991 Y43.17458
G01 X-51.87073 Y43.06582
G01 X-52.45153 Y43.06582
G01 X-52.72628 Y43.34057
G01 X-52.72628 Y47.18084
G01 X-52.41531 Y47.49182
G01 X-51.91000 Y47.49182
G01 X-51.90998 Y46.84180
G01 X-51.89314 Y46.78626
G01 X-51.84825 Y46.74943
G01 X-49.80998 Y46.74181
G01 X-49.75443 Y46.75867
G01 X-49.72685 Y46.78626
G01 X-49.70998 Y46.84180
G01 X-49.70998 Y48.84180
G01 X-49.72685 Y48.89738
G01 X-49.75443 Y48.92496
G01 X-49.80998 Y48.94180
G01 X-51.84825 Y48.93421
G01 X-51.89314 Y48.89738
G01 X-51.90998 Y48.84180
G01 X-51.91000 Y48.19181
G01 X-52.56029 Y48.19181
G01 X-52.68498 Y48.16847
G01 X-52.80777 Y48.08930
G01 X-53.22128 Y47.67581
G01 X-55.19867 Y47.67581
G01 X-55.23565 Y47.78254
G01 X-55.34586 Y47.97238
G01 X-55.50789 Y48.14985
G01 X-55.67700 Y48.27274
G01 X-55.88609 Y48.36822
G01 X-56.13125 Y48.42034
G01 X-56.36110 Y48.41815
G01 X-56.57570 Y48.37198
G01 X-56.77646 Y48.28318
G01 X-56.96369 Y48.14985
G01 X-57.12571 Y47.97238
G01 X-57.24067 Y47.77322
G01 X-57.31339 Y47.54417
G01 X-57.33580 Y47.32580
G01 X-57.31339 Y47.10744
G01 X-57.24443 Y46.88816
G01 X-57.12571 Y46.67924
G01 X-56.97923 Y46.51575
G01 X-56.77646 Y46.36843
G01 X-56.56559 Y46.27693
G01 X-56.35076 Y46.23182
G01 X-56.12081 Y46.23182
G01 X-55.90598 Y46.27693
G01 X-55.69511 Y46.36843
G01 X-55.50789 Y46.50178
G01 X-55.35246 Y46.67112
G01 X-55.23090 Y46.87841
G01 X-55.19867 Y46.97582
G01 X-53.42628 Y46.97582
G01 X-53.42100 Y43.13704
G01 X-53.39544 Y43.05281
G01 X-53.33037 Y42.95540
G01 X-52.79882 Y42.43064
G01 X-52.72118 Y42.38913
G01 X-52.60629 Y42.36630
G01 X-51.87073 Y42.36582
G01 X-51.81991 Y42.25703
G01 X-51.72161 Y42.12172
G01 X-51.58333 Y41.99429
G01 X-51.41224 Y41.89363
G01 X-51.24343 Y41.83818
G01 X-51.04620 Y41.81581
G01 X-50.23574 Y41.81636
G01 X-50.04894 Y41.83818
G01 X-49.88014 Y41.89363
G01 X-49.72596 Y41.98200
G01 X-49.58476 Y42.10618
G01 X-49.46678 Y42.26582
G01 X-49.39398 Y42.42792
G01 X-49.35057 Y42.63219
G04 P0 ( dwell for no time -- G64 should not smooth over this point )
G00 Z5.00000 ( retract )

G00 X-59.68179 Y56.45314 ( rapid move to begin. )
G01 F300.00000
G01 Z-0.14000
G04 P0 ( dwell for no time -- G64 should not smooth over this point )
G01 F600.00000
G01 X-59.68179 Y56.45314
G01 X-59.68179 Y57.45314
G01 X-59.69873 Y57.61953
G01 X-59.75527 Y57.79886
G01 X-59.85070 Y57.96088
G01 X-59.96302 Y58.08481
G01 X-60.11611 Y58.19400
G01 X-60.26912 Y58.26154
G01 X-60.45339 Y58.29903
G01 X-60.63097 Y58.29685
G01 X-60.79444 Y58.26154
G01 X-60.96556 Y58.18357
G01 X-61.10053 Y58.08481
G01 X-61.22515 Y57.94397
G01 X-61.30831 Y57.79886
G01 X-61.36050 Y57.63998
G01 X-61.38179 Y57.45314
G01 X-61.38179 Y56.45314
G01 X-61.36485 Y56.28674
G01 X-61.30831 Y56.10742
G01 X-61.21285 Y55.94539
G01 X-61.10053 Y55.82147
G01 X-60.96556 Y55.72271
G01 X-60.79444 Y55.64473
G01 X-60.61019 Y55.60724
G01 X-60.43259 Y55.60943
G01 X-60.26912 Y55.64473
G01 X-60.11611 Y55.71227
G01 X-59.97115 Y55.81489
G01 X-59.83841 Y55.96231
G01 X-59.75527 Y56.10742
G01 X-59.70308 Y56.26630
G01 X-59.68179 Y56.45314
G04 P0 ( dwell for no time -- G64 should not smooth over this point )
G00 Z5.00000 ( retract )

G00 X-57.14179 Y56.45314 ( rapid move to begin. )
G01 F300.00000
G01 Z-0.14000
G04 P0 ( dwell for no time -- G64 should not smooth over this point )
G01 F600.00000
G01 X-57.14179 Y56.45314
G01 X-57.14179 Y57.45314
G01 X-57.15873 Y57.61953
G01 X-57.21527 Y57.79886
G01 X-57.31070 Y57.96088
G01 X-57.42302 Y58.08481
G01 X-57.57611 Y58.19400
G01 X-57.72912 Y58.26154
G01 X-57.91339 Y58.29903
G01 X-58.09097 Y58.29685
G01 X-58.25444 Y58.26154
G01 X-58.42556 Y58.18357
G01 X-58.56053 Y58.08481
G01 X-58.68515 Y57.94397
G01 X-58.76831 Y57.79886
G01 X-58.82050 Y57.63998
G01 X-58.84179 Y57.45314
G01 X-58.84179 Y56.45314
G01 X-58.82485 Y56.28674
G01 X-58.76831 Y56.10742
G01 X-58.67285 Y55.94539
G01 X-58.56053 Y55.82147
G01 X-58.42556 Y55.72271
G01 X-58.25444 Y55.64473
G01 X-58.07019 Y55.60724
G01 X-57.89259 Y55.60943
G01 X-57.72912 Y55.64473
G01 X-57.57611 Y55.71227
G01 X-57.43115 Y55.81489
G01 X-57.29841 Y55.96231
G01 X-57.21527 Y56.10742
G01 X-57.16308 Y56.26630
G01 X-57.14179 Y56.45314
G04 P0 ( dwell for no time -- G64 should not smooth over this point )
G00 Z5.00000 ( retract )

G00 X-54.60179 Y56.45314 ( rapid move to begin. )
G01 F300.00000
G01 Z-0.14000
G04 P0 ( dwell for no time -- G64 should not smooth over this point )
G01 F600.00000
G01 X-54.60179 Y56.45314
G01 X-54.60179 Y57.45314
G01 X-54.61873 Y57.61953
G01 X-54.67527 Y57.79886
G01 X-54.77070 Y57.96088
G01 X-54.88302 Y58.08481
G01 X-55.03611 Y58.19400
G01 X-55.18912 Y58.26154
G01 X-55.37339 Y58.29903
G01 X-55.55097 Y58.29685
G01 X-55.71444 Y58.26154
G01 X-55.88556 Y58.18357
G01 X-56.02053 Y58.08481
G01 X-56.14515 Y57.94397
G01 X-56.22831 Y57.79886
G01 X-56.28050 Y57.63998
G01 X-56.30179 Y57.45314
G01 X-56.30179 Y56.45314
G01 X-56.28485 Y56.28674
G01 X-56.22831 Y56.10742
G01 X-56.13285 Y55.94539
G01 X-56.02053 Y55.82147
G01 X-55.88556 Y55.72271
G01 X-55.71444 Y55.64473
G01 X-55.53019 Y55.60724
G01 X-55.35259 Y55.60943
G01 X-55.18912 Y55.64473
G01 X-55.03611 Y55.71227
G01 X-54.89115 Y55.81489
G01 X-54.75841 Y55.96231
G01 X-54.67527 Y56.10742
G01 X-54.62308 Y56.26630
G01 X-54.60179 Y56.45314
G04 P0 ( dwell for no time -- G64 should not smooth over this point )
G00 Z5.00000 ( retract )

G00 X-49.52179 Y56.45314 ( rapid move to begin. )
G01 F300.00000
G01 Z-0.14000
G04 P0 ( dwell for no time -- G64 should not smooth over this point )
G01 F600.00000
G01 X-49.52179 Y56.45314
G01 X-49.52179 Y57.45314
G01 X-49.53873 Y57.61953
G01 X-49.59152 Y57.78910
G01 X-49.69070 Y57.96088
G01 X-49.80302 Y58.08481
G01 X-49.95611 Y58.19400
G01 X-50.10912 Y58.26154
G01 X-50.28293 Y58.29847
G01 X-50.46063 Y58.29847
G01 X-50.63444 Y58.26154
G01 X-50.80556 Y58.18357
G01 X-50.94053 Y58.08481
G01 X-51.05285 Y57.96088
G01 X-51.14356 Y57.80820
G01 X-51.20322 Y57.62987
G01 X-51.22179 Y57.45314
G01 X-51.22179 Y56.45314
G01 X-51.20485 Y56.28674
G01 X-51.14356 Y56.09810
G01 X-51.05285 Y55.94539
G01 X-50.94053 Y55.82147
G01 X-50.80556 Y55.72271
G01 X-50.63444 Y55.64473
G01 X-50.45019 Y55.60724
G01 X-50.28293 Y55.60780
G01 X-50.10912 Y55.64473
G01 X-49.95611 Y55.71227
G01 X-49.81115 Y55.81489
G01 X-49.67841 Y55.96231
G01 X-49.59152 Y56.11717
G01 X-49.54308 Y56.26630
G01 X-49.52179 Y56.45314
G04 P0 ( dwell for no time -- G64 should not smooth over this point )
G00 Z5.00000 ( retract )

G00 X-44.44179 Y56.45314 ( rapid move to begin. )
G01 F300.00000
G01 Z-0.14000
G04 P0 ( dwell for no time -- G64 should not smooth over this point )
G01 F600.00000
G01 X-44.44179 Y56.45314
G01 X-44.44179 Y57.45314
G01 X-44.45873 Y57.61953
G01 X-44.51152 Y57.78910
G01 X-44.61070 Y57.96088
G01 X-44.72302 Y58.08481
G01 X-44.87611 Y58.19400
G01 X-45.02912 Y58.26154
G01 X-45.20293 Y58.29847
G01 X-45.38063 Y58.29847
G01 X-45.55444 Y58.26154
G01 X-45.72556 Y58.18357
G01 X-45.86053 Y58.08481
G01 X-45.97285 Y57.96088
G01 X-46.06356 Y57.80820
G01 X-46.12050 Y57.63998
G01 X-46.14179 Y57.45314
G01 X-46.14179 Y56.45314
G01 X-46.12485 Y56.28674
G01 X-46.06356 Y56.09810
G01 X-45.97285 Y55.94539
G01 X-45.86053 Y55.82147
G01 X-45.72556 Y55.72271
G01 X-45.55444 Y55.64473
G01 X-45.37019 Y55.60724
G01 X-45.20293 Y55.60780
G01 X-45.02912 Y55.64473
G01 X-44.87611 Y55.71227
G01 X-44.73115 Y55.81489
G01 X-44.59841 Y55.96231
G01 X-44.51152 Y56.11717
G01 X-44.46308 Y56.26630
G01 X-44.44179 Y56.45314
G04 P0 ( dwell for no time -- G64 should not smooth over this point )
G00 Z5.00000 ( retract )

G00 X-41.90179 Y56.45314 ( rapid move to begin. )
G01 F300.00000
G01 Z-0.14000
G04 P0 ( dwell for no time -- G64 should not smooth over this point )
G01 F600.00000
G01 X-41.90179 Y56.45314
G01 X-41.90179 Y57.45314
G01 X-41.91873 Y57.61953
G01 X-41.97152 Y57.78910
G01 X-42.07070 Y57.96088
G01 X-42.18302 Y58.08481
G01 X-42.33611 Y58.19400
G01 X-42.48912 Y58.26154
G01 X-42.66293 Y58.29847
G01 X-42.84063 Y58.29847
G01 X-43.01444 Y58.26154
G01 X-43.18556 Y58.18357
G01 X-43.32053 Y58.08481
G01 X-43.43285 Y57.96088
G01 X-43.52356 Y57.80820
G01 X-43.58322 Y57.62987
G01 X-43.60179 Y57.45314
G01 X-43.60179 Y56.45314
G01 X-43.58485 Y56.28674
G01 X-43.52356 Y56.09810
G01 X-43.43285 Y55.94539
G01 X-43.32053 Y55.82147
G01 X-43.18556 Y55.72271
G01 X-43.01444 Y55.64473
G01 X-42.83019 Y55.60724
G01 X-42.66293 Y55.60780
G01 X-42.48912 Y55.64473
G01 X-42.33611 Y55.71227
G01 X-42.19115 Y55.81489
G01 X-42.05841 Y55.96231
G01 X-41.97152 Y56.11717
G01 X-41.92308 Y56.26630
G01 X-41.90179 Y56.45314
G04 P0 ( dwell for no time -- G64 should not smooth over this point )
G00 Z5.00000 ( retract )

G00 X-39.36179 Y56.45314 ( rapid move to begin. )
G01 F300.00000
G01 Z-0.14000
G04 P0 ( dwell for no time -- G64 should not smooth over this point )
G01 F600.00000
G01 X-39.36179 Y56.45314
G01 X-39.36179 Y57.45314
G01 X-39.37873 Y57.61953
G01 X-39.43527 Y57.79886
G01 X-39.53070 Y57.96088
G01 X-39.64302 Y58.08481
G01 X-39.79611 Y58.19400
G01 X-39.94912 Y58.26154
G01 X-40.12293 Y58.29847
G01 X-40.30063 Y58.29847
G01 X-40.47444 Y58.26154
G01 X-40.64556 Y58.18357
G01 X-40.78053 Y58.08481
G01 X-40.89285 Y57.96088
G01 X-40.98356 Y57.80820
G01 X-41.04050 Y57.63998
G01 X-41.06179 Y57.45314
G01 X-41.06179 Y56.45314
G01 X-41.04485 Y56.28674
G01 X-40.98356 Y56.09810
G01 X-40.89285 Y55.94539
G01 X-40.78053 Y55.82147
G01 X-40.64556 Y55.72271
G01 X-40.47444 Y55.64473
G01 X-40.29019 Y55.60724
G01 X-40.12293 Y55.60780
G01 X-39.94912 Y55.64473
G01 X-39.79611 Y55.71227
G01 X-39.65115 Y55.81489
G01 X-39.51841 Y55.96231
G01 X-39.43527 Y56.10742
G01 X-39.38308 Y56.26630
G01 X-39.36179 Y56.45314
G04 P0 ( dwell for no time -- G64 should not smooth over this point )
G00 Z5.00000 ( retract )

G00 X-36.82179 Y56.45314 ( rapid move to begin. )
G01 F300.00000
G01 Z-0.14000
G04 P0 ( dwell for no time -- G64 should not smooth over this point )
G01 F600.00000
G01 X-36.82179 Y56.45314
G01 X-36.82179 Y57.45314
G01 X-36.83873 Y57.61953
G01 X-36.89152 Y57.78910
G01 X-36.99070 Y57.96088
G01 X-37.10302 Y58.08481
G01 X-37.25611 Y58.19400
G01 X-37.40912 Y58.26154
G01 X-37.58293 Y58.29847
G01 X-37.76063 Y58.29847
G01 X-37.93444 Y58.26154
G01 X-38.10556 Y58.18357
G01 X-38.24053 Y58.08481
G01 X-38.35285 Y57.96088
G01 X-38.44356 Y57.80820
G01 X-38.50322 Y57.62987
G01 X-38.52179 Y57.45314
G01 X-38.52179 Y56.45314
G01 X-38.50485 Y56.28674
G01 X-38.44356 Y56.09810
G01 X-38.35285 Y55.94539
G01 X-38.24053 Y55.82147
G01 X-38.10556 Y55.72271
G01 X-37.93444 Y55.64473
G01 X-37.75019 Y55.60724
G01 X-37.58293 Y55.60780
G01 X-37.40912 Y55.64473
G01 X-37.25611 Y55.71227
G01 X-37.11115 Y55.81489
G01 X-36.97841 Y55.96231
G01 X-36.89152 Y56.11717
G01 X-36.84308 Y56.26630
G01 X-36.82179 Y56.45314
G04 P0 ( dwell for no time -- G64 should not smooth over this point )
G00 Z5.00000 ( retract )

G00 X-32.76178 Y56.45314 ( rapid move to begin. )
G01 F300.00000
G01 Z-0.14000
G04 P0 ( dwell for no time -- G64 should not smooth over this point )
G01 F600.00000
G01 X-32.76178 Y56.45314
G01 X-32.76178 Y57.45314
G01 X-32.77872 Y57.61953
G01 X-32.84001 Y57.80820
G01 X-32.93072 Y57.96088
G01 X-33.04303 Y58.08481
G01 X-33.19612 Y58.19400
G01 X-33.34913 Y58.26154
G01 X-33.52294 Y58.29847
G01 X-33.70064 Y58.29847
G01 X-33.87445 Y58.26154
G01 X-34.04557 Y58.18357
G01 X-34.18055 Y58.08481
G01 X-34.29287 Y57.96088
G01 X-34.38354 Y57.80820
G01 X-34.44321 Y57.62987
G01 X-34.46124 Y57.46360
G01 X-34.46178 Y56.45314
G01 X-34.44486 Y56.28674
G01 X-34.39205 Y56.11717
G01 X-34.29287 Y55.94539
G01 X-34.18055 Y55.82147
G01 X-34.04557 Y55.72271
G01 X-33.87445 Y55.64473
G01 X-33.69018 Y55.60724
G01 X-33.52294 Y55.60780
G01 X-33.34913 Y55.64473
G01 X-33.19612 Y55.71227
G01 X-33.05116 Y55.81489
G01 X-32.91842 Y55.96231
G01 X-32.84001 Y56.09810
G01 X-32.78307 Y56.26630
G01 X-32.76178 Y56.45314
G04 P0 ( dwell for no time -- G64 should not smooth over this point )
G00 Z5.00000 ( retract )

G00 X-33.54634 Y63.98536 ( rapid move to begin. )
G01 F300.00000
G01 Z-0.14000
G04 P0 ( dwell for no time -- G64 should not smooth over this point )
G01 F600.00000
G01 X-33.54634 Y63.98536
G01 X-33.56818 Y64.21419
G01 X-33.64090 Y64.44322
G01 X-33.75586 Y64.64238
G01 X-33.90234 Y64.80588
G01 X-34.10511 Y64.95320
G01 X-34.31598 Y65.04469
G01 X-34.54125 Y65.09033
G01 X-34.76076 Y65.08977
G01 X-34.97559 Y65.04469
G01 X-35.20457 Y64.94273
G01 X-35.38923 Y64.80588
G01 X-35.53571 Y64.64238
G01 X-35.64592 Y64.45254
G01 X-35.68291 Y64.34581
G01 X-42.78940 Y64.34581
G01 X-42.93219 Y64.31497
G01 X-43.03687 Y64.24329
G01 X-48.11694 Y59.15575
G01 X-48.15845 Y59.07810
G01 X-48.18131 Y58.96322
G01 X-48.18179 Y58.22327
G01 X-48.26556 Y58.18357
G01 X-48.39241 Y58.09139
G01 X-48.51285 Y57.96088
G01 X-48.60356 Y57.80820
G01 X-48.66322 Y57.62987
G01 X-48.68179 Y57.45314
G01 X-48.68179 Y56.45314
G01 X-48.66322 Y56.27641
G01 X-48.60356 Y56.09810
G01 X-48.52515 Y55.96231
G01 X-48.40795 Y55.82886
G01 X-48.26556 Y55.72271
G01 X-48.09444 Y55.64473
G01 X-47.92063 Y55.60780
G01 X-47.74293 Y55.60780
G01 X-47.55934 Y55.64849
G01 X-47.39800 Y55.72271
G01 X-47.26302 Y55.82147
G01 X-47.15070 Y55.94539
G01 X-47.05152 Y56.11717
G01 X-47.00308 Y56.26630
G01 X-46.98233 Y56.44267
G01 X-46.98179 Y57.45314
G01 X-46.99873 Y57.61953
G01 X-47.05152 Y57.78910
G01 X-47.15070 Y57.96088
G01 X-47.27115 Y58.09139
G01 X-47.39800 Y58.18357
G01 X-47.48179 Y58.22327
G01 X-47.48179 Y58.80843
G01 X-42.64441 Y63.64581
G01 X-35.68291 Y63.64581
G01 X-35.64592 Y63.53908
G01 X-35.53571 Y63.34924
G01 X-35.38923 Y63.18574
G01 X-35.20457 Y63.04888
G01 X-34.97559 Y62.94693
G01 X-34.76076 Y62.90184
G01 X-34.54125 Y62.90129
G01 X-34.30587 Y62.94965
G01 X-34.10511 Y63.03842
G01 X-33.90234 Y63.18574
G01 X-33.75586 Y63.34924
G01 X-33.63714 Y63.55818
G01 X-33.56983 Y63.76709
G01 X-33.54634 Y63.98536
G04 P0 ( dwell for no time -- G64 should not smooth over this point )
G00 Z5.00000 ( retract )

G00 X-25.14178 Y56.45314 ( rapid move to begin. )
G01 F300.00000
G01 Z-0.14000
G04 P0 ( dwell for no time -- G64 should not smooth over this point )
G01 F600.00000
G01 X-25.14178 Y56.45314
G01 X-25.14178 Y57.45314
G01 X-25.15872 Y57.61953
G01 X-25.22001 Y57.80820
G01 X-25.31072 Y57.96088
G01 X-25.42303 Y58.08481
G01 X-25.57612 Y58.19400
G01 X-25.72913 Y58.26154
G01 X-25.91338 Y58.29903
G01 X-26.09098 Y58.29685
G01 X-26.25445 Y58.26154
G01 X-26.42557 Y58.18357
G01 X-26.56055 Y58.08481
G01 X-26.67287 Y57.96088
G01 X-26.76354 Y57.80820
G01 X-26.82486 Y57.61953
G01 X-26.84178 Y57.45314
G01 X-26.84178 Y56.45314
G01 X-26.82049 Y56.26630
G01 X-26.77205 Y56.11717
G01 X-26.68516 Y55.96231
G01 X-26.56055 Y55.82147
G01 X-26.42557 Y55.72271
G01 X-26.34178 Y55.68304
G01 X-26.34178 Y47.39969
G01 X-33.21568 Y40.52582
G01 X-41.80164 Y40.52582
G01 X-41.84678 Y40.62582
G01 X-41.96476 Y40.78543
G01 X-42.10596 Y40.90963
G01 X-42.26989 Y41.00176
G01 X-42.42894 Y41.05342
G01 X-42.61574 Y41.07527
G01 X-43.43664 Y41.07527
G01 X-43.62343 Y41.05342
G01 X-43.78248 Y41.00176
G01 X-43.94642 Y40.90963
G01 X-44.08761 Y40.78543
G01 X-44.21037 Y40.61649
G01 X-44.28213 Y40.45393
G01 X-44.31962 Y40.28022
G01 X-44.31962 Y40.07138
G01 X-44.28213 Y39.89770
G01 X-44.21037 Y39.73514
G01 X-44.10161 Y39.58172
G01 X-43.96333 Y39.45429
G01 X-43.80159 Y39.35838
G01 X-43.60296 Y39.29384
G01 X-43.42620 Y39.27581
G01 X-42.62618 Y39.27581
G01 X-42.42894 Y39.29818
G01 X-42.26989 Y39.34987
G01 X-42.10596 Y39.44200
G01 X-41.95076 Y39.58172
G01 X-41.84678 Y39.72582
G01 X-41.80164 Y39.82579
G01 X-33.07070 Y39.82582
G01 X-32.94598 Y39.84913
G01 X-32.83046 Y39.92173
G01 X-25.74429 Y47.00721
G01 X-25.67261 Y47.11191
G01 X-25.64178 Y47.25471
G01 X-25.64178 Y55.68304
G01 X-25.55801 Y55.72271
G01 X-25.42303 Y55.82147
G01 X-25.29842 Y55.96231
G01 X-25.22001 Y56.09810
G01 X-25.16307 Y56.26630
G01 X-25.14178 Y56.45314
G04 P0 ( dwell for no time -- G64 should not smooth over this point )
G00 Z5.00000 ( retract )

G00 X-22.60178 Y56.45314 ( rapid move to begin. )
G01 F300.00000
G01 Z-0.14000
G04 P0 ( dwell for no time -- G64 should not smooth over this point )
G01 F600.00000
G01 X-22.60178 Y56.45314
G01 X-22.60178 Y57.45314
G01 X-22.61872 Y57.61953
G01 X-22.68001 Y57.80820
G01 X-22.77072 Y57.96088
G01 X-22.88303 Y58.08481
G01 X-23.03612 Y58.19400
G01 X-23.18913 Y58.26154
G01 X-23.37338 Y58.29903
G01 X-23.55098 Y58.29685
G01 X-23.71445 Y58.26154
G01 X-23.88557 Y58.18357
G01 X-24.02055 Y58.08481
G01 X-24.13287 Y57.96088
G01 X-24.22354 Y57.80820
G01 X-24.28486 Y57.61953
G01 X-24.30178 Y57.45314
G01 X-24.30178 Y56.45314
G01 X-24.28049 Y56.26630
G01 X-24.23205 Y56.11717
G01 X-24.14516 Y55.96231
G01 X-24.02055 Y55.82147
G01 X-23.88557 Y55.72271
G01 X-23.80178 Y55.68304
G01 X-23.80180 Y48.52499
G01 X-34.34097 Y37.98582
G01 X-41.80164 Y37.98582
G01 X-41.84678 Y38.08582
G01 X-41.96476 Y38.24543
G01 X-42.10596 Y38.36963
G01 X-42.26989 Y38.46176
G01 X-42.42894 Y38.51342
G01 X-42.61574 Y38.53527
G01 X-43.43664 Y38.53527
G01 X-43.62343 Y38.51342
G01 X-43.78248 Y38.46176
G01 X-43.95520 Y38.36392
G01 X-44.10161 Y38.22988
G01 X-44.20560 Y38.08582
G01 X-44.27839 Y37.92369
G01 X-44.31962 Y37.74022
G01 X-44.31962 Y37.53138
G01 X-44.28213 Y37.35770
G01 X-44.21037 Y37.19514
G01 X-44.08761 Y37.02618
G01 X-43.95520 Y36.90769
G01 X-43.80159 Y36.81838
G01 X-43.60296 Y36.75384
G01 X-43.42620 Y36.73581
G01 X-42.62618 Y36.73581
G01 X-42.42894 Y36.75818
G01 X-42.26989 Y36.80987
G01 X-42.10596 Y36.90200
G01 X-41.95076 Y37.04172
G01 X-41.84678 Y37.18582
G01 X-41.80164 Y37.28582
G01 X-34.19599 Y37.28582
G01 X-34.07128 Y37.30913
G01 X-33.95578 Y37.38173
G01 X-23.15573 Y48.19397
G01 X-23.11090 Y48.30220
G01 X-23.10178 Y48.38000
G01 X-23.10178 Y55.68304
G01 X-23.01801 Y55.72271
G01 X-22.88303 Y55.82147
G01 X-22.75842 Y55.96231
G01 X-22.68001 Y56.09810
G01 X-22.62307 Y56.26630
G01 X-22.60178 Y56.45314
G04 P0 ( dwell for no time -- G64 should not smooth over this point )
G00 Z5.00000 ( retract )

G00 X-20.06178 Y56.45314 ( rapid move to begin. )
G01 F300.00000
G01 Z-0.14000
G04 P0 ( dwell for no time -- G64 should not smooth over this point )
G01 F600.00000
G01 X-20.06178 Y56.45314
G01 X-20.06178 Y57.45314
G01 X-20.07872 Y57.61953
G01 X-20.13526 Y57.79886
G01 X-20.23072 Y57.96088
G01 X-20.34303 Y58.08481
G01 X-20.49612 Y58.19400
G01 X-20.64913 Y58.26154
G01 X-20.83338 Y58.29903
G01 X-21.01098 Y58.29685
G01 X-21.17445 Y58.26154
G01 X-21.34557 Y58.18357
G01 X-21.48055 Y58.08481
G01 X-21.60516 Y57.94397
G01 X-21.68829 Y57.79886
G01 X-21.74049 Y57.63998
G01 X-21.76124 Y57.46360
G01 X-21.76178 Y56.45314
G01 X-21.74486 Y56.28674
G01 X-21.68829 Y56.10742
G01 X-21.59287 Y55.94539
G01 X-21.48055 Y55.82147
G01 X-21.34557 Y55.72271
G01 X-21.17445 Y55.64473
G01 X-20.99018 Y55.60724
G01 X-20.81260 Y55.60943
G01 X-20.64913 Y55.64473
G01 X-20.49612 Y55.71227
G01 X-20.35116 Y55.81489
G01 X-20.21842 Y55.96231
G01 X-20.13526 Y56.10742
G01 X-20.08307 Y56.26630
G01 X-20.06178 Y56.45314
G04 P0 ( dwell for no time -- G64 should not smooth over this point )
G00 Z5.00000 ( retract )

G00 X-17.52178 Y56.45314 ( rapid move to begin. )
G01 F300.00000
G01 Z-0.14000
G04 P0 ( dwell for no time -- G64 should not smooth over this point )
G01 F600.00000
G01 X-17.52178 Y56.45314
G01 X-17.52178 Y57.45314
G01 X-17.53872 Y57.61953
G01 X-17.60001 Y57.80820
G01 X-17.69072 Y57.96088
G01 X-17.80303 Y58.08481
G01 X-17.95612 Y58.19400
G01 X-18.10913 Y58.26154
G01 X-18.29338 Y58.29903
