( pcb2gcode 1.3.2 )
( Software-independent Gcode )

G94 ( Millimeters per minute feed rate. )
G21 ( Units == Millimeters. )

G90 ( Absolute coordinates. )
G00 S10000 ( RPM spindle speed. )
G64 P0.01000 ( set maximum deviation from commanded toolpath )
G01 F600.00000 ( Feedrate. )

G01 F600.00000 ( Feedrate. )
M3 ( Spindle on clockwise. )
G04 P1.00000
G04 P0 ( dwell for no time -- G64 should not smooth over this point )
G00 Z5.00000 ( retract )

G00 X10.68740 Y131.21222 ( rapid move to begin. )
G01 F300.00000
G01 Z-0.14000
G04 P0 ( dwell for no time -- G64 should not smooth over this point )
G01 F600.00000
G01 X10.68740 Y131.21222
G01 X10.68959 Y131.42020
G01 X10.73119 Y131.61339
G01 X10.81107 Y131.79416
G01 X10.93815 Y131.97184
G01 X11.10157 Y132.11677
G01 X11.27300 Y132.21512
G01 X11.46078 Y132.27671
G01 X11.67785 Y132.30115
G01 X13.46855 Y132.30115
G01 X13.68559 Y132.27671
G01 X13.88270 Y132.21037
G01 X14.04480 Y132.11677
G01 X14.21480 Y131.96368
G01 X14.33052 Y131.80348
G01 X14.41142 Y131.62317
G01 X14.45897 Y131.39940
G01 X14.45679 Y131.19142
G01 X14.41518 Y130.99823
G01 X14.32483 Y130.79935
G01 X14.20083 Y130.63239
G01 X14.05359 Y130.50057
G01 X13.86362 Y130.39277
G01 X13.67548 Y130.33221
G01 X13.46855 Y130.31045
G01 X11.67785 Y130.31045
G01 X11.46078 Y130.33491
G01 X11.27300 Y130.39650
G01 X11.10157 Y130.49485
G01 X10.93157 Y130.64794
G01 X10.81107 Y130.81746
G01 X10.73495 Y130.98845
G01 X10.68740 Y131.21222
G04 P0 ( dwell for no time -- G64 should not smooth over this point )
G00 Z5.00000 ( retract )

G00 X10.68740 Y126.13222 ( rapid move to begin. )
G01 F300.00000
G01 Z-0.14000
G04 P0 ( dwell for no time -- G64 should not smooth over this point )
G01 F600.00000
G01 X10.68740 Y126.13222
G01 X10.68959 Y126.34020
G01 X10.73119 Y126.53339
G01 X10.81107 Y126.71416
G01 X10.93815 Y126.89184
G01 X11.08466 Y127.02447
G01 X11.26368 Y127.13037
G01 X11.47089 Y127.19940
G01 X11.67785 Y127.22115
G01 X13.46855 Y127.22115
G01 X13.68559 Y127.19671
G01 X13.88270 Y127.13037
G01 X14.04480 Y127.03677
G01 X14.21480 Y126.88368
G01 X14.33530 Y126.71416
G01 X14.41142 Y126.54317
G01 X14.45897 Y126.31940
G01 X14.45679 Y126.11142
G01 X14.41518 Y125.91823
G01 X14.33530 Y125.73746
G01 X14.20822 Y125.55978
G01 X14.05359 Y125.42057
G01 X13.88270 Y125.32125
G01 X13.68559 Y125.25491
G01 X13.46855 Y125.23045
G01 X11.67785 Y125.23045
G01 X11.46078 Y125.25491
G01 X11.27300 Y125.31650
G01 X11.10157 Y125.41485
G01 X10.93815 Y125.55978
G01 X10.82154 Y125.71935
G01 X10.73495 Y125.90845
G01 X10.68740 Y126.13222
G04 P0 ( dwell for no time -- G64 should not smooth over this point )
G00 Z5.00000 ( retract )

G00 X6.87578 Y118.60580 ( rapid move to begin. )
G01 F300.00000
G01 Z-0.14000
G04 P0 ( dwell for no time -- G64 should not smooth over this point )
G01 F600.00000
G01 X6.87578 Y118.60580
G01 X6.90252 Y118.36699
G01 X6.97090 Y118.15840
G01 X7.08586 Y117.95924
G01 X7.23234 Y117.79574
G01 X7.43511 Y117.64842
G01 X7.63587 Y117.55965
G01 X7.87125 Y117.51129
G01 X8.09076 Y117.51184
G01 X8.31570 Y117.55965
G01 X8.53457 Y117.65888
G01 X8.71923 Y117.79574
G01 X8.86571 Y117.95924
G01 X8.98067 Y118.15840
G01 X9.04905 Y118.36699
G01 X9.07580 Y118.60580
G01 X9.04905 Y118.84463
G01 X8.98067 Y119.05322
G01 X8.86571 Y119.25238
G01 X8.71923 Y119.41588
G01 X8.51646 Y119.56320
G01 X8.30559 Y119.65469
G01 X8.08032 Y119.70033
G01 X7.86081 Y119.69977
G01 X7.62609 Y119.64821
G01 X7.42579 Y119.55845
G01 X7.23234 Y119.41588
G01 X7.08586 Y119.25238
G01 X6.97090 Y119.05322
G01 X6.90252 Y118.84463
G01 X6.87578 Y118.60580
G04 P0 ( dwell for no time -- G64 should not smooth over this point )
G00 Z5.00000 ( retract )

G00 X11.95634 Y113.51536 ( rapid move to begin. )
G01 F300.00000
G01 Z-0.14000
G04 P0 ( dwell for no time -- G64 should not smooth over this point )
G01 F600.00000
G01 X11.95634 Y113.51536
G01 X11.97818 Y113.74419
G01 X12.05090 Y113.97322
G01 X12.16586 Y114.17238
G01 X12.31234 Y114.33588
G01 X12.51511 Y114.48320
G01 X12.71587 Y114.57197
G01 X12.95125 Y114.62033
G01 X13.18110 Y114.61815
G01 X13.39570 Y114.57197
G01 X13.61457 Y114.47273
G01 X13.79923 Y114.33588
G01 X13.94571 Y114.17238
G01 X14.06067 Y113.97322
G01 X14.12905 Y113.76463
G01 X14.15580 Y113.52580
G01 X14.12905 Y113.28699
G01 X14.06067 Y113.07840
G01 X13.94571 Y112.87924
G01 X13.79923 Y112.71574
G01 X13.59646 Y112.56842
G01 X13.39570 Y112.47965
G01 X13.16032 Y112.43129
G01 X12.93048 Y112.43347
G01 X12.71587 Y112.47965
G01 X12.49700 Y112.57888
G01 X12.31234 Y112.71574
G01 X12.16586 Y112.87924
G01 X12.05090 Y113.07840
G01 X11.98252 Y113.28699
G01 X11.95634 Y113.51536
G04 P0 ( dwell for no time -- G64 should not smooth over this point )
G00 Z5.00000 ( retract )

G00 X17.03578 Y118.60580 ( rapid move to begin. )
G01 F300.00000
G01 Z-0.14000
G04 P0 ( dwell for no time -- G64 should not smooth over this point )
G01 F600.00000
G01 X17.03578 Y118.60580
G01 X17.06252 Y118.36699
G01 X17.13090 Y118.15840
G01 X17.24017 Y117.96803
G01 X17.39234 Y117.79574
G01 X17.59511 Y117.64842
G01 X17.80598 Y117.55693
G01 X18.03125 Y117.51129
G01 X18.25076 Y117.51184
G01 X18.48548 Y117.56341
G01 X18.68579 Y117.65317
G01 X18.87923 Y117.79574
G01 X19.03140 Y117.96803
G01 X19.14443 Y118.16818
G01 X19.21174 Y118.37709
G01 X19.23580 Y118.60580
G01 X19.20905 Y118.84463
G01 X19.14067 Y119.05322
G01 X19.02571 Y119.25238
G01 X18.87923 Y119.41588
G01 X18.67646 Y119.56320
G01 X18.46559 Y119.65469
G01 X18.24032 Y119.70033
G01 X18.02081 Y119.69977
G01 X17.78609 Y119.64821
G01 X17.58579 Y119.55845
G01 X17.39234 Y119.41588
G01 X17.24017 Y119.24359
G01 X17.13090 Y119.05322
G01 X17.06252 Y118.84463
G01 X17.03578 Y118.60580
G04 P0 ( dwell for no time -- G64 should not smooth over this point )
G00 Z5.00000 ( retract )

G00 X22.11578 Y113.52580 ( rapid move to begin. )
G01 F300.00000
G01 Z-0.14000
G04 P0 ( dwell for no time -- G64 should not smooth over this point )
G01 F600.00000
G01 X22.11578 Y113.52580
G01 X22.13983 Y113.29709
G01 X22.20714 Y113.08818
G01 X22.32586 Y112.87924
G01 X22.47234 Y112.71574
G01 X22.67511 Y112.56842
G01 X22.87587 Y112.47965
G01 X23.11125 Y112.43129
G01 X23.34110 Y112.43347
G01 X23.55570 Y112.47965
G01 X23.76579 Y112.57317
G01 X23.95923 Y112.71574
G01 X24.11140 Y112.88803
G01 X24.22067 Y113.07840
G01 X24.28905 Y113.28699
G01 X24.31580 Y113.52580
G01 X24.28905 Y113.76463
G01 X24.22067 Y113.97322
G01 X24.11140 Y114.16359
G01 X23.95923 Y114.33588
G01 X23.75646 Y114.48320
G01 X23.55570 Y114.57197
G01 X23.32032 Y114.62033
G01 X23.09048 Y114.61815
G01 X22.87587 Y114.57197
G01 X22.66579 Y114.47845
G01 X22.47234 Y114.33588
G01 X22.32017 Y114.16359
G01 X22.20714 Y113.96344
G01 X22.13983 Y113.75452
G01 X22.11578 Y113.52580
G04 P0 ( dwell for no time -- G64 should not smooth over this point )
G00 Z5.00000 ( retract )

G00 X14.98178 Y104.71314 ( rapid move to begin. )
G01 F300.00000
G01 Z-0.14000
G04 P0 ( dwell for no time -- G64 should not smooth over this point )
G01 F600.00000
G01 X14.98178 Y104.71314
G01 X14.98178 Y105.71314
G01 X14.99872 Y105.87953
G01 X15.05526 Y106.05886
G01 X15.15072 Y106.22088
G01 X15.27116 Y106.35139
G01 X15.40680 Y106.44925
G01 X15.56913 Y106.52154
G01 X15.75338 Y106.55903
G01 X15.93098 Y106.55685
G01 X16.09445 Y106.52154
G01 X16.25678 Y106.44925
G01 X16.39242 Y106.35139
G01 X16.51945 Y106.21276
G01 X16.60829 Y106.05886
G01 X16.66049 Y105.89998
G01 X16.68124 Y105.72360
G01 X16.68178 Y104.71314
G01 X16.66486 Y104.54674
G01 X16.60829 Y104.36742
G01 X16.51287 Y104.20539
G01 X16.40794 Y104.08886
G01 X16.26557 Y103.98271
G01 X16.09445 Y103.90473
G01 X15.91018 Y103.86724
G01 X15.73260 Y103.86943
G01 X15.56913 Y103.90473
G01 X15.39801 Y103.98271
G01 X15.25562 Y104.08886
G01 X15.14411 Y104.21352
G01 X15.05526 Y104.36742
G01 X15.00307 Y104.52630
G01 X14.98178 Y104.71314
G04 P0 ( dwell for no time -- G64 should not smooth over this point )
G00 Z5.00000 ( retract )

G00 X17.52178 Y104.71314 ( rapid move to begin. )
G01 F300.00000
G01 Z-0.14000
G04 P0 ( dwell for no time -- G64 should not smooth over this point )
G01 F600.00000
G01 X17.52178 Y104.71314
G01 X17.52178 Y105.71314
G01 X17.53872 Y105.87953
G01 X17.59526 Y106.05886
G01 X17.69072 Y106.22088
G01 X17.81116 Y106.35139
G01 X17.94680 Y106.44925
G01 X18.10913 Y106.52154
G01 X18.29338 Y106.55903
G01 X18.47098 Y106.55685
G01 X18.63445 Y106.52154
G01 X18.80557 Y106.44357
G01 X18.94055 Y106.34481
G01 X19.05945 Y106.21276
G01 X19.14829 Y106.05886
G01 X19.20049 Y105.89998
G01 X19.22124 Y105.72360
G01 X19.22178 Y104.71314
G01 X19.20486 Y104.54674
G01 X19.14829 Y104.36742
G01 X19.05287 Y104.20539
G01 X18.94055 Y104.08147
G01 X18.80557 Y103.98271
G01 X18.63445 Y103.90473
G01 X18.45018 Y103.86724
G01 X18.27260 Y103.86943
G01 X18.10913 Y103.90473
G01 X17.93801 Y103.98271
G01 X17.79562 Y104.08886
G01 X17.68411 Y104.21352
G01 X17.59526 Y104.36742
G01 X17.54307 Y104.52630
G01 X17.52178 Y104.71314
G04 P0 ( dwell for no time -- G64 should not smooth over this point )
G00 Z5.00000 ( retract )

G00 X20.06178 Y104.71314 ( rapid move to begin. )
G01 F300.00000
G01 Z-0.14000
G04 P0 ( dwell for no time -- G64 should not smooth over this point )
G01 F600.00000
G01 X20.06178 Y104.71314
G01 X20.06178 Y105.71314
G01 X20.07872 Y105.87953
G01 X20.13526 Y106.05886
G01 X20.23072 Y106.22088
G01 X20.34303 Y106.34481
G01 X20.49612 Y106.45400
G01 X20.64913 Y106.52154
G01 X20.83338 Y106.55903
G01 X21.01098 Y106.55685
G01 X21.17445 Y106.52154
G01 X21.33678 Y106.44925
G01 X21.47242 Y106.35139
G01 X21.59945 Y106.21276
G01 X21.68829 Y106.05886
G01 X21.74049 Y105.89998
G01 X21.76124 Y105.72360
G01 X21.76178 Y104.71314
G01 X21.74486 Y104.54674
G01 X21.68829 Y104.36742
G01 X21.59287 Y104.20539
G01 X21.48794 Y104.08886
G01 X21.34557 Y103.98271
G01 X21.17445 Y103.90473
G01 X20.99018 Y103.86724
G01 X20.81260 Y103.86943
G01 X20.64913 Y103.90473
G01 X20.49612 Y103.97227
G01 X20.35116 Y104.07489
G01 X20.21842 Y104.22231
G01 X20.13526 Y104.36742
G01 X20.08307 Y104.52630
G01 X20.06178 Y104.71314
G04 P0 ( dwell for no time -- G64 should not smooth over this point )
G00 Z5.00000 ( retract )

G00 X22.60178 Y104.71314 ( rapid move to begin. )
G01 F300.00000
G01 Z-0.14000
G04 P0 ( dwell for no time -- G64 should not smooth over this point )
G01 F600.00000
G01 X22.60178 Y104.71314
G01 X22.60178 Y105.71314
G01 X22.61872 Y105.87953
G01 X22.67526 Y106.05886
G01 X22.77072 Y106.22088
G01 X22.88303 Y106.34481
G01 X23.03612 Y106.45400
G01 X23.18913 Y106.52154
G01 X23.37338 Y106.55903
G01 X23.55098 Y106.55685
G01 X23.71445 Y106.52154
G01 X23.87678 Y106.44925
G01 X24.01242 Y106.35139
G01 X24.13945 Y106.21276
G01 X24.22829 Y106.05886
G01 X24.28049 Y105.89998
G01 X24.30124 Y105.72360
G01 X24.30178 Y104.71314
G01 X24.28486 Y104.54674
G01 X24.22829 Y104.36742
G01 X24.13287 Y104.20539
G01 X24.02794 Y104.08886
G01 X23.88557 Y103.98271
G01 X23.71445 Y103.90473
G01 X23.53018 Y103.86724
G01 X23.35260 Y103.86943
G01 X23.18913 Y103.90473
G01 X23.03612 Y103.97227
G01 X22.89116 Y104.07489
G01 X22.75842 Y104.22231
G01 X22.67526 Y104.36742
G01 X22.62307 Y104.52630
G01 X22.60178 Y104.71314
G04 P0 ( dwell for no time -- G64 should not smooth over this point )
G00 Z5.00000 ( retract )

G00 X25.14178 Y104.71314 ( rapid move to begin. )
G01 F300.00000
G01 Z-0.14000
G04 P0 ( dwell for no time -- G64 should not smooth over this point )
G01 F600.00000
G01 X25.14178 Y104.71314
G01 X25.14178 Y105.71314
G01 X25.15872 Y105.87953
G01 X25.21526 Y106.05886
G01 X25.31072 Y106.22088
G01 X25.43116 Y106.35139
G01 X25.56680 Y106.44925
G01 X25.72913 Y106.52154
G01 X25.91338 Y106.55903
G01 X26.09098 Y106.55685
G01 X26.25445 Y106.52154
G01 X26.41678 Y106.44925
G01 X26.55242 Y106.35139
G01 X26.67945 Y106.21276
G01 X26.76829 Y106.05886
G01 X26.82049 Y105.89998
G01 X26.84124 Y105.72360
G01 X26.84178 Y104.71314
G01 X26.82486 Y104.54674
G01 X26.76829 Y104.36742
G01 X26.67287 Y104.20539
G01 X26.56794 Y104.08886
G01 X26.42557 Y103.98271
G01 X26.25445 Y103.90473
G01 X26.07018 Y103.86724
G01 X25.89260 Y103.86943
G01 X25.72913 Y103.90473
G01 X25.56680 Y103.97702
G01 X25.43116 Y104.07489
G01 X25.29842 Y104.22231
G01 X25.21526 Y104.36742
G01 X25.16307 Y104.52630
G01 X25.14178 Y104.71314
G04 P0 ( dwell for no time -- G64 should not smooth over this point )
G00 Z5.00000 ( retract )

G00 X27.68178 Y104.71314 ( rapid move to begin. )
G01 F300.00000
G01 Z-0.14000
G04 P0 ( dwell for no time -- G64 should not smooth over this point )
G01 F600.00000
G01 X27.68178 Y104.71314
G01 X27.68178 Y105.71314
G01 X27.69872 Y105.87953
G01 X27.75526 Y106.05886
G01 X27.85072 Y106.22088
G01 X27.96303 Y106.34481
G01 X28.11612 Y106.45400
G01 X28.27924 Y106.52424
G01 X28.44294 Y106.55847
G01 X28.62064 Y106.55847
G01 X28.79445 Y106.52154
G01 X28.94746 Y106.45400
G01 X29.09242 Y106.35139
G01 X29.21945 Y106.21276
G01 X29.30829 Y106.05886
G01 X29.36049 Y105.89998
G01 X29.38124 Y105.72360
G01 X29.38178 Y104.71314
G01 X29.36486 Y104.54674
G01 X29.30829 Y104.36742
G01 X29.21287 Y104.20539
G01 X29.10794 Y104.08886
G01 X28.96557 Y103.98271
G01 X28.79445 Y103.90473
G01 X28.62064 Y103.86780
G01 X28.45338 Y103.86724
G01 X28.25935 Y103.90849
G01 X28.10680 Y103.97702
G01 X27.97116 Y104.07489
G01 X27.83842 Y104.22231
G01 X27.75526 Y104.36742
G01 X27.70307 Y104.52630
G01 X27.68178 Y104.71314
G04 P0 ( dwell for no time -- G64 should not smooth over this point )
G00 Z5.00000 ( retract )

G00 X26.07579 Y99.97581 ( rapid move to begin. )
G01 F300.00000
G01 Z-0.14000
G04 P0 ( dwell for no time -- G64 should not smooth over this point )
G01 F600.00000
G01 X26.07579 Y99.97581
G01 X26.07579 Y101.67581
G01 X26.10508 Y101.74652
G01 X26.17579 Y101.77581
G01 X27.87579 Y101.77581
G01 X27.94650 Y101.74652
G01 X27.97579 Y101.67581
G01 X27.97579 Y99.97581
G01 X27.94650 Y99.90510
G01 X27.87579 Y99.87581
G01 X26.17579 Y99.87581
G01 X26.10508 Y99.90510
G01 X26.07579 Y99.97581
G04 P0 ( dwell for no time -- G64 should not smooth over this point )
G00 Z5.00000 ( retract )

G00 X33.69579 Y99.97581 ( rapid move to begin. )
G01 F300.00000
G01 Z-0.14000
G04 P0 ( dwell for no time -- G64 should not smooth over this point )
G01 F600.00000
G01 X33.69579 Y99.97581
G01 X33.72508 Y99.90510
G01 X33.79579 Y99.87581
G01 X35.49579 Y99.87581
G01 X35.56650 Y99.90510
G01 X35.59579 Y99.97581
G01 X35.59579 Y101.67581
G01 X35.56650 Y101.74652
G01 X35.49579 Y101.77581
G01 X33.79579 Y101.77581
G01 X33.72508 Y101.74652
G01 X33.69579 Y101.67581
G01 X33.69579 Y99.97581
G04 P0 ( dwell for no time -- G64 should not smooth over this point )
G00 Z5.00000 ( retract )

G00 X32.76178 Y104.71314 ( rapid move to begin. )
G01 F300.00000
G01 Z-0.14000
G04 P0 ( dwell for no time -- G64 should not smooth over this point )
G01 F600.00000
G01 X32.76178 Y104.71314
G01 X32.76178 Y105.71314
G01 X32.77872 Y105.87953
G01 X32.83526 Y106.05886
G01 X32.93072 Y106.22088
G01 X33.05116 Y106.35139
G01 X33.19612 Y106.45400
G01 X33.34913 Y106.52154
G01 X33.52294 Y106.55847
G01 X33.70064 Y106.55847
G01 X33.87445 Y106.52154
G01 X34.02746 Y106.45400
G01 X34.17242 Y106.35139
G01 X34.29945 Y106.21276
G01 X34.38829 Y106.05886
G01 X34.44321 Y105.88987
G01 X34.46124 Y105.72360
G01 X34.46178 Y104.71314
G01 X34.44486 Y104.54674
G01 X34.38829 Y104.36742
G01 X34.29287 Y104.20539
G01 X34.18794 Y104.08886
G01 X34.04557 Y103.98271
G01 X33.87445 Y103.90473
G01 X33.69018 Y103.86724
G01 X33.52294 Y103.86780
G01 X33.34913 Y103.90473
G01 X33.17801 Y103.98271
G01 X33.03562 Y104.08886
G01 X32.92411 Y104.21352
G01 X32.83526 Y104.36742
G01 X32.78307 Y104.52630
G01 X32.76178 Y104.71314
G04 P0 ( dwell for no time -- G64 should not smooth over this point )
G00 Z5.00000 ( retract )

G00 X35.30178 Y104.71314 ( rapid move to begin. )
G01 F300.00000
G01 Z-0.14000
G04 P0 ( dwell for no time -- G64 should not smooth over this point )
G01 F600.00000
G01 X35.30178 Y104.71314
G01 X35.30178 Y105.71314
G01 X35.31872 Y105.87953
G01 X35.37526 Y106.05886
G01 X35.47072 Y106.22088
G01 X35.58303 Y106.34481
G01 X35.73612 Y106.45400
G01 X35.88913 Y106.52154
G01 X36.06294 Y106.55847
G01 X36.24064 Y106.55847
G01 X36.41445 Y106.52154
G01 X36.56746 Y106.45400
G01 X36.71242 Y106.35139
G01 X36.83945 Y106.21276
G01 X36.92829 Y106.05886
G01 X36.98321 Y105.88987
G01 X37.00124 Y105.72360
G01 X37.00178 Y104.71314
G01 X36.98486 Y104.54674
G01 X36.92829 Y104.36742
G01 X36.83287 Y104.20539
G01 X36.72794 Y104.08886
G01 X36.58557 Y103.98271
G01 X36.41445 Y103.90473
G01 X36.23018 Y103.86724
G01 X36.06294 Y103.86780
G01 X35.88913 Y103.90473
G01 X35.71801 Y103.98271
G01 X35.57562 Y104.08886
G01 X35.46411 Y104.21352
G01 X35.37526 Y104.36742
G01 X35.32307 Y104.52630
G01 X35.30178 Y104.71314
G04 P0 ( dwell for no time -- G64 should not smooth over this point )
G00 Z5.00000 ( retract )

G00 X37.84178 Y104.71314 ( rapid move to begin. )
G01 F300.00000
G01 Z-0.14000
G04 P0 ( dwell for no time -- G64 should not smooth over this point )
G01 F600.00000
G01 X37.84178 Y104.71314
G01 X37.84178 Y105.71314
G01 X37.85872 Y105.87953
G01 X37.91526 Y106.05886
G01 X38.01072 Y106.22088
G01 X38.13116 Y106.35139
G01 X38.27612 Y106.45400
G01 X38.42913 Y106.52154
G01 X38.60294 Y106.55847
G01 X38.78064 Y106.55847
G01 X38.95445 Y106.52154
G01 X39.10746 Y106.45400
G01 X39.25242 Y106.35139
G01 X39.37945 Y106.21276
G01 X39.46829 Y106.05886
G01 X39.52321 Y105.88987
G01 X39.54124 Y105.72360
G01 X39.54178 Y104.71314
G01 X39.52486 Y104.54674
G01 X39.46829 Y104.36742
G01 X39.37287 Y104.20539
G01 X39.26055 Y104.08147
G01 X39.12557 Y103.98271
G01 X38.95445 Y103.90473
G01 X38.77018 Y103.86724
G01 X38.60294 Y103.86780
G01 X38.42913 Y103.90473
G01 X38.25801 Y103.98271
G01 X38.11562 Y104.08886
G01 X38.00411 Y104.21352
G01 X37.91526 Y104.36742
G01 X37.86307 Y104.52630
G01 X37.84178 Y104.71314
G04 P0 ( dwell for no time -- G64 should not smooth over this point )
G00 Z5.00000 ( retract )

G00 X40.38178 Y104.71314 ( rapid move to begin. )
G01 F300.00000
G01 Z-0.14000
G04 P0 ( dwell for no time -- G64 should not smooth over this point )
G01 F600.00000
G01 X40.38178 Y104.71314
G01 X40.38178 Y105.71314
G01 X40.39872 Y105.87953
G01 X40.45526 Y106.05886
G01 X40.55072 Y106.22088
G01 X40.66303 Y106.34481
G01 X40.81612 Y106.45400
G01 X40.96913 Y106.52154
G01 X41.14294 Y106.55847
G01 X41.32064 Y106.55847
G01 X41.49445 Y106.52154
G01 X41.64746 Y106.45400
G01 X41.79242 Y106.35139
G01 X41.91945 Y106.21276
G01 X42.00829 Y106.05886
G01 X42.06049 Y105.89998
G01 X42.08124 Y105.72360
G01 X42.08178 Y104.71314
G01 X42.06486 Y104.54674
G01 X42.00829 Y104.36742
G01 X41.91287 Y104.20539
G01 X41.80794 Y104.08886
G01 X41.66557 Y103.98271
G01 X41.49445 Y103.90473
G01 X41.31018 Y103.86724
G01 X41.14294 Y103.86780
G01 X40.96913 Y103.90473
G01 X40.79801 Y103.98271
G01 X40.65562 Y104.08886
G01 X40.54411 Y104.21352
G01 X40.45526 Y104.36742
G01 X40.40307 Y104.52630
G01 X40.38178 Y104.71314
G04 P0 ( dwell for no time -- G64 should not smooth over this point )
G00 Z5.00000 ( retract )

G00 X42.92178 Y104.71314 ( rapid move to begin. )
G01 F300.00000
G01 Z-0.14000
G04 P0 ( dwell for no time -- G64 should not smooth over this point )
G01 F600.00000
G01 X42.92178 Y104.71314
G01 X42.92178 Y105.71314
G01 X42.93872 Y105.87953
G01 X42.99526 Y106.05886
G01 X43.09072 Y106.22088
G01 X43.20303 Y106.34481
G01 X43.35612 Y106.45400
G01 X43.50913 Y106.52154
G01 X43.68294 Y106.55847
G01 X43.86064 Y106.55847
G01 X44.03445 Y106.52154
G01 X44.18746 Y106.45400
G01 X44.33242 Y106.35139
G01 X44.45945 Y106.21276
G01 X44.54829 Y106.05886
G01 X44.60321 Y105.88987
G01 X44.62124 Y105.72360
G01 X44.62178 Y104.71314
G01 X44.60486 Y104.54674
G01 X44.54829 Y104.36742
G01 X44.45287 Y104.20539
G01 X44.34794 Y104.08886
G01 X44.20557 Y103.98271
G01 X44.03445 Y103.90473
G01 X43.85018 Y103.86724
G01 X43.68294 Y103.86780
G01 X43.50913 Y103.90473
G01 X43.35612 Y103.97227
G01 X43.21116 Y104.07489
G01 X43.07842 Y104.22231
G01 X42.99526 Y104.36742
G01 X42.94307 Y104.52630
G01 X42.92178 Y104.71314
G04 P0 ( dwell for no time -- G64 should not smooth over this point )
G00 Z5.00000 ( retract )

G00 X45.46178 Y104.71314 ( rapid move to begin. )
G01 F300.00000
G01 Z-0.14000
G04 P0 ( dwell for no time -- G64 should not smooth over this point )
G01 F600.00000
G01 X45.46178 Y104.71314
G01 X45.46178 Y105.71314
G01 X45.47872 Y105.87953
G01 X45.53526 Y106.05886
G01 X45.63072 Y106.22088
G01 X45.75116 Y106.35139
G01 X45.89612 Y106.45400
G01 X46.04913 Y106.52154
G01 X46.22294 Y106.55847
G01 X46.40064 Y106.55847
G01 X46.57445 Y106.52154
G01 X46.72746 Y106.45400
G01 X46.87242 Y106.35139
G01 X46.99945 Y106.21276
G01 X47.08829 Y106.05886
G01 X47.14321 Y105.88987
G01 X47.16124 Y105.72360
G01 X47.16178 Y104.71314
G01 X47.14486 Y104.54674
G01 X47.08829 Y104.36742
G01 X46.99287 Y104.20539
G01 X46.88794 Y104.08886
G01 X46.74557 Y103.98271
G01 X46.57445 Y103.90473
G01 X46.39018 Y103.86724
G01 X46.22294 Y103.86780
G01 X46.04913 Y103.90473
G01 X45.87801 Y103.98271
G01 X45.73562 Y104.08886
G01 X45.62411 Y104.21352
G01 X45.53526 Y104.36742
G01 X45.48307 Y104.52630
G01 X45.46178 Y104.71314
G04 P0 ( dwell for no time -- G64 should not smooth over this point )
G00 Z5.00000 ( retract )

G00 X48.00178 Y104.71314 ( rapid move to begin. )
G01 F300.00000
G01 Z-0.14000
G04 P0 ( dwell for no time -- G64 should not smooth over this point )
G01 F600.00000
G01 X48.00178 Y104.71314
G01 X48.00178 Y105.71314
G01 X48.01872 Y105.87953
G01 X48.07526 Y106.05886
G01 X48.17072 Y106.22088
G01 X48.28303 Y106.34481
G01 X48.43612 Y106.45400
G01 X48.58913 Y106.52154
G01 X48.76294 Y106.55847
G01 X48.94064 Y106.55847
G01 X49.11445 Y106.52154
G01 X49.26746 Y106.45400
G01 X49.41242 Y106.35139
G01 X49.53945 Y106.21276
G01 X49.62829 Y106.05886
G01 X49.68321 Y105.88987
G01 X49.70124 Y105.72360
G01 X49.70178 Y104.71314
G01 X49.68486 Y104.54674
G01 X49.62829 Y104.36742
G01 X49.53287 Y104.20539
G01 X49.42794 Y104.08886
G01 X49.28557 Y103.98271
G01 X49.11445 Y103.90473
G01 X48.93018 Y103.86724
G01 X48.76294 Y103.86780
G01 X48.58913 Y103.90473
G01 X48.41801 Y103.98271
G01 X48.27562 Y104.08886
G01 X48.16411 Y104.21352
G01 X48.07526 Y104.36742
G01 X48.02307 Y104.52630
G01 X48.00178 Y104.71314
G04 P0 ( dwell for no time -- G64 should not smooth over this point )
G00 Z5.00000 ( retract )

G00 X50.54178 Y104.71314 ( rapid move to begin. )
G01 F300.00000
G01 Z-0.14000
G04 P0 ( dwell for no time -- G64 should not smooth over this point )
G01 F600.00000
G01 X50.54178 Y104.71314
G01 X50.54178 Y105.71314
G01 X50.55872 Y105.87953
G01 X50.61526 Y106.05886
G01 X50.71072 Y106.22088
G01 X50.83116 Y106.35139
G01 X50.97612 Y106.45400
G01 X51.12913 Y106.52154
G01 X51.30294 Y106.55847
G01 X51.48064 Y106.55847
G01 X51.65445 Y106.52154
G01 X51.80746 Y106.45400
G01 X51.95242 Y106.35139
G01 X52.07945 Y106.21276
G01 X52.16829 Y106.05886
G01 X52.22321 Y105.88987
G01 X52.24124 Y105.72360
G01 X52.24178 Y104.71314
G01 X52.22486 Y104.54674
G01 X52.16829 Y104.36742
G01 X52.07287 Y104.20539
G01 X51.96055 Y104.08147
G01 X51.82557 Y103.98271
G01 X51.65445 Y103.90473
G01 X51.47018 Y103.86724
G01 X51.30294 Y103.86780
G01 X51.12913 Y103.90473
G01 X50.95801 Y103.98271
G01 X50.81562 Y104.08886
G01 X50.70411 Y104.21352
G01 X50.61526 Y104.36742
G01 X50.56307 Y104.52630
G01 X50.54178 Y104.71314
G04 P0 ( dwell for no time -- G64 should not smooth over this point )
G00 Z5.00000 ( retract )

G00 X27.00017 Y126.14218 ( rapid move to begin. )
G01 F300.00000
G01 Z-0.14000
G04 P0 ( dwell for no time -- G64 should not smooth over this point )
G01 F600.00000
G01 X27.00017 Y126.14218
G01 X27.04358 Y125.93791
G01 X27.12207 Y125.76702
G01 X27.22036 Y125.63172
G01 X27.35864 Y125.50428
G01 X27.52039 Y125.40837
G01 X27.70868 Y125.34548
G01 X27.88534 Y125.32636
G01 X28.70624 Y125.32636
G01 X28.89303 Y125.34818
G01 X29.06184 Y125.40362
G01 X29.22480 Y125.49771
G01 X29.37121 Y125.63172
G01 X29.47520 Y125.77581
G01 X29.54799 Y125.93791
G01 X29.58922 Y126.12140
G01 X29.59140 Y126.30944
G01 X29.54799 Y126.51371
G01 X29.46951 Y126.68460
G01 X29.37121 Y126.81990
G01 X29.23293 Y126.94733
G01 X29.06184 Y127.04799
G01 X28.89303 Y127.10344
G01 X28.70624 Y127.12526
G01 X27.88534 Y127.12526
G01 X27.69854 Y127.10344
G01 X27.52974 Y127.04799
G01 X27.36677 Y126.95391
G01 X27.22036 Y126.81990
G01 X27.11638 Y126.67581
G01 X27.04358 Y126.51371
G01 X27.00073 Y126.31988
G01 X27.00017 Y126.14218
G04 P0 ( dwell for no time -- G64 should not smooth over this point )
G00 Z5.00000 ( retract )

G00 X27.00017 Y128.68218 ( rapid move to begin. )
G01 F300.00000
G01 Z-0.14000
G04 P0 ( dwell for no time -- G64 should not smooth over this point )
G01 F600.00000
G01 X27.00017 Y128.68218
G01 X27.04358 Y128.47791
G01 X27.12207 Y128.30702
G01 X27.22697 Y128.16359
G01 X27.35864 Y128.04428
G01 X27.52974 Y127.94362
G01 X27.69854 Y127.88818
G01 X27.88534 Y127.86636
G01 X28.70624 Y127.86636
G01 X28.89303 Y127.88818
G01 X29.06184 Y127.94362
G01 X29.22480 Y128.03771
G01 X29.37121 Y128.17172
G01 X29.47520 Y128.31581
G01 X29.54799 Y128.47791
G01 X29.58922 Y128.66140
G01 X29.59140 Y128.84944
G01 X29.54799 Y129.05371
G01 X29.46951 Y129.22460
G01 X29.37121 Y129.35990
G01 X29.23293 Y129.48733
G01 X29.06184 Y129.58799
G01 X28.89303 Y129.64344
G01 X28.70624 Y129.66526
G01 X27.88534 Y129.66526
G01 X27.69854 Y129.64344
G01 X27.52974 Y129.58799
G01 X27.36677 Y129.49391
G01 X27.22036 Y129.35990
G01 X27.11638 Y129.21581
G01 X27.04358 Y129.05371
G01 X27.00073 Y128.85988
G01 X27.00017 Y128.68218
G04 P0 ( dwell for no time -- G64 should not smooth over this point )
G00 Z5.00000 ( retract )

G00 X27.00017 Y131.22218 ( rapid move to begin. )
G01 F300.00000
G01 Z-0.14000
G04 P0 ( dwell for no time -- G64 should not smooth over this point )
G01 F600.00000
G01 X27.00017 Y131.22218
G01 X27.04358 Y131.01791
G01 X27.12207 Y130.84702
G01 X27.22036 Y130.71172
G01 X27.35864 Y130.58428
G01 X27.52974 Y130.48362
G01 X27.69854 Y130.42818
G01 X27.88534 Y130.40636
G01 X28.70624 Y130.40636
G01 X28.89303 Y130.42818
G01 X29.06184 Y130.48362
G01 X29.22480 Y130.57771
G01 X29.37121 Y130.71172
G01 X29.47520 Y130.85581
G01 X29.54799 Y131.01791
G01 X29.58922 Y131.20140
G01 X29.59140 Y131.38944
G01 X29.54799 Y131.59371
G01 X29.46951 Y131.76460
G01 X29.37121 Y131.89990
G01 X29.23293 Y132.02733
G01 X29.06184 Y132.12799
G01 X28.89303 Y132.18344
G01 X28.70624 Y132.20526
G01 X27.88534 Y132.20526
G01 X27.70868 Y132.18614
G01 X27.52039 Y132.12324
G01 X27.36677 Y132.03391
G01 X27.22036 Y131.89990
G01 X27.11638 Y131.75581
G01 X27.04358 Y131.59371
G01 X27.00073 Y131.39988
G01 X27.00017 Y131.22218
G04 P0 ( dwell for no time -- G64 should not smooth over this point )
G00 Z5.00000 ( retract )

G00 X23.90320 Y136.18260 ( rapid move to begin. )
G01 F300.00000
G01 Z-0.14000
G04 P0 ( dwell for no time -- G64 should not smooth over this point )
G01 F600.00000
G01 X23.90320 Y136.18260
G01 X23.92040 Y136.01374
G01 X23.97396 Y135.84178
G01 X24.07440 Y135.66781
G01 X24.18839 Y135.54201
G01 X24.32540 Y135.44181
G01 X24.50891 Y135.36009
G01 X24.67508 Y135.32532
G01 X24.85529 Y135.32532
G01 X25.02146 Y135.36009
G01 X25.18687 Y135.43134
G01 X25.34937 Y135.54943
G01 X25.46827 Y135.68471
G01 X25.54790 Y135.82268
G01 X25.60564 Y135.99329
G01 X25.62720 Y136.18260
G01 X25.62720 Y137.70662
G01 X25.60998 Y137.87548
G01 X25.55265 Y138.05722
G01 X25.46827 Y138.20451
G01 X25.34198 Y138.34721
G01 X25.18687 Y138.45788
G01 X25.03157 Y138.52643
G01 X24.84483 Y138.56443
G01 X24.66474 Y138.56225
G01 X24.49880 Y138.52643
G01 X24.34351 Y138.45788
G01 X24.18839 Y138.34721
G01 X24.07440 Y138.22140
G01 X23.98247 Y138.06654
G01 X23.92474 Y137.89593
G01 X23.90320 Y137.70662
G01 X23.90320 Y136.18260
G04 P0 ( dwell for no time -- G64 should not smooth over this point )
G00 Z5.00000 ( retract )

G00 X23.90320 Y142.68500 ( rapid move to begin. )
G01 F300.00000
G01 Z-0.14000
G04 P0 ( dwell for no time -- G64 should not smooth over this point )
G01 F600.00000
G01 X23.90320 Y142.68500
G01 X23.90320 Y144.20900
G01 X23.92474 Y144.39833
G01 X23.98247 Y144.56894
G01 X24.07440 Y144.72380
G01 X24.18839 Y144.84961
G01 X24.34351 Y144.96028
G01 X24.49880 Y145.02883
G01 X24.66474 Y145.06465
G01 X24.84483 Y145.06683
G01 X25.03157 Y145.02883
G01 X25.18687 Y144.96028
G01 X25.34198 Y144.84961
G01 X25.46827 Y144.70691
G01 X25.55265 Y144.55962
G01 X25.60998 Y144.37788
G01 X25.62720 Y144.20900
G01 X25.62720 Y142.68500
G01 X25.60564 Y142.49569
G01 X25.54790 Y142.32508
G01 X25.46827 Y142.18711
G01 X25.34937 Y142.05183
G01 X25.18687 Y141.93374
G01 X25.03157 Y141.86519
G01 X24.86563 Y141.82937
G01 X24.68555 Y141.82719
G01 X24.50891 Y141.86249
G01 X24.32540 Y141.94421
G01 X24.18839 Y142.04441
G01 X24.07440 Y142.17021
G01 X23.97396 Y142.34418
G01 X23.92040 Y142.51614
G01 X23.90320 Y142.68500
G04 P0 ( dwell for no time -- G64 should not smooth over this point )
G00 Z5.00000 ( retract )

G00 X28.42440 Y142.68500 ( rapid move to begin. )
G01 F300.00000
G01 Z-0.14000
G04 P0 ( dwell for no time -- G64 should not smooth over this point )
G01 F600.00000
G01 X28.42440 Y142.68500
G01 X28.42440 Y144.20900
G01 X28.44594 Y144.39833
G01 X28.50367 Y144.56894
G01 X28.59560 Y144.72380
G01 X28.71772 Y144.85619
G01 X28.85539 Y144.95553
G01 X29.01025 Y145.02507
G01 X29.19628 Y145.06630
G01 X29.37649 Y145.06630
G01 X29.55277 Y145.02883
G01 X29.70807 Y144.96028
G01 X29.86318 Y144.84961
G01 X29.98947 Y144.70691
G01 X30.07385 Y144.55962
G01 X30.13118 Y144.37788
G01 X30.14840 Y144.20900
G01 X30.14840 Y142.68500
G01 X30.12684 Y142.49569
G01 X30.06910 Y142.32508
G01 X29.98947 Y142.18711
G01 X29.87057 Y142.05183
G01 X29.70807 Y141.93374
G01 X29.55277 Y141.86519
G01 X29.37649 Y141.82772
G01 X29.19628 Y141.82772
G01 X29.03011 Y141.86249
G01 X28.84660 Y141.94421
G01 X28.71772 Y142.03783
G01 X28.59560 Y142.17021
G01 X28.49516 Y142.34418
G01 X28.44160 Y142.51614
G01 X28.42440 Y142.68500
G04 P0 ( dwell for no time -- G64 should not smooth over this point )
G00 Z5.00000 ( retract )

G00 X28.42440 Y136.18260 ( rapid move to begin. )
G01 F300.00000
G01 Z-0.14000
G04 P0 ( dwell for no time -- G64 should not smooth over this point )
G01 F600.00000
G01 X28.42440 Y136.18260
G01 X28.42440 Y137.70662
G01 X28.44594 Y137.89593
G01 X28.50367 Y138.06654
G01 X28.59560 Y138.22140
G01 X28.71772 Y138.35379
G01 X28.85539 Y138.45313
G01 X29.01025 Y138.52267
G01 X29.19628 Y138.56390
G01 X29.37649 Y138.56390
G01 X29.55277 Y138.52643
G01 X29.70807 Y138.45788
G01 X29.85506 Y138.35379
G01 X29.98947 Y138.20451
G01 X30.07385 Y138.05722
G01 X30.13118 Y137.87548
G01 X30.14840 Y137.70662
G01 X30.14840 Y136.18260
G01 X30.12684 Y135.99329
G01 X30.06910 Y135.82268
G01 X29.98947 Y135.68471
G01 X29.87057 Y135.54943
G01 X29.70807 Y135.43134
G01 X29.54266 Y135.36009
G01 X29.37649 Y135.32532
G01 X29.19628 Y135.32532
G01 X29.03011 Y135.36009
G01 X28.84660 Y135.44181
G01 X28.71772 Y135.53543
G01 X28.59560 Y135.66781
G01 X28.49516 Y135.84178
G01 X28.44160 Y136.01374
G01 X28.42440 Y136.18260
G04 P0 ( dwell for no time -- G64 should not smooth over this point )
G00 Z5.00000 ( retract )

G00 X34.61578 Y125.42580 ( rapid move to begin. )
G01 F300.00000
G01 Z-0.14000
G04 P0 ( dwell for no time -- G64 should not smooth over this point )
G01 F600.00000
G01 X34.61578 Y125.42580
G01 X34.61578 Y127.02582
G01 X34.63264 Y127.08137
G01 X34.66023 Y127.10895
G01 X34.71578 Y127.12582
G01 X37.11580 Y127.12582
G01 X37.17135 Y127.10895
G01 X37.19893 Y127.08137
G01 X37.21580 Y127.02582
G01 X37.21580 Y125.42580
G01 X37.19893 Y125.37025
G01 X37.17135 Y125.34266
G01 X37.11580 Y125.32580
G01 X34.71578 Y125.32580
G01 X34.64509 Y125.35511
G01 X34.61578 Y125.42580
G04 P0 ( dwell for no time -- G64 should not smooth over this point )
G00 Z5.00000 ( retract )

G00 X34.62017 Y128.68218 ( rapid move to begin. )
G01 F300.00000
G01 Z-0.14000
G04 P0 ( dwell for no time -- G64 should not smooth over this point )
G01 F600.00000
G01 X34.62017 Y128.68218
G01 X34.62073 Y128.85988
G01 X34.66358 Y129.05371
G01 X34.73638 Y129.21581
G01 X34.84036 Y129.35990
G01 X34.98677 Y129.49391
G01 X35.14974 Y129.58799
G01 X35.31854 Y129.64344
G01 X35.50534 Y129.66526
G01 X36.32624 Y129.66526
G01 X36.51303 Y129.64344
G01 X36.68184 Y129.58799
G01 X36.85293 Y129.48733
G01 X36.99121 Y129.35990
G01 X37.08951 Y129.22460
G01 X37.16799 Y129.05371
G01 X37.21140 Y128.84944
G01 X37.20922 Y128.66140
G01 X37.16799 Y128.47791
G01 X37.09520 Y128.31581
G01 X36.99121 Y128.17172
G01 X36.84480 Y128.03771
G01 X36.68184 Y127.94362
G01 X36.51303 Y127.88818
G01 X36.32624 Y127.86636
G01 X35.50534 Y127.86636
G01 X35.31854 Y127.88818
G01 X35.14974 Y127.94362
G01 X34.97864 Y128.04428
G01 X34.84036 Y128.17172
G01 X34.74207 Y128.30702
G01 X34.66358 Y128.47791
G01 X34.62017 Y128.68218
G04 P0 ( dwell for no time -- G64 should not smooth over this point )
G00 Z5.00000 ( retract )

G00 X34.62017 Y131.22218 ( rapid move to begin. )
G01 F300.00000
G01 Z-0.14000
G04 P0 ( dwell for no time -- G64 should not smooth over this point )
G01 F600.00000
G01 X34.62017 Y131.22218
G01 X34.62073 Y131.39988
G01 X34.66358 Y131.59371
G01 X34.73638 Y131.75581
G01 X34.84036 Y131.89990
G01 X34.98677 Y132.03391
G01 X35.14974 Y132.12799
G01 X35.31854 Y132.18344
G01 X35.50534 Y132.20526
G01 X36.32624 Y132.20526
G01 X36.51303 Y132.18344
G01 X36.68184 Y132.12799
G01 X36.85293 Y132.02733
G01 X36.99121 Y131.89990
G01 X37.08951 Y131.76460
G01 X37.16799 Y131.59371
G01 X37.21140 Y131.38944
G01 X37.20922 Y131.20140
G01 X37.16799 Y131.01791
G01 X37.09520 Y130.85581
G01 X36.99121 Y130.71172
G01 X36.84480 Y130.57771
G01 X36.68184 Y130.48362
G01 X36.51303 Y130.42818
G01 X36.32624 Y130.40636
G01 X35.50534 Y130.40636
G01 X35.31854 Y130.42818
G01 X35.14974 Y130.48362
G01 X34.97864 Y130.58428
G01 X34.84036 Y130.71172
G01 X34.74207 Y130.84702
G01 X34.66358 Y131.01791
G01 X34.62017 Y131.22218
G04 P0 ( dwell for no time -- G64 should not smooth over this point )
G00 Z5.00000 ( retract )

G00 X35.56233 Y142.72536 ( rapid move to begin. )
G01 F300.00000
G01 Z-0.14000
G04 P0 ( dwell for no time -- G64 should not smooth over this point )
G01 F600.00000
G01 X35.56233 Y142.72536
G01 X35.60831 Y142.30885
G01 X35.73137 Y141.93008
G01 X35.94471 Y141.55729
G01 X36.21778 Y141.25320
G01 X36.55550 Y141.00512
G01 X36.94722 Y140.82894
G01 X37.35720 Y140.74179
G01 X37.76591 Y140.74124
G01 X38.17625 Y140.82622
G01 X38.56929 Y140.99943
G01 X38.90025 Y141.23923
G01 X39.18229 Y141.54916
G01 X39.40220 Y141.93008
G01 X39.52961 Y142.32929
G01 X39.57124 Y142.74626
G01 X39.52527 Y143.16277
G01 X39.40220 Y143.54154
G01 X39.18887 Y143.91433
G01 X38.91579 Y144.21842
G01 X38.56929 Y144.47219
G01 X38.19614 Y144.63892
G01 X37.77638 Y144.72982
G01 X37.36766 Y144.73038
G01 X36.94722 Y144.64268
G01 X36.57361 Y144.47694
G01 X36.23333 Y144.23239
G01 X35.95128 Y143.92246
G01 X35.73137 Y143.54154
G01 X35.60396 Y143.14232
G01 X35.56233 Y142.72536
G04 P0 ( dwell for no time -- G64 should not smooth over this point )
G00 Z5.00000 ( retract )

G00 X40.26133 Y142.72536 ( rapid move to begin. )
G01 F300.00000
G01 Z-0.14000
G04 P0 ( dwell for no time -- G64 should not smooth over this point )
G01 F600.00000
G01 X40.26133 Y142.72536
G01 X40.30731 Y142.30885
G01 X40.43037 Y141.93008
G01 X40.64371 Y141.55729
G01 X40.91678 Y141.25320
G01 X41.26329 Y140.99943
G01 X41.63644 Y140.83270
G01 X42.05620 Y140.74179
G01 X42.46491 Y140.74124
G01 X42.87525 Y140.82622
G01 X43.26829 Y140.99943
G01 X43.59925 Y141.23923
G01 X43.88129 Y141.54916
G01 X44.10120 Y141.93008
G01 X44.22861 Y142.32929
G01 X44.27024 Y142.74626
G01 X44.22427 Y143.16277
G01 X44.10120 Y143.54154
G01 X43.88787 Y143.91433
G01 X43.61479 Y144.21842
G01 X43.26829 Y144.47219
G01 X42.89514 Y144.63892
G01 X42.47538 Y144.72982
G01 X42.06666 Y144.73038
G01 X41.65633 Y144.64539
G01 X41.26329 Y144.47219
G01 X40.93233 Y144.23239
G01 X40.65028 Y143.92246
G01 X40.43037 Y143.54154
G01 X40.30296 Y143.14232
G01 X40.26133 Y142.72536
G04 P0 ( dwell for no time -- G64 should not smooth over this point )
G00 Z5.00000 ( retract )

G00 X44.96033 Y142.72536 ( rapid move to begin. )
G01 F300.00000
G01 Z-0.14000
G04 P0 ( dwell for no time -- G64 should not smooth over this point )
G01 F600.00000
G01 X44.96033 Y142.72536
G01 X45.00631 Y142.30885
G01 X45.12937 Y141.93008
G01 X45.34271 Y141.55729
G01 X45.61578 Y141.25320
G01 X45.96229 Y140.99943
G01 X46.33544 Y140.83270
G01 X46.75520 Y140.74179
G01 X47.16391 Y140.74124
G01 X47.58436 Y140.82894
G01 X47.95797 Y140.99468
G01 X48.29825 Y141.23923
G01 X48.58029 Y141.54916
G01 X48.80020 Y141.93008
G01 X48.92761 Y142.32929
G01 X48.96924 Y142.74626
G01 X48.92327 Y143.16277
G01 X48.80020 Y143.54154
G01 X48.58687 Y143.91433
G01 X48.31379 Y144.21842
G01 X47.97608 Y144.46650
G01 X47.58436 Y144.64268
G01 X47.17438 Y144.72982
G01 X46.76566 Y144.73038
G01 X46.35533 Y144.64539
G01 X45.96229 Y144.47219
G01 X45.63133 Y144.23239
G01 X45.34928 Y143.92246
G01 X45.12937 Y143.54154
G01 X45.00196 Y143.14232
G01 X44.96033 Y142.72536
G04 P0 ( dwell for no time -- G64 should not smooth over this point )
G00 Z5.00000 ( retract )

G00 X52.79578 Y130.90580 ( rapid move to begin. )
G01 F300.00000
G01 Z-0.14000
G04 P0 ( dwell for no time -- G64 should not smooth over this point )
G01 F600.00000
G01 X52.79578 Y130.90580
G01 X52.81815 Y130.70857
G01 X52.86984 Y130.54951
G01 X52.96197 Y130.38558
G01 X53.09357 Y130.23699
G01 X53.25511 Y130.12162
G01 X53.41767 Y130.04987
G01 X53.59138 Y130.01238
G01 X53.78986 Y130.01075
G01 X53.98368 Y130.05360
G01 X54.14579 Y130.12640
G01 X54.28988 Y130.23039
G01 X54.41731 Y130.36866
G01 X54.51797 Y130.53976
G01 X54.57611 Y130.71870
G01 X54.59524 Y130.89536
G01 X54.59580 Y131.70582
G01 X54.57776 Y131.88258
G01 X54.51797 Y132.07186
G01 X54.41731 Y132.24295
G01 X54.28988 Y132.38123
G01 X54.14579 Y132.48522
G01 X53.98368 Y132.55802
G01 X53.78986 Y132.60087
G01 X53.60172 Y132.60087
G01 X53.41767 Y132.56175
G01 X53.25511 Y132.49000
G01 X53.09357 Y132.37463
G01 X52.96768 Y132.23483
G01 X52.87835 Y132.08121
G01 X52.81546 Y131.89292
G01 X52.79578 Y131.70582
G01 X52.79578 Y130.90580
G04 P0 ( dwell for no time -- G64 should not smooth over this point )
G00 Z5.00000 ( retract )

G00 X55.33578 Y130.90580 ( rapid move to begin. )
G01 F300.00000
G01 Z-0.14000
G04 P0 ( dwell for no time -- G64 should not smooth over this point )
G01 F600.00000
G01 X55.33578 Y130.90580
G01 X55.35815 Y130.70857
G01 X55.40984 Y130.54951
G01 X55.50197 Y130.38558
G01 X55.63357 Y130.23699
G01 X55.79511 Y130.12162
G01 X55.95767 Y130.04987
G01 X56.13138 Y130.01238
G01 X56.31942 Y130.01019
G01 X56.52368 Y130.05360
G01 X56.67646 Y130.12162
G01 X56.82988 Y130.23039
G01 X56.96389 Y130.37679
G01 X57.05322 Y130.53041
G01 X57.11611 Y130.71870
G01 X57.13524 Y130.89536
G01 X57.13580 Y131.70582
G01 X57.11776 Y131.88258
G01 X57.06173 Y132.06211
G01 X56.95731 Y132.24295
G01 X56.82988 Y132.38123
G01 X56.67646 Y132.49000
G01 X56.51390 Y132.56175
G01 X56.31942 Y132.60143
G01 X56.13138 Y132.59924
G01 X55.95767 Y132.56175
G01 X55.79511 Y132.49000
G01 X55.64169 Y132.38123
G01 X55.50197 Y132.22604
G01 X55.40984 Y132.06211
G01 X55.35546 Y131.89292
G01 X55.33578 Y131.70582
G01 X55.33578 Y130.90580
G04 P0 ( dwell for no time -- G64 should not smooth over this point )
G00 Z5.00000 ( retract )

G00 X52.79578 Y123.28580 ( rapid move to begin. )
G01 F300.00000
G01 Z-0.14000
G04 P0 ( dwell for no time -- G64 should not smooth over this point )
G01 F600.00000
G01 X52.79578 Y123.28580
G01 X52.79578 Y124.08582
G01 X52.81546 Y124.27292
G01 X52.86984 Y124.44211
G01 X52.96197 Y124.60604
G01 X53.10169 Y124.76123
G01 X53.24579 Y124.86522
G01 X53.42778 Y124.94447
G01 X53.60172 Y124.98087
G01 X53.78986 Y124.98087
G01 X53.98368 Y124.93802
G01 X54.14579 Y124.86522
G01 X54.28988 Y124.76123
G01 X54.41731 Y124.62295
G01 X54.52173 Y124.44211
G01 X54.57776 Y124.26258
G01 X54.59580 Y124.08582
G01 X54.59524 Y123.27536
G01 X54.57611 Y123.09870
G01 X54.51797 Y122.91976
G01 X54.41731 Y122.74866
G01 X54.28988 Y122.61039
G01 X54.14579 Y122.50640
G01 X53.98368 Y122.43360
G01 X53.78986 Y122.39075
G01 X53.59138 Y122.39238
G01 X53.40789 Y122.43360
G01 X53.25511 Y122.50162
G01 X53.10169 Y122.61039
G01 X52.96197 Y122.76558
G01 X52.86984 Y122.92951
G01 X52.81815 Y123.08857
G01 X52.79578 Y123.28580
G04 P0 ( dwell for no time -- G64 should not smooth over this point )
G00 Z5.00000 ( retract )

G00 X55.33578 Y123.28580 ( rapid move to begin. )
G01 F300.00000
G01 Z-0.14000
G04 P0 ( dwell for no time -- G64 should not smooth over this point )
G01 F600.00000
G01 X55.33578 Y123.28580
G01 X55.33578 Y124.08582
G01 X55.35546 Y124.27292
G01 X55.40984 Y124.44211
G01 X55.50197 Y124.60604
G01 X55.64169 Y124.76123
G01 X55.79511 Y124.87000
G01 X55.96778 Y124.94447
G01 X56.14172 Y124.98087
G01 X56.32986 Y124.98087
G01 X56.50380 Y124.94447
G01 X56.67646 Y124.87000
G01 X56.82988 Y124.76123
G01 X56.95731 Y124.62295
G01 X57.06173 Y124.44211
G01 X57.11776 Y124.26258
G01 X57.13580 Y124.08582
G01 X57.13524 Y123.27536
G01 X57.11611 Y123.09870
G01 X57.05322 Y122.91041
G01 X56.96389 Y122.75679
G01 X56.82988 Y122.61039
G01 X56.67646 Y122.50162
G01 X56.52368 Y122.43360
G01 X56.31942 Y122.39019
G01 X56.13138 Y122.39238
G01 X55.95767 Y122.42987
G01 X55.79511 Y122.50162
G01 X55.63357 Y122.61699
G01 X55.50197 Y122.76558
G01 X55.40984 Y122.92951
G01 X55.35815 Y123.08857
G01 X55.33578 Y123.28580
G04 P0 ( dwell for no time -- G64 should not smooth over this point )
G00 Z5.00000 ( retract )

G00 X57.87578 Y123.28580 ( rapid move to begin. )
G01 F300.00000
G01 Z-0.14000
G04 P0 ( dwell for no time -- G64 should not smooth over this point )
G01 F600.00000
G01 X57.87578 Y123.28580
G01 X57.87578 Y124.08582
G01 X57.89546 Y124.27292
G01 X57.94984 Y124.44211
G01 X58.04197 Y124.60604
G01 X58.18169 Y124.76123
G01 X58.33511 Y124.87000
G01 X58.50778 Y124.94447
G01 X58.68172 Y124.98087
G01 X58.86986 Y124.98087
G01 X59.04380 Y124.94447
G01 X59.21646 Y124.87000
G01 X59.36988 Y124.76123
G01 X59.49731 Y124.62295
G01 X59.60173 Y124.44211
G01 X59.65776 Y124.26258
G01 X59.67580 Y124.08582
G01 X59.67524 Y123.27536
G01 X59.65611 Y123.09870
G01 X59.59322 Y122.91041
G01 X59.49731 Y122.74866
G01 X59.37801 Y122.61699
G01 X59.21646 Y122.50162
G01 X59.05390 Y122.42987
G01 X58.88019 Y122.39238
G01 X58.69216 Y122.39019
G01 X58.48789 Y122.43360
G01 X58.33511 Y122.50162
G01 X58.18169 Y122.61039
G01 X58.04197 Y122.76558
G01 X57.94984 Y122.92951
G01 X57.89815 Y123.08857
G01 X57.87578 Y123.28580
G04 P0 ( dwell for no time -- G64 should not smooth over this point )
G00 Z5.00000 ( retract )

G00 X57.87578 Y130.10580 ( rapid move to begin. )
G01 F300.00000
G01 Z-0.14000
G04 P0 ( dwell for no time -- G64 should not smooth over this point )
G01 F600.00000
G01 X57.87578 Y130.10580
G01 X57.87578 Y132.50582
G01 X57.89264 Y132.56137
G01 X57.92023 Y132.58895
G01 X57.97578 Y132.60582
G01 X59.57580 Y132.60582
G01 X59.63135 Y132.58895
G01 X59.65893 Y132.56137
G01 X59.67580 Y132.50582
G01 X59.67580 Y130.10580
G01 X59.65893 Y130.05025
G01 X59.63135 Y130.02266
G01 X59.57580 Y130.00580
G01 X57.97578 Y130.00580
G01 X57.90509 Y130.03511
G01 X57.87578 Y130.10580
G04 P0 ( dwell for no time -- G64 should not smooth over this point )
G00 Z5.00000 ( retract )

G00 X53.97045 Y141.20545 ( rapid move to begin. )
G01 F300.00000
G01 Z-0.14000
G04 P0 ( dwell for no time -- G64 should not smooth over this point )
G01 F600.00000
G01 X53.97045 Y141.20545
G01 X53.97045 Y142.99615
G01 X53.99488 Y143.21321
G01 X54.06123 Y143.41032
G01 X54.16712 Y143.58934
G01 X54.29976 Y143.73585
G01 X54.46811 Y143.85815
G01 X54.64843 Y143.93905
G01 X54.86174 Y143.98606
G01 X55.05937 Y143.98659
G01 X55.27337 Y143.94280
G01 X55.45414 Y143.86292
G01 X55.63181 Y143.73585
G01 X55.77675 Y143.57242
G01 X55.87509 Y143.40100
G01 X55.94103 Y143.19277
G01 X55.96115 Y142.99615
G01 X55.96115 Y141.20545
G01 X55.93669 Y140.98840
G01 X55.87034 Y140.79130
G01 X55.77675 Y140.62920
G01 X55.63920 Y140.47316
G01 X55.45414 Y140.33870
G01 X55.27337 Y140.25881
G01 X55.08018 Y140.21721
G01 X54.87220 Y140.21502
G01 X54.66832 Y140.25612
G01 X54.45932 Y140.34916
G01 X54.29976 Y140.46577
G01 X54.16712 Y140.61228
G01 X54.05275 Y140.81037
G01 X53.99054 Y141.00885
G01 X53.97045 Y141.20545
G04 P0 ( dwell for no time -- G64 should not smooth over this point )
G00 Z5.00000 ( retract )

G00 X59.05045 Y141.20545 ( rapid move to begin. )
G01 F300.00000
G01 Z-0.14000
G04 P0 ( dwell for no time -- G64 should not smooth over this point )
G01 F600.00000
G01 X59.05045 Y141.20545
G01 X59.05045 Y142.99615
G01 X59.07219 Y143.20311
G01 X59.14123 Y143.41032
G01 X59.24054 Y143.58121
G01 X59.37976 Y143.73585
G01 X59.55743 Y143.86292
G01 X59.73821 Y143.94280
G01 X59.93140 Y143.98441
G01 X60.13937 Y143.98659
G01 X60.35337 Y143.94280
G01 X60.53414 Y143.86292
G01 X60.71181 Y143.73585
G01 X60.85675 Y143.57242
G01 X60.95509 Y143.40100
G01 X61.02103 Y143.19277
G01 X61.04115 Y142.99615
G01 X61.04115 Y141.20545
G01 X61.01669 Y140.98840
G01 X60.95034 Y140.79130
G01 X60.85675 Y140.62920
G01 X60.71920 Y140.47316
G01 X60.53414 Y140.33870
G01 X60.35337 Y140.25881
G01 X60.16018 Y140.21721
G01 X59.95220 Y140.21502
G01 X59.74832 Y140.25612
G01 X59.53932 Y140.34916
G01 X59.37976 Y140.46577
G01 X59.24054 Y140.62041
G01 X59.14123 Y140.79130
G01 X59.07488 Y140.98840
G01 X59.05045 Y141.20545
G04 P0 ( dwell for no time -- G64 should not smooth over this point )
G00 Z5.00000 ( retract )

G00 X71.75045 Y141.20545 ( rapid move to begin. )
G01 F300.00000
G01 Z-0.14000
G04 P0 ( dwell for no time -- G64 should not smooth over this point )
G01 F600.00000
G01 X71.75045 Y141.20545
G01 X71.75045 Y142.99615
G01 X71.77219 Y143.20311
G01 X71.84123 Y143.41032
G01 X71.94054 Y143.58121
G01 X72.07976 Y143.73585
G01 X72.25743 Y143.86292
G01 X72.43821 Y143.94280
G01 X72.63140 Y143.98441
G01 X72.83937 Y143.98659
G01 X73.05337 Y143.94280
G01 X73.23414 Y143.86292
G01 X73.41181 Y143.73585
G01 X73.55675 Y143.57242
G01 X73.65509 Y143.40100
G01 X73.72103 Y143.19277
G01 X73.74115 Y142.99615
G01 X73.74115 Y141.20545
G01 X73.71669 Y140.98840
G01 X73.65034 Y140.79130
G01 X73.55675 Y140.62920
G01 X73.41920 Y140.47316
G01 X73.23414 Y140.33870
G01 X73.05337 Y140.25881
G01 X72.86018 Y140.21721
G01 X72.65220 Y140.21502
G01 X72.44832 Y140.25612
G01 X72.23932 Y140.34916
G01 X72.07976 Y140.46577
G01 X71.94054 Y140.62041
G01 X71.84123 Y140.79130
G01 X71.77488 Y140.98840
G01 X71.75045 Y141.20545
G04 P0 ( dwell for no time -- G64 should not smooth over this point )
G00 Z5.00000 ( retract )

G00 X76.83045 Y141.20545 ( rapid move to begin. )
G01 F300.00000
G01 Z-0.14000
G04 P0 ( dwell for no time -- G64 should not smooth over this point )
G01 F600.00000
G01 X76.83045 Y141.20545
G01 X76.83045 Y142.99615
G01 X76.85488 Y143.21321
G01 X76.92123 Y143.41032
G01 X77.02712 Y143.58934
G01 X77.15976 Y143.73585
G01 X77.33743 Y143.86292
G01 X77.51821 Y143.94280
G01 X77.71140 Y143.98441
G01 X77.91937 Y143.98659
G01 X78.13337 Y143.94280
G01 X78.31414 Y143.86292
G01 X78.49181 Y143.73585
G01 X78.63675 Y143.57242
G01 X78.73509 Y143.40100
G01 X78.80103 Y143.19277
G01 X78.82115 Y142.99615
G01 X78.82115 Y141.20545
G01 X78.79669 Y140.98840
G01 X78.73034 Y140.79130
G01 X78.63675 Y140.62920
G01 X78.49920 Y140.47316
G01 X78.31414 Y140.33870
G01 X78.13337 Y140.25881
G01 X77.94018 Y140.21721
G01 X77.73220 Y140.21502
G01 X77.52832 Y140.25612
G01 X77.31932 Y140.34916
G01 X77.15976 Y140.46577
G01 X77.02712 Y140.61228
G01 X76.91275 Y140.81037
G01 X76.85054 Y141.00885
G01 X76.83045 Y141.20545
G04 P0 ( dwell for no time -- G64 should not smooth over this point )
G00 Z5.00000 ( retract )

G00 X83.97080 Y136.39080 ( rapid move to begin. )
G01 F300.00000
G01 Z-0.14000
G04 P0 ( dwell for no time -- G64 should not smooth over this point )
G01 F600.00000
G01 X83.97080 Y136.39080
G01 X83.97080 Y140.20080
G01 X84.00008 Y140.27151
G01 X84.07080 Y140.30080
G01 X87.88080 Y140.30080
G01 X87.95151 Y140.27151
G01 X87.98080 Y140.20080
G01 X87.98080 Y136.39080
G01 X87.95151 Y136.32009
G01 X87.88080 Y136.29080
G01 X84.07080 Y136.29080
G01 X84.00008 Y136.32009
G01 X83.97080 Y136.39080
G04 P0 ( dwell for no time -- G64 should not smooth over this point )
G00 Z5.00000 ( retract )

G00 X84.07080 Y113.89082 ( rapid move to begin. )
G01 F300.00000
G01 Z-0.14000
G04 P0 ( dwell for no time -- G64 should not smooth over this point )
G01 F600.00000
G01 X84.07080 Y113.89082
G01 X84.07080 Y117.70082
G01 X84.10008 Y117.77151
G01 X84.17080 Y117.80082
G01 X87.98080 Y117.80082
G01 X88.05151 Y117.77151
G01 X88.08080 Y117.70082
G01 X88.08080 Y113.89082
G01 X88.05151 Y113.82011
G01 X87.98080 Y113.79082
G01 X84.17080 Y113.79082
G01 X84.10008 Y113.82011
G01 X84.07080 Y113.89082
G04 P0 ( dwell for no time -- G64 should not smooth over this point )
G00 Z5.00000 ( retract )

G00 X83.80890 Y100.92082 ( rapid move to begin. )
G01 F300.00000
G01 Z-0.14000
G04 P0 ( dwell for no time -- G64 should not smooth over this point )
G01 F600.00000
G01 X83.80890 Y100.92082
G01 X83.80946 Y101.08805
G01 X83.85015 Y101.27164
G01 X83.92437 Y101.43298
G01 X84.02312 Y101.56796
G01 X84.14705 Y101.68028
G01 X84.29973 Y101.77098
G01 X84.47806 Y101.83065
G01 X84.64433 Y101.84865
G01 X85.65479 Y101.84921
G01 X85.83152 Y101.83065
G01 X85.99073 Y101.77946
G01 X86.15441 Y101.68688
G01 X86.29304 Y101.55983
G01 X86.38522 Y101.43298
G01 X86.45944 Y101.27164
G01 X86.50013 Y101.08805
G01 X86.50013 Y100.91035
G01 X86.46320 Y100.73654
G01 X86.39566 Y100.58353
G01 X86.29304 Y100.43857
G01 X86.15441 Y100.31155
G01 X86.00983 Y100.22745
G01 X85.84163 Y100.17050
G01 X85.66523 Y100.14975
G01 X84.64433 Y100.14975
G01 X84.46795 Y100.17050
G01 X84.31883 Y100.21894
G01 X84.15518 Y100.31155
G01 X84.01652 Y100.43857
G01 X83.92437 Y100.56542
G01 X83.85015 Y100.72676
G01 X83.80890 Y100.92082
G04 P0 ( dwell for no time -- G64 should not smooth over this point )
G00 Z5.00000 ( retract )

G00 X83.80890 Y98.38082 ( rapid move to begin. )
G01 F300.00000
G01 Z-0.14000
G04 P0 ( dwell for no time -- G64 should not smooth over this point )
G01 F600.00000
G01 X83.80890 Y98.38082
G01 X83.80946 Y98.54805
G01 X83.85015 Y98.73164
G01 X83.92437 Y98.89298
G01 X84.02312 Y99.02796
G01 X84.16394 Y99.15257
G01 X84.30907 Y99.23573
G01 X84.46795 Y99.28793
G01 X84.64433 Y99.30865
G01 X85.66523 Y99.30865
G01 X85.84163 Y99.28793
G01 X86.00051 Y99.23573
G01 X86.16254 Y99.14028
G01 X86.28646 Y99.02796
G01 X86.38522 Y98.89298
G01 X86.46320 Y98.72186
G01 X86.50013 Y98.54805
G01 X86.50013 Y98.37035
G01 X86.46320 Y98.19654
G01 X86.38522 Y98.02542
G01 X86.28646 Y97.89045
G01 X86.14562 Y97.76583
G01 X86.00051 Y97.68270
G01 X85.84163 Y97.63050
G01 X85.66523 Y97.60975
G01 X84.64433 Y97.60975
G01 X84.46795 Y97.63050
G01 X84.30907 Y97.68270
G01 X84.14705 Y97.77813
G01 X84.02312 Y97.89045
G01 X83.92437 Y98.02542
G01 X83.84367 Y98.20665
G01 X83.80890 Y98.38082
G04 P0 ( dwell for no time -- G64 should not smooth over this point )
G00 Z5.00000 ( retract )

G00 X83.80890 Y95.84082 ( rapid move to begin. )
G01 F300.00000
G01 Z-0.14000
G04 P0 ( dwell for no time -- G64 should not smooth over this point )
G01 F600.00000
G01 X83.80890 Y95.84082
G01 X83.81108 Y96.01839
G01 X83.85015 Y96.19164
G01 X83.92437 Y96.35298
G01 X84.02312 Y96.48796
G01 X84.16394 Y96.61257
G01 X84.30907 Y96.69573
G01 X84.46795 Y96.74793
G01 X84.64433 Y96.76865
G01 X85.66523 Y96.76865
G01 X85.84163 Y96.74793
G01 X86.00051 Y96.69573
G01 X86.16254 Y96.60028
G01 X86.28646 Y96.48796
G01 X86.38522 Y96.35298
G01 X86.46320 Y96.18186
G01 X86.50069 Y95.99761
G01 X86.49850 Y95.82002
G01 X86.46320 Y95.65654
G01 X86.39566 Y95.50353
G01 X86.29304 Y95.35857
G01 X86.15441 Y95.23155
G01 X86.00051 Y95.14270
G01 X85.84163 Y95.09050
G01 X85.66523 Y95.06975
G01 X84.64433 Y95.06975
G01 X84.46795 Y95.09050
G01 X84.30907 Y95.14270
G01 X84.14705 Y95.23813
G01 X84.01652 Y95.35857
G01 X83.92437 Y95.48542
G01 X83.84367 Y95.66665
G01 X83.80890 Y95.84082
G04 P0 ( dwell for no time -- G64 should not smooth over this point )
G00 Z5.00000 ( retract )

G00 X75.45634 Y100.81536 ( rapid move to begin. )
G01 F300.00000
G01 Z-0.14000
G04 P0 ( dwell for no time -- G64 should not smooth over this point )
G01 F600.00000
G01 X75.45634 Y100.81536
G01 X75.48252 Y100.58699
G01 X75.55090 Y100.37840
G01 X75.66586 Y100.17924
G01 X75.81973 Y100.00835
G01 X76.01511 Y99.86842
G01 X76.21587 Y99.77965
G01 X76.43048 Y99.73347
G01 X76.66032 Y99.73129
G01 X76.89570 Y99.77965
G01 X77.09646 Y99.86842
G01 X77.29923 Y100.01574
G01 X77.44571 Y100.17924
G01 X77.56443 Y100.38818
G01 X77.63174 Y100.59709
G01 X77.65524 Y100.83626
G01 X77.63174 Y101.05452
G01 X77.56443 Y101.26344
G01 X77.44571 Y101.47238
G01 X77.29923 Y101.63588
G01 X77.11457 Y101.77273
G01 X76.89570 Y101.87197
G01 X76.68110 Y101.91815
G01 X76.45125 Y101.92033
G01 X76.21587 Y101.87197
G01 X76.01511 Y101.78320
G01 X75.81234 Y101.63588
G01 X75.66017 Y101.46359
G01 X75.55090 Y101.27322
G01 X75.47818 Y101.04419
G01 X75.45634 Y100.81536
G04 P0 ( dwell for no time -- G64 should not smooth over this point )
G00 Z5.00000 ( retract )

G00 X67.83578 Y98.28580 ( rapid move to begin. )
G01 F300.00000
G01 Z-0.14000
G04 P0 ( dwell for no time -- G64 should not smooth over this point )
G01 F600.00000
G01 X67.83578 Y98.28580
G01 X67.85983 Y98.51452
G01 X67.92714 Y98.72344
G01 X68.04586 Y98.93238
G01 X68.19234 Y99.09588
G01 X68.39511 Y99.24320
G01 X68.60598 Y99.33469
G01 X68.83125 Y99.38033
G01 X69.05076 Y99.37977
G01 X69.28548 Y99.32821
G01 X69.49457 Y99.23273
G01 X69.67184 Y99.10327
G01 X69.82571 Y98.93238
G01 X69.94067 Y98.73322
G01 X70.00905 Y98.52463
G01 X70.03580 Y98.28580
G01 X70.00905 Y98.04699
G01 X69.94067 Y97.83840
G01 X69.82571 Y97.63924
G01 X69.67923 Y97.47574
G01 X69.47646 Y97.32842
G01 X69.26559 Y97.23693
G01 X69.04032 Y97.19129
G01 X68.82081 Y97.19184
G01 X68.58609 Y97.24341
G01 X68.37700 Y97.33888
G01 X68.19234 Y97.47574
G01 X68.04586 Y97.63924
G01 X67.92714 Y97.84818
G01 X67.85983 Y98.05709
G01 X67.83578 Y98.28580
G04 P0 ( dwell for no time -- G64 should not smooth over this point )
G00 Z5.00000 ( retract )

G00 X67.83578 Y88.12580 ( rapid move to begin. )
G01 F300.00000
G01 Z-0.14000
G04 P0 ( dwell for no time -- G64 should not smooth over this point )
G01 F600.00000
G01 X67.83578 Y88.12580
G01 X67.85983 Y88.35452
G01 X67.92714 Y88.56344
G01 X68.04017 Y88.76359
G01 X68.19234 Y88.93588
G01 X68.39511 Y89.08320
G01 X68.60598 Y89.17469
G01 X68.83125 Y89.22033
G01 X69.05076 Y89.21977
G01 X69.28548 Y89.16821
G01 X69.49457 Y89.07273
G01 X69.67184 Y88.94327
G01 X69.83140 Y88.76359
G01 X69.94067 Y88.57322
G01 X70.00905 Y88.36463
G01 X70.03580 Y88.12580
G01 X70.00905 Y87.88699
G01 X69.94067 Y87.67840
G01 X69.83140 Y87.48803
G01 X69.67923 Y87.31574
G01 X69.47646 Y87.16842
G01 X69.26559 Y87.07693
G01 X69.04032 Y87.03129
G01 X68.82081 Y87.03184
G01 X68.58609 Y87.08341
G01 X68.37700 Y87.17888
G01 X68.19973 Y87.30835
G01 X68.04017 Y87.48803
G01 X67.92714 Y87.68818
G01 X67.85983 Y87.89709
G01 X67.83578 Y88.12580
G04 P0 ( dwell for no time -- G64 should not smooth over this point )
G00 Z5.00000 ( retract )

G00 X75.45578 Y90.66580 ( rapid move to begin. )
G01 F300.00000
G01 Z-0.14000
G04 P0 ( dwell for no time -- G64 should not smooth over this point )
G01 F600.00000
G01 X75.45578 Y90.66580
G01 X75.48252 Y90.90463
G01 X75.55090 Y91.11322
G01 X75.66017 Y91.30359
G01 X75.81234 Y91.47588
G01 X76.01511 Y91.62320
G01 X76.22598 Y91.71469
G01 X76.45125 Y91.76033
G01 X76.67076 Y91.75977
G01 X76.90548 Y91.70821
G01 X77.11457 Y91.61273
G01 X77.29923 Y91.47588
G01 X77.44571 Y91.31238
G01 X77.56443 Y91.10344
G01 X77.63339 Y90.88419
G01 X77.65580 Y90.66580
G01 X77.63339 Y90.44743
G01 X77.56443 Y90.22818
G01 X77.44571 Y90.01924
G01 X77.29923 Y89.85574
G01 X77.09646 Y89.70842
G01 X76.88559 Y89.61693
G01 X76.66032 Y89.57129
G01 X76.44081 Y89.57184
G01 X76.20609 Y89.62341
G01 X75.99700 Y89.71888
G01 X75.81973 Y89.84835
G01 X75.66017 Y90.02803
G01 X75.55090 Y90.21840
G01 X75.48252 Y90.42699
G01 X75.45578 Y90.66580
G04 P0 ( dwell for no time -- G64 should not smooth over this point )
G00 Z5.00000 ( retract )

G00 X83.80890 Y83.14082 ( rapid move to begin. )
G01 F300.00000
G01 Z-0.14000
G04 P0 ( dwell for no time -- G64 should not smooth over this point )
G01 F600.00000
G01 X83.80890 Y83.14082
G01 X83.84367 Y82.96665
G01 X83.92437 Y82.78542
G01 X84.01652 Y82.65857
G01 X84.14705 Y82.53813
G01 X84.30907 Y82.44270
G01 X84.46795 Y82.39050
G01 X84.64433 Y82.36975
G01 X85.66523 Y82.36975
G01 X85.84163 Y82.39050
G01 X86.00051 Y82.44270
G01 X86.15441 Y82.53155
G01 X86.29304 Y82.65857
G01 X86.39566 Y82.80353
G01 X86.46320 Y82.95654
G01 X86.49850 Y83.12002
G01 X86.50069 Y83.29761
G01 X86.46320 Y83.48186
G01 X86.38522 Y83.65298
G01 X86.28646 Y83.78796
G01 X86.16254 Y83.90028
G01 X86.00051 Y83.99573
G01 X85.84163 Y84.04793
G01 X85.66523 Y84.06865
G01 X84.64433 Y84.06865
G01 X84.46795 Y84.04793
G01 X84.30907 Y83.99573
G01 X84.16394 Y83.91257
G01 X84.02312 Y83.78796
G01 X83.92437 Y83.65298
G01 X83.85015 Y83.49164
G01 X83.81108 Y83.31839
G01 X83.80890 Y83.14082
G04 P0 ( dwell for no time -- G64 should not smooth over this point )
G00 Z5.00000 ( retract )

G00 X83.80890 Y85.68082 ( rapid move to begin. )
G01 F300.00000
G01 Z-0.14000
G04 P0 ( dwell for no time -- G64 should not smooth over this point )
G01 F600.00000
G01 X83.80890 Y85.68082
G01 X83.84367 Y85.50665
G01 X83.92437 Y85.32542
G01 X84.02312 Y85.19045
G01 X84.14705 Y85.07813
G01 X84.30907 Y84.98270
G01 X84.46795 Y84.93050
G01 X84.64433 Y84.90975
G01 X85.66523 Y84.90975
G01 X85.84163 Y84.93050
G01 X86.00051 Y84.98270
G01 X86.14562 Y85.06583
G01 X86.28646 Y85.19045
G01 X86.38522 Y85.32542
G01 X86.46320 Y85.49654
G01 X86.49850 Y85.66002
G01 X86.50069 Y85.83761
G01 X86.46320 Y86.02186
G01 X86.38522 Y86.19298
G01 X86.28646 Y86.32796
G01 X86.16254 Y86.44028
G01 X86.00051 Y86.53573
G01 X85.84163 Y86.58793
G01 X85.66523 Y86.60865
G01 X84.64433 Y86.60865
G01 X84.46795 Y86.58793
G01 X84.30907 Y86.53573
G01 X84.16394 Y86.45257
G01 X84.02312 Y86.32796
G01 X83.92437 Y86.19298
G01 X83.84639 Y86.02186
G01 X83.81108 Y85.85839
G01 X83.80890 Y85.68082
G04 P0 ( dwell for no time -- G64 should not smooth over this point )
G00 Z5.00000 ( retract )

G00 X83.80890 Y88.22082 ( rapid move to begin. )
G01 F300.00000
G01 Z-0.14000
G04 P0 ( dwell for no time -- G64 should not smooth over this point )
G01 F600.00000
G01 X83.80890 Y88.22082
G01 X83.84367 Y88.04665
G01 X83.92437 Y87.86542
G01 X84.02312 Y87.73045
G01 X84.14705 Y87.61813
G01 X84.30907 Y87.52270
G01 X84.46795 Y87.47050
G01 X84.64433 Y87.44975
G01 X85.66523 Y87.44975
G01 X85.84163 Y87.47050
G01 X86.00051 Y87.52270
G01 X86.14562 Y87.60583
G01 X86.28646 Y87.73045
G01 X86.38522 Y87.86542
G01 X86.46320 Y88.03654
G01 X86.49850 Y88.20002
G01 X86.50069 Y88.37761
G01 X86.46320 Y88.56186
G01 X86.38522 Y88.73298
G01 X86.28646 Y88.86796
G01 X86.16254 Y88.98028
G01 X86.00051 Y89.07573
G01 X85.84163 Y89.12793
G01 X85.66523 Y89.14865
G01 X84.64433 Y89.14865
G01 X84.46795 Y89.12793
G01 X84.30907 Y89.07573
G01 X84.16394 Y88.99257
G01 X84.02312 Y88.86796
G01 X83.92437 Y88.73298
G01 X83.84639 Y88.56186
G01 X83.81108 Y88.39839
G01 X83.80890 Y88.22082
G04 P0 ( dwell for no time -- G64 should not smooth over this point )
G00 Z5.00000 ( retract )

G00 X83.80890 Y90.76082 ( rapid move to begin. )
G01 F300.00000
G01 Z-0.14000
G04 P0 ( dwell for no time -- G64 should not smooth over this point )
G01 F600.00000
G01 X83.80890 Y90.76082
G01 X83.84367 Y90.58665
G01 X83.92437 Y90.40542
G01 X84.02312 Y90.27045
G01 X84.14705 Y90.15813
G01 X84.30907 Y90.06270
G01 X84.46795 Y90.01050
G01 X84.64433 Y89.98975
G01 X85.66523 Y89.98975
G01 X85.84163 Y90.01050
G01 X86.00051 Y90.06270
G01 X86.14562 Y90.14583
G01 X86.28646 Y90.27045
G01 X86.38522 Y90.40542
G01 X86.46320 Y90.57654
G01 X86.49850 Y90.74002
G01 X86.50069 Y90.91761
G01 X86.46320 Y91.10186
G01 X86.38522 Y91.27298
G01 X86.27905 Y91.41538
G01 X86.16254 Y91.52028
G01 X86.00051 Y91.61573
G01 X85.84163 Y91.66793
G01 X85.66523 Y91.68865
G01 X84.64433 Y91.68865
G01 X84.46795 Y91.66793
G01 X84.30907 Y91.61573
G01 X84.16394 Y91.53257
G01 X84.02312 Y91.40796
G01 X83.91868 Y91.26422
G01 X83.85015 Y91.11164
G01 X83.81108 Y90.93839
G01 X83.80890 Y90.76082
G04 P0 ( dwell for no time -- G64 should not smooth over this point )
G00 Z5.00000 ( retract )

G00 X83.80890 Y93.30082 ( rapid move to begin. )
G01 F300.00000
G01 Z-0.14000
G04 P0 ( dwell for no time -- G64 should not smooth over this point )
G01 F600.00000
G01 X83.80890 Y93.30082
G01 X83.84367 Y93.12665
G01 X83.92437 Y92.94542
G01 X84.01652 Y92.81857
G01 X84.14705 Y92.69813
G01 X84.30907 Y92.60270
G01 X84.46795 Y92.55050
G01 X84.64433 Y92.52975
G01 X85.66523 Y92.52975
G01 X85.84163 Y92.55050
G01 X86.00051 Y92.60270
G01 X86.15441 Y92.69155
G01 X86.29304 Y92.81857
G01 X86.39566 Y92.96353
G01 X86.46320 Y93.11654
G01 X86.49850 Y93.28002
G01 X86.50069 Y93.45761
G01 X86.46320 Y93.64186
G01 X86.38522 Y93.81298
G01 X86.28646 Y93.94796
G01 X86.16254 Y94.06028
G01 X86.00051 Y94.15573
G01 X85.84163 Y94.20793
G01 X85.66523 Y94.22865
G01 X84.64433 Y94.22865
G01 X84.46795 Y94.20793
G01 X84.30907 Y94.15573
G01 X84.16394 Y94.07257
G01 X84.02312 Y93.94796
G01 X83.92437 Y93.81298
G01 X83.85015 Y93.65164
G01 X83.81108 Y93.47839
G01 X83.80890 Y93.30082
G04 P0 ( dwell for no time -- G64 should not smooth over this point )
G00 Z5.00000 ( retract )

G00 X106.13933 Y110.01016 ( rapid move to begin. )
G01 F300.00000
G01 Z-0.14000
G04 P0 ( dwell for no time -- G64 should not smooth over this point )
G01 F600.00000
G01 X106.13933 Y110.01016
G01 X106.16283 Y110.24932
G01 X106.23014 Y110.45824
G01 X106.34886 Y110.66718
G01 X106.49534 Y110.83068
G01 X106.69811 Y110.97800
G01 X106.89887 Y111.06677
G01 X107.13425 Y111.11513
G01 X107.36409 Y111.11295
G01 X107.57870 Y111.06677
G01 X107.79757 Y110.96753
G01 X107.98223 Y110.83068
G01 X108.12871 Y110.66718
G01 X108.23895 Y110.47734
G01 X108.31474 Y110.24932
G01 X108.33824 Y110.03106
G01 X108.31474 Y109.79189
G01 X108.24743 Y109.58298
G01 X108.12871 Y109.37404
G01 X107.98223 Y109.21054
G01 X107.77946 Y109.06322
G01 X107.57870 Y108.97445
G01 X107.34332 Y108.92609
G01 X107.11347 Y108.92827
G01 X106.89887 Y108.97445
G01 X106.69811 Y109.06322
G01 X106.50276 Y109.20315
G01 X106.34886 Y109.37404
G01 X106.23865 Y109.56388
G01 X106.16283 Y109.79189
G01 X106.13933 Y110.01016
G04 P0 ( dwell for no time -- G64 should not smooth over this point )
G00 Z5.00000 ( retract )

G00 X130.97078 Y136.29080 ( rapid move to begin. )
G01 F300.00000
G01 Z-0.14000
G04 P0 ( dwell for no time -- G64 should not smooth over this point )
G01 F600.00000
G01 X130.97078 Y136.29080
G01 X130.97078 Y140.10080
G01 X131.00006 Y140.17151
G01 X131.07078 Y140.20080
G01 X134.88078 Y140.20080
G01 X134.95149 Y140.17151
G01 X134.98078 Y140.10080
G01 X134.98078 Y136.29080
G01 X134.95149 Y136.22009
G01 X134.88078 Y136.19080
G01 X131.07078 Y136.19080
G01 X131.00006 Y136.22009
G01 X130.97078 Y136.29080
G04 P0 ( dwell for no time -- G64 should not smooth over this point )
G00 Z5.00000 ( retract )

G00 X116.29880 Y110.02060 ( rapid move to begin. )
G01 F300.00000
G01 Z-0.14000
G04 P0 ( dwell for no time -- G64 should not smooth over this point )
G01 F600.00000
G01 X116.29880 Y110.02060
G01 X116.32118 Y110.23899
G01 X116.39390 Y110.46802
G01 X116.50317 Y110.65839
G01 X116.65534 Y110.83068
G01 X116.85811 Y110.97800
G01 X117.05887 Y111.06677
G01 X117.29425 Y111.11513
G01 X117.52409 Y111.11295
G01 X117.73870 Y111.06677
G01 X117.94878 Y110.97325
G01 X118.14223 Y110.83068
G01 X118.29440 Y110.65839
G01 X118.40370 Y110.46802
G01 X118.47205 Y110.25943
G01 X118.49879 Y110.02060
G01 X118.47205 Y109.78179
G01 X118.40370 Y109.57320
G01 X118.29440 Y109.38283
G01 X118.14223 Y109.21054
G01 X117.93946 Y109.06322
G01 X117.73870 Y108.97445
G01 X117.50332 Y108.92609
G01 X117.27347 Y108.92827
G01 X117.05887 Y108.97445
G01 X116.84879 Y109.06797
G01 X116.65534 Y109.21054
G01 X116.50317 Y109.38283
G01 X116.39390 Y109.57320
G01 X116.32118 Y109.80223
G01 X116.29880 Y110.02060
G04 P0 ( dwell for no time -- G64 should not smooth over this point )
G00 Z5.00000 ( retract )

G00 X126.25634 Y107.16536 ( rapid move to begin. )
G01 F300.00000
G01 Z-0.14000
G04 P0 ( dwell for no time -- G64 should not smooth over this point )
G01 F600.00000
G01 X126.25634 Y107.16536
G01 X126.27983 Y107.40452
G01 X126.34714 Y107.61344
G01 X126.46586 Y107.82238
G01 X126.61234 Y107.98588
G01 X126.81511 Y108.13320
G01 X127.01587 Y108.22197
G01 X127.25125 Y108.27033
G01 X127.48110 Y108.26815
G01 X127.69570 Y108.22197
G01 X127.89646 Y108.13320
G01 X128.09184 Y107.99327
G01 X128.25140 Y107.81359
G01 X128.36067 Y107.62322
G01 X128.43174 Y107.40452
G01 X128.45524 Y107.18626
G01 X128.43174 Y106.94709
G01 X128.36067 Y106.72840
G01 X128.25140 Y106.53803
G01 X128.09923 Y106.36574
G01 X127.89646 Y106.21842
G01 X127.69570 Y106.12965
G01 X127.46032 Y106.08129
G01 X127.23048 Y106.08347
G01 X127.01587 Y106.12965
G01 X126.81511 Y106.21842
G01 X126.61973 Y106.35835
G01 X126.46586 Y106.52924
G01 X126.35565 Y106.71908
G01 X126.27983 Y106.94709
G01 X126.25634 Y107.16536
G04 P0 ( dwell for no time -- G64 should not smooth over this point )
G00 Z5.00000 ( retract )

G00 X130.97078 Y113.99082 ( rapid move to begin. )
G01 F300.00000
G01 Z-0.14000
G04 P0 ( dwell for no time -- G64 should not smooth over this point )
G01 F600.00000
G01 X130.97078 Y113.99082
G01 X130.97078 Y117.80082
G01 X131.00006 Y117.87151
G01 X131.07078 Y117.90082
G01 X134.88078 Y117.90082
G01 X134.95149 Y117.87151
G01 X134.98078 Y117.80082
G01 X134.98078 Y113.99082
G01 X134.95149 Y113.92011
G01 X134.88078 Y113.89082
G01 X131.07078 Y113.89082
G01 X131.00006 Y113.92011
G01 X130.97078 Y113.99082
G04 P0 ( dwell for no time -- G64 should not smooth over this point )
G00 Z5.00000 ( retract )

G00 X133.27634 Y108.43536 ( rapid move to begin. )
G01 F300.00000
G01 Z-0.14000
G04 P0 ( dwell for no time -- G64 should not smooth over this point )
G01 F600.00000
G01 X133.27634 Y108.43536
G01 X133.31294 Y108.79926
G01 X133.41901 Y109.12748
G01 X133.60704 Y109.45319
G01 X133.83826 Y109.70917
G01 X134.13511 Y109.92281
G01 X134.45045 Y110.06261
G01 X134.80854 Y110.13706
G01 X135.16384 Y110.13487
G01 X135.50112 Y110.06261
G01 X135.81646 Y109.92281
G01 X136.11331 Y109.70917
G01 X136.34453 Y109.45319
G01 X136.52406 Y109.14658
G01 X136.63864 Y108.79926
G01 X136.67524 Y108.45626
G01 X136.63864 Y108.09236
G01 X136.53257 Y107.76414
G01 X136.34453 Y107.43843
G01 X136.11331 Y107.18245
G01 X135.81646 Y106.96881
G01 X135.50112 Y106.82901
G01 X135.14303 Y106.75456
G01 X134.78774 Y106.75675
G01 X134.45045 Y106.82901
G01 X134.13511 Y106.96881
G01 X133.83826 Y107.18245
G01 X133.60704 Y107.43843
G01 X133.42752 Y107.74504
G01 X133.31294 Y108.09236
G01 X133.27634 Y108.43536
G04 P0 ( dwell for no time -- G64 should not smooth over this point )
G00 Z5.00000 ( retract )

G00 X133.27578 Y91.60580 ( rapid move to begin. )
G01 F300.00000
G01 Z-0.14000
G04 P0 ( dwell for no time -- G64 should not smooth over this point )
G01 F600.00000
G01 X133.27578 Y91.60580
G01 X133.30506 Y91.53509
G01 X133.37578 Y91.50580
G01 X136.57580 Y91.50580
G01 X136.64651 Y91.53509
G01 X136.67580 Y91.60580
G01 X136.67580 Y94.80582
G01 X136.64651 Y94.87653
G01 X136.57580 Y94.90582
G01 X133.37578 Y94.90582
G01 X133.30506 Y94.87653
G01 X133.27578 Y94.80582
G01 X133.27578 Y91.60580
G04 P0 ( dwell for no time -- G64 should not smooth over this point )
G00 Z5.00000 ( retract )

G00 X133.27578 Y86.52580 ( rapid move to begin. )
G01 F300.00000
G01 Z-0.14000
G04 P0 ( dwell for no time -- G64 should not smooth over this point )
G01 F600.00000
G01 X133.27578 Y86.52580
G01 X133.30506 Y86.45509
G01 X133.37578 Y86.42580
G01 X136.57580 Y86.42580
G01 X136.64651 Y86.45509
G01 X136.67580 Y86.52580
G01 X136.67580 Y89.72582
G01 X136.64651 Y89.79653
G01 X136.57580 Y89.82582
G01 X133.37578 Y89.82582
G01 X133.30506 Y89.79653
G01 X133.27578 Y89.72582
G01 X133.27578 Y86.52580
G04 P0 ( dwell for no time -- G64 should not smooth over this point )
G00 Z5.00000 ( retract )

G00 X133.27634 Y72.87536 ( rapid move to begin. )
G01 F300.00000
G01 Z-0.14000
G04 P0 ( dwell for no time -- G64 should not smooth over this point )
G01 F600.00000
G01 X133.27634 Y72.87536
G01 X133.31294 Y72.53236
G01 X133.42752 Y72.18504
G01 X133.60704 Y71.87843
G01 X133.83826 Y71.62245
G01 X134.13511 Y71.40881
G01 X134.45045 Y71.26901
G01 X134.78774 Y71.19675
G01 X135.14303 Y71.19456
G01 X135.50112 Y71.26901
G01 X135.81646 Y71.40881
G01 X136.11331 Y71.62245
G01 X136.34453 Y71.87843
G01 X136.53257 Y72.20414
G01 X136.63864 Y72.53236
G01 X136.67524 Y72.89626
G01 X136.63864 Y73.23926
G01 X136.52406 Y73.58658
G01 X136.34453 Y73.89319
G01 X136.11331 Y74.14917
G01 X135.82579 Y74.35806
G01 X135.50112 Y74.50261
G01 X135.16384 Y74.57487
G01 X134.80854 Y74.57706
G01 X134.45045 Y74.50261
G01 X134.13511 Y74.36281
G01 X133.83826 Y74.14917
G01 X133.60704 Y73.89319
G01 X133.41901 Y73.56748
G01 X133.31294 Y73.23926
G01 X133.27634 Y72.87536
G04 P0 ( dwell for no time -- G64 should not smooth over this point )
G00 Z5.00000 ( retract )

G00 X126.25634 Y72.87536 ( rapid move to begin. )
G01 F300.00000
G01 Z-0.14000
G04 P0 ( dwell for no time -- G64 should not smooth over this point )
G01 F600.00000
G01 X126.25634 Y72.87536
G01 X126.27983 Y72.65709
G01 X126.35565 Y72.42908
G01 X126.46586 Y72.23924
G01 X126.61973 Y72.06835
G01 X126.81511 Y71.92842
G01 X127.01587 Y71.83965
G01 X127.23048 Y71.79347
G01 X127.46032 Y71.79129
G01 X127.69570 Y71.83965
G01 X127.89646 Y71.92842
G01 X128.09923 Y72.07574
G01 X128.25140 Y72.24803
G01 X128.36067 Y72.43840
G01 X128.43339 Y72.66743
G01 X128.45524 Y72.89626
G01 X128.43174 Y73.11452
G01 X128.35592 Y73.34254
G01 X128.23911 Y73.54051
G01 X128.09184 Y73.70327
G01 X127.89646 Y73.84320
G01 X127.69570 Y73.93197
G01 X127.48110 Y73.97815
G01 X127.25125 Y73.98033
G01 X127.01587 Y73.93197
G01 X126.81511 Y73.84320
G01 X126.61234 Y73.69588
G01 X126.46586 Y73.53238
G01 X126.34714 Y73.32344
G01 X126.27983 Y73.11452
G01 X126.25634 Y72.87536
G04 P0 ( dwell for no time -- G64 should not smooth over this point )
G00 Z5.00000 ( retract )

G00 X126.25634 Y88.11536 ( rapid move to begin. )
G01 F300.00000
G01 Z-0.14000
G04 P0 ( dwell for no time -- G64 should not smooth over this point )
G01 F600.00000
G01 X126.25634 Y88.11536
G01 X126.27983 Y87.89709
G01 X126.35565 Y87.66908
G01 X126.46586 Y87.47924
G01 X126.61973 Y87.30835
G01 X126.81511 Y87.16842
G01 X127.01587 Y87.07965
G01 X127.23048 Y87.03347
G01 X127.46032 Y87.03129
G01 X127.69570 Y87.07965
G01 X127.89646 Y87.16842
G01 X128.09923 Y87.31574
G01 X128.25140 Y87.48803
G01 X128.36443 Y87.68818
G01 X128.43174 Y87.89709
G01 X128.45524 Y88.13626
G01 X128.43174 Y88.35452
G01 X128.35592 Y88.58254
G01 X128.23911 Y88.78051
G01 X128.09184 Y88.94327
G01 X127.89646 Y89.08320
G01 X127.69570 Y89.17197
G01 X127.48110 Y89.21815
G01 X127.25125 Y89.22033
G01 X127.01587 Y89.17197
G01 X126.81511 Y89.08320
G01 X126.61234 Y88.93588
G01 X126.46586 Y88.77238
G01 X126.34714 Y88.56344
G01 X126.27983 Y88.35452
G01 X126.25634 Y88.11536
G04 P0 ( dwell for no time -- G64 should not smooth over this point )
G00 Z5.00000 ( retract )

G00 X126.25634 Y91.92536 ( rapid move to begin. )
G01 F300.00000
G01 Z-0.14000
G04 P0 ( dwell for no time -- G64 should not smooth over this point )
G01 F600.00000
G01 X126.25634 Y91.92536
G01 X126.27983 Y91.70709
G01 X126.35565 Y91.47908
G01 X126.46586 Y91.28924
G01 X126.61973 Y91.11835
G01 X126.81511 Y90.97842
G01 X127.01587 Y90.88965
G01 X127.23048 Y90.84347
G01 X127.46032 Y90.84129
G01 X127.69570 Y90.88965
G01 X127.89646 Y90.97842
G01 X128.09923 Y91.12574
G01 X128.25140 Y91.29803
G01 X128.36067 Y91.48840
G01 X128.43339 Y91.71743
G01 X128.45524 Y91.94626
G01 X128.43174 Y92.16452
G01 X128.35592 Y92.39254
G01 X128.23911 Y92.59051
G01 X128.09184 Y92.75327
G01 X127.89646 Y92.89320
G01 X127.69570 Y92.98197
G01 X127.48110 Y93.02815
G01 X127.25125 Y93.03033
G01 X127.01587 Y92.98197
G01 X126.81511 Y92.89320
G01 X126.61234 Y92.74588
G01 X126.46586 Y92.58238
G01 X126.34714 Y92.37344
G01 X126.27983 Y92.16452
G01 X126.25634 Y91.92536
G04 P0 ( dwell for no time -- G64 should not smooth over this point )
G00 Z5.00000 ( retract )

G00 X117.70891 Y98.38082 ( rapid move to begin. )
G01 F300.00000
G01 Z-0.14000
G04 P0 ( dwell for no time -- G64 should not smooth over this point )
G01 F600.00000
G01 X117.70891 Y98.38082
G01 X117.75013 Y98.18676
G01 X117.81866 Y98.03421
G01 X117.91652 Y97.89857
G01 X118.05516 Y97.77155
G01 X118.21884 Y97.67894
G01 X118.36796 Y97.63050
G01 X118.54434 Y97.60975
G01 X119.56524 Y97.60975
G01 X119.74162 Y97.63050
G01 X119.90984 Y97.68745
G01 X120.05439 Y97.77155
G01 X120.19305 Y97.89857
G01 X120.29567 Y98.04353
G01 X120.36318 Y98.19654
G01 X120.39849 Y98.36002
G01 X120.40067 Y98.53761
G01 X120.35945 Y98.73164
G01 X120.29567 Y98.87487
G01 X120.19305 Y99.01983
G01 X120.05439 Y99.14688
G01 X119.89074 Y99.23946
G01 X119.72117 Y99.29227
G01 X119.55480 Y99.30921
G01 X118.54434 Y99.30865
G01 X118.36796 Y99.28793
G01 X118.19973 Y99.23098
G01 X118.05516 Y99.14688
G01 X117.93052 Y99.03538
G01 X117.81866 Y98.88422
G01 X117.75013 Y98.73164
G01 X117.70944 Y98.54805
G01 X117.70891 Y98.38082
G04 P0 ( dwell for no time -- G64 should not smooth over this point )
G00 Z5.00000 ( retract )

G00 X117.70891 Y95.84082 ( rapid move to begin. )
G01 F300.00000
G01 Z-0.14000
G04 P0 ( dwell for no time -- G64 should not smooth over this point )
G01 F600.00000
G01 X117.70891 Y95.84082
G01 X117.75013 Y95.64676
G01 X117.81866 Y95.49421
G01 X117.91652 Y95.35857
G01 X118.05516 Y95.23155
G01 X118.21884 Y95.13894
G01 X118.36796 Y95.09050
G01 X118.54434 Y95.06975
G01 X119.56524 Y95.06975
G01 X119.74162 Y95.09050
G01 X119.90984 Y95.14745
G01 X120.05439 Y95.23155
G01 X120.19305 Y95.35857
G01 X120.29567 Y95.50353
G01 X120.36318 Y95.65654
G01 X120.39849 Y95.82002
G01 X120.40067 Y95.99761
G01 X120.35945 Y96.19164
G01 X120.29567 Y96.33487
G01 X120.19305 Y96.47983
G01 X120.05439 Y96.60688
G01 X119.89074 Y96.69946
G01 X119.72117 Y96.75227
G01 X119.55480 Y96.76921
G01 X118.54434 Y96.76865
G01 X118.36796 Y96.74793
G01 X118.19973 Y96.69098
G01 X118.05516 Y96.60688
G01 X117.93052 Y96.49538
G01 X117.81866 Y96.34422
G01 X117.75013 Y96.19164
G01 X117.70944 Y96.00805
G01 X117.70891 Y95.84082
G04 P0 ( dwell for no time -- G64 should not smooth over this point )
G00 Z5.00000 ( retract )

G00 X117.70891 Y93.30082 ( rapid move to begin. )
G01 F300.00000
G01 Z-0.14000
G04 P0 ( dwell for no time -- G64 should not smooth over this point )
G01 F600.00000
G01 X117.70891 Y93.30082
G01 X117.75013 Y93.10676
G01 X117.81866 Y92.95421
G01 X117.91652 Y92.81857
G01 X118.05516 Y92.69155
G01 X118.21884 Y92.59894
G01 X118.36796 Y92.55050
G01 X118.54434 Y92.52975
G01 X119.56524 Y92.52975
G01 X119.74162 Y92.55050
G01 X119.90984 Y92.60745
G01 X120.05439 Y92.69155
G01 X120.19305 Y92.81857
G01 X120.29567 Y92.96353
G01 X120.36318 Y93.11654
G01 X120.39849 Y93.28002
G01 X120.40067 Y93.45761
G01 X120.35945 Y93.65164
G01 X120.29567 Y93.79487
G01 X120.19305 Y93.93983
G01 X120.05439 Y94.06688
G01 X119.89074 Y94.15946
G01 X119.72117 Y94.21227
G01 X119.55480 Y94.22921
G01 X118.54434 Y94.22865
G01 X118.36796 Y94.20793
G01 X118.19973 Y94.15098
G01 X118.05516 Y94.06688
G01 X117.93052 Y93.95538
G01 X117.81866 Y93.80422
G01 X117.75013 Y93.65164
G01 X117.70944 Y93.46805
G01 X117.70891 Y93.30082
G04 P0 ( dwell for no time -- G64 should not smooth over this point )
G00 Z5.00000 ( retract )

G00 X117.70891 Y90.76082 ( rapid move to begin. )
G01 F300.00000
G01 Z-0.14000
G04 P0 ( dwell for no time -- G64 should not smooth over this point )
G01 F600.00000
G01 X117.70891 Y90.76082
G01 X117.75013 Y90.56676
G01 X117.81866 Y90.41421
G01 X117.91652 Y90.27857
G01 X118.05516 Y90.15155
G01 X118.21884 Y90.05894
G01 X118.36796 Y90.01050
G01 X118.54434 Y89.98975
G01 X119.56524 Y89.98975
G01 X119.74162 Y90.01050
G01 X119.90984 Y90.06745
G01 X120.05439 Y90.15155
G01 X120.19305 Y90.27857
G01 X120.29567 Y90.42353
G01 X120.36318 Y90.57654
G01 X120.39849 Y90.74002
G01 X120.40067 Y90.91761
G01 X120.35945 Y91.11164
G01 X120.29567 Y91.25487
G01 X120.19305 Y91.39983
G01 X120.05439 Y91.52688
G01 X119.89074 Y91.61946
G01 X119.72117 Y91.67227
G01 X119.55480 Y91.68921
G01 X118.54434 Y91.68865
G01 X118.36796 Y91.66793
G01 X118.19973 Y91.61098
G01 X118.05516 Y91.52688
G01 X117.93052 Y91.41538
G01 X117.81866 Y91.26422
G01 X117.75013 Y91.11164
G01 X117.70944 Y90.92805
G01 X117.70891 Y90.76082
G04 P0 ( dwell for no time -- G64 should not smooth over this point )
G00 Z5.00000 ( retract )

G00 X117.70891 Y88.22082 ( rapid move to begin. )
G01 F300.00000
G01 Z-0.14000
G04 P0 ( dwell for no time -- G64 should not smooth over this point )
G01 F600.00000
G01 X117.70891 Y88.22082
G01 X117.75013 Y88.02676
G01 X117.81866 Y87.87421
G01 X117.91652 Y87.73857
G01 X118.05516 Y87.61155
G01 X118.21884 Y87.51894
G01 X118.36796 Y87.47050
G01 X118.54434 Y87.44975
G01 X119.56524 Y87.44975
G01 X119.74162 Y87.47050
G01 X119.90984 Y87.52745
G01 X120.05439 Y87.61155
G01 X120.19305 Y87.73857
G01 X120.29567 Y87.88353
G01 X120.36318 Y88.03654
G01 X120.39849 Y88.20002
G01 X120.40067 Y88.37761
G01 X120.35945 Y88.57164
G01 X120.29567 Y88.71487
G01 X120.19305 Y88.85983
G01 X120.05439 Y88.98688
G01 X119.89074 Y89.07946
G01 X119.72117 Y89.13227
G01 X119.55480 Y89.14921
G01 X118.54434 Y89.14865
G01 X118.36796 Y89.12793
G01 X118.19973 Y89.07098
G01 X118.05516 Y88.98688
G01 X117.93052 Y88.87538
G01 X117.82437 Y88.73298
G01 X117.75013 Y88.57164
G01 X117.70944 Y88.38805
G01 X117.70891 Y88.22082
G04 P0 ( dwell for no time -- G64 should not smooth over this point )
G00 Z5.00000 ( retract )

G00 X117.70891 Y85.68082 ( rapid move to begin. )
G01 F300.00000
G01 Z-0.14000
G04 P0 ( dwell for no time -- G64 should not smooth over this point )
G01 F600.00000
G01 X117.70891 Y85.68082
G01 X117.75013 Y85.48676
G01 X117.81866 Y85.33421
G01 X117.91652 Y85.19857
G01 X118.05516 Y85.07155
G01 X118.21884 Y84.97894
G01 X118.36796 Y84.93050
G01 X118.54434 Y84.90975
G01 X119.56524 Y84.90975
G01 X119.74162 Y84.93050
G01 X119.90984 Y84.98745
G01 X120.05439 Y85.07155
G01 X120.19305 Y85.19857
G01 X120.29567 Y85.34353
G01 X120.36318 Y85.49654
G01 X120.39849 Y85.66002
G01 X120.40067 Y85.83761
G01 X120.35945 Y86.03164
G01 X120.29567 Y86.17487
G01 X120.19305 Y86.31983
G01 X120.05439 Y86.44688
G01 X119.89074 Y86.53946
G01 X119.72117 Y86.59227
G01 X119.55480 Y86.60921
G01 X118.54434 Y86.60865
G01 X118.36796 Y86.58793
G01 X118.19973 Y86.53098
G01 X118.05516 Y86.44688
G01 X117.93052 Y86.33538
G01 X117.82437 Y86.19298
G01 X117.75013 Y86.03164
G01 X117.70944 Y85.84805
G01 X117.70891 Y85.68082
G04 P0 ( dwell for no time -- G64 should not smooth over this point )
G00 Z5.00000 ( retract )

G00 X97.71634 Y71.60536 ( rapid move to begin. )
G01 F300.00000
G01 Z-0.14000
G04 P0 ( dwell for no time -- G64 should not smooth over this point )
G01 F600.00000
G01 X97.71634 Y71.60536
G01 X97.75294 Y71.96926
G01 X97.85901 Y72.29748
G01 X98.04704 Y72.62319
G01 X98.27826 Y72.87917
G01 X98.57511 Y73.09281
G01 X98.90056 Y73.23533
G01 X99.24854 Y73.30706
G01 X99.60384 Y73.30487
G01 X99.94112 Y73.23261
G01 X100.25646 Y73.09281
G01 X100.55331 Y72.87917
G01 X100.78453 Y72.62319
G01 X100.96406 Y72.31658
G01 X101.07864 Y71.96926
G01 X101.11524 Y71.62626
G01 X101.07864 Y71.26236
G01 X100.97257 Y70.93414
G01 X100.78453 Y70.60843
G01 X100.54519 Y70.34587
G01 X100.26579 Y70.14356
G01 X99.94112 Y69.99901
G01 X99.58303 Y69.92456
G01 X99.22774 Y69.92675
G01 X98.89045 Y69.99901
G01 X98.57511 Y70.13881
G01 X98.27826 Y70.35245
G01 X98.04704 Y70.60843
G01 X97.86752 Y70.91504
G01 X97.75294 Y71.26236
G01 X97.71634 Y71.60536
G04 P0 ( dwell for no time -- G64 should not smooth over this point )
G00 Z5.00000 ( retract )

G00 X93.29679 Y62.59880 ( rapid move to begin. )
G01 F300.00000
G01 Z-0.14000
G04 P0 ( dwell for no time -- G64 should not smooth over this point )
G01 F600.00000
G01 X93.29679 Y62.59880
G01 X93.32082 Y62.37009
G01 X93.38813 Y62.16118
G01 X93.50687 Y61.95224
G01 X93.65335 Y61.78874
G01 X93.83801 Y61.65188
G01 X94.05686 Y61.55265
G01 X94.27146 Y61.50647
G01 X94.50131 Y61.50429
G01 X94.73671 Y61.55265
G01 X94.93745 Y61.64142
G01 X95.14024 Y61.78874
G01 X95.28670 Y61.95224
G01 X95.40544 Y62.16118
G01 X95.47275 Y62.37009
G01 X95.49625 Y62.60926
G01 X95.47275 Y62.82752
G01 X95.40544 Y63.03644
G01 X95.28670 Y63.24538
G01 X95.14024 Y63.40888
G01 X94.95556 Y63.54573
G01 X94.74647 Y63.64121
G01 X94.51177 Y63.69277
G01 X94.29226 Y63.69333
G01 X94.06699 Y63.64769
G01 X93.85612 Y63.55620
G01 X93.65335 Y63.40888
G01 X93.50687 Y63.24538
G01 X93.38813 Y63.03644
G01 X93.32082 Y62.82752
G01 X93.29679 Y62.59880
G04 P0 ( dwell for no time -- G64 should not smooth over this point )
G00 Z5.00000 ( retract )

G00 X89.42634 Y57.51537 ( rapid move to begin. )
G01 F300.00000
G01 Z-0.14000
G04 P0 ( dwell for no time -- G64 should not smooth over this point )
G01 F600.00000
G01 X89.42634 Y57.51537
G01 X89.45252 Y57.76462
G01 X89.52565 Y57.98255
G01 X89.64246 Y58.18052
G01 X89.79789 Y58.34986
G01 X89.98511 Y58.48318
G01 X90.19598 Y58.57467
G01 X90.42125 Y58.62032
G01 X90.64076 Y58.61978
G01 X90.87548 Y58.56822
G01 X91.08457 Y58.47274
G01 X91.26923 Y58.33586
G01 X91.41571 Y58.17236
G01 X91.53443 Y57.96345
G01 X91.60174 Y57.75451
G01 X91.62524 Y57.53627
G01 X91.60174 Y57.29711
G01 X91.53443 Y57.08816
G01 X91.41571 Y56.87925
G01 X91.26923 Y56.71575
G01 X91.08457 Y56.57889
G01 X90.87548 Y56.48339
G01 X90.63032 Y56.43130
G01 X90.41081 Y56.43183
G01 X90.17609 Y56.48339
G01 X89.96700 Y56.57889
G01 X89.78234 Y56.71575
G01 X89.63586 Y56.87925
G01 X89.51714 Y57.08816
G01 X89.44983 Y57.29711
G01 X89.42634 Y57.51537
G04 P0 ( dwell for no time -- G64 should not smooth over this point )
G00 Z5.00000 ( retract )

G00 X89.42634 Y50.01536 ( rapid move to begin. )
G01 F300.00000
G01 Z-0.14000
G04 P0 ( dwell for no time -- G64 should not smooth over this point )
G01 F600.00000
G01 X89.42634 Y50.01536
G01 X89.44983 Y50.25452
G01 X89.51714 Y50.46344
G01 X89.63017 Y50.66359
G01 X89.78234 Y50.83588
G01 X89.98511 Y50.98320
G01 X90.19598 Y51.07469
G01 X90.42125 Y51.12033
G01 X90.64076 Y51.11977
G01 X90.87548 Y51.06821
G01 X91.08457 Y50.97273
G01 X91.26184 Y50.84327
G01 X91.40911 Y50.68051
G01 X91.52592 Y50.48254
G01 X91.60174 Y50.25452
G01 X91.62524 Y50.03626
G01 X91.60174 Y49.79709
G01 X91.53443 Y49.58818
G01 X91.42140 Y49.38803
G01 X91.26923 Y49.21574
G01 X91.06646 Y49.06842
G01 X90.85559 Y48.97693
G01 X90.63032 Y48.93129
G01 X90.41081 Y48.93184
G01 X90.17609 Y48.98341
G01 X89.96700 Y49.07888
G01 X89.78973 Y49.20835
G01 X89.64246 Y49.37111
G01 X89.52565 Y49.56908
G01 X89.44983 Y49.79709
G01 X89.42634 Y50.01536
G04 P0 ( dwell for no time -- G64 should not smooth over this point )
G00 Z5.00000 ( retract )

G00 X89.42578 Y45.21580 ( rapid move to begin. )
G01 F300.00000
G01 Z-0.14000
G04 P0 ( dwell for no time -- G64 should not smooth over this point )
G01 F600.00000
G01 X89.42578 Y45.21580
G01 X89.42578 Y47.21582
G01 X89.45509 Y47.28651
G01 X89.52578 Y47.31582
G01 X91.52580 Y47.31582
G01 X91.59649 Y47.28651
G01 X91.62580 Y47.21582
G01 X91.62580 Y45.21580
G01 X91.59649 Y45.14511
G01 X91.52580 Y45.11580
G01 X89.52578 Y45.11580
G01 X89.45509 Y45.14511
G01 X89.42578 Y45.21580
G04 P0 ( dwell for no time -- G64 should not smooth over this point )
G00 Z5.00000 ( retract )

G00 X89.42578 Y38.59580 ( rapid move to begin. )
G01 F300.00000
G01 Z-0.14000
G04 P0 ( dwell for no time -- G64 should not smooth over this point )
G01 F600.00000
G01 X89.42578 Y38.59580
G01 X89.44983 Y38.36709
G01 X89.51714 Y38.15818
G01 X89.63586 Y37.94924
G01 X89.78234 Y37.78574
G01 X89.98511 Y37.63842
G01 X90.19598 Y37.54693
G01 X90.42125 Y37.50129
G01 X90.64076 Y37.50184
G01 X90.87548 Y37.55341
G01 X91.08457 Y37.64888
G01 X91.26923 Y37.78574
G01 X91.41571 Y37.94924
G01 X91.53443 Y38.15818
G01 X91.60339 Y38.37743
G01 X91.62580 Y38.59580
G01 X91.60339 Y38.81419
G01 X91.53443 Y39.03344
G01 X91.41571 Y39.24238
G01 X91.26923 Y39.40588
G01 X91.06646 Y39.55320
G01 X90.85559 Y39.64469
G01 X90.63032 Y39.69033
G01 X90.41081 Y39.68977
G01 X90.17609 Y39.63821
G01 X89.96700 Y39.54273
G01 X89.78234 Y39.40588
G01 X89.63586 Y39.24238
G01 X89.51714 Y39.03344
G01 X89.44983 Y38.82452
G01 X89.42578 Y38.59580
G04 P0 ( dwell for no time -- G64 should not smooth over this point )
G00 Z5.00000 ( retract )

G00 X94.50578 Y29.70580 ( rapid move to begin. )
G01 F300.00000
G01 Z-0.14000
G04 P0 ( dwell for no time -- G64 should not smooth over this point )
G01 F600.00000
G01 X94.50578 Y29.70580
G01 X94.52818 Y29.48743
G01 X94.59714 Y29.26818
G01 X94.71586 Y29.05924
G01 X94.86234 Y28.89574
G01 X95.06511 Y28.74842
G01 X95.27598 Y28.65693
G01 X95.50125 Y28.61129
G01 X95.72076 Y28.61184
G01 X95.95548 Y28.66341
G01 X96.16457 Y28.75888
G01 X96.34923 Y28.89574
G01 X96.49571 Y29.05924
G01 X96.61443 Y29.26818
G01 X96.68339 Y29.48743
G01 X96.70580 Y29.70580
G01 X96.68339 Y29.92419
G01 X96.61443 Y30.14344
G01 X96.49571 Y30.35238
G01 X96.34923 Y30.51588
G01 X96.14646 Y30.66320
G01 X95.93559 Y30.75469
G01 X95.71032 Y30.80033
G01 X95.49081 Y30.79977
G01 X95.25609 Y30.74821
G01 X95.04700 Y30.65273
G01 X94.86234 Y30.51588
G01 X94.71586 Y30.35238
G01 X94.59714 Y30.14344
G01 X94.52818 Y29.92419
G01 X94.50578 Y29.70580
G04 P0 ( dwell for no time -- G64 should not smooth over this point )
G00 Z5.00000 ( retract )

G00 X96.72978 Y22.56880 ( rapid move to begin. )
G01 F300.00000
G01 Z-0.14000
G04 P0 ( dwell for no time -- G64 should not smooth over this point )
G01 F600.00000
G01 X96.72978 Y22.56880
G01 X96.75436 Y22.32966
G01 X96.82978 Y22.09050
G01 X96.95896 Y21.86347
G01 X97.11944 Y21.68443
G01 X97.32980 Y21.52959
G01 X97.54920 Y21.43129
G01 X97.81481 Y21.37483
G01 X98.05522 Y21.37538
G01 X98.31039 Y21.43129
G01 X98.52980 Y21.52959
G01 X98.74013 Y21.68443
G01 X98.90061 Y21.86347
G01 X99.02980 Y22.09050
G01 X99.10521 Y22.32966
G01 X99.12980 Y22.56880
G01 X99.10087 Y22.82842
G01 X99.02604 Y23.05689
G01 X98.90061 Y23.27416
G01 X98.74013 Y23.45318
G01 X98.52045 Y23.61279
G01 X98.29050 Y23.71279
G01 X98.04476 Y23.76278
G01 X97.80435 Y23.76225
G01 X97.54920 Y23.70632
G01 X97.32101 Y23.60233
G01 X97.11944 Y23.45318
G01 X96.95896 Y23.27416
G01 X96.83353 Y23.05689
G01 X96.75436 Y22.80797
G01 X96.72978 Y22.56880
G04 P0 ( dwell for no time -- G64 should not smooth over this point )
G00 Z5.00000 ( retract )

G00 X99.26978 Y22.56880 ( rapid move to begin. )
G01 F300.00000
G01 Z-0.14000
G04 P0 ( dwell for no time -- G64 should not smooth over this point )
G01 F600.00000
G01 X99.26978 Y22.56880
G01 X99.29436 Y22.32966
G01 X99.36978 Y22.09050
G01 X99.49896 Y21.86347
G01 X99.65944 Y21.68443
G01 X99.86980 Y21.52959
G01 X100.08920 Y21.43129
G01 X100.35481 Y21.37483
G01 X100.59522 Y21.37538
G01 X100.85039 Y21.43129
G01 X101.06980 Y21.52959
G01 X101.28013 Y21.68443
G01 X101.44061 Y21.86347
G01 X101.56980 Y22.09050
G01 X101.64521 Y22.32966
G01 X101.66980 Y22.56880
G01 X101.64087 Y22.82842
G01 X101.56604 Y23.05689
G01 X101.44061 Y23.27416
G01 X101.28013 Y23.45318
G01 X101.06045 Y23.61279
G01 X100.83050 Y23.71279
G01 X100.58476 Y23.76278
G01 X100.34435 Y23.76225
G01 X100.08920 Y23.70632
G01 X99.86101 Y23.60233
G01 X99.65944 Y23.45318
G01 X99.49896 Y23.27416
G01 X99.37353 Y23.05689
G01 X99.29436 Y22.80797
G01 X99.26978 Y22.56880
G04 P0 ( dwell for no time -- G64 should not smooth over this point )
G00 Z5.00000 ( retract )

G00 X101.80978 Y21.46881 ( rapid move to begin. )
G01 F300.00000
G01 Z-0.14000
G04 P0 ( dwell for no time -- G64 should not smooth over this point )
G01 F600.00000
G01 X101.80978 Y21.46881
G01 X101.80978 Y23.66880
G01 X101.83909 Y23.73951
G01 X101.90978 Y23.76880
G01 X104.10980 Y23.76880
G01 X104.18051 Y23.73951
G01 X104.20980 Y23.66880
G01 X104.20980 Y21.46881
G01 X104.18051 Y21.39809
G01 X104.10980 Y21.36881
G01 X101.90978 Y21.36881
G01 X101.83909 Y21.39809
G01 X101.80978 Y21.46881
G04 P0 ( dwell for no time -- G64 should not smooth over this point )
G00 Z5.00000 ( retract )

G00 X104.66578 Y29.70580 ( rapid move to begin. )
G01 F300.00000
G01 Z-0.14000
G04 P0 ( dwell for no time -- G64 should not smooth over this point )
G01 F600.00000
G01 X104.66578 Y29.70580
G01 X104.68983 Y29.47709
G01 X104.75714 Y29.26818
G01 X104.87586 Y29.05924
G01 X105.02234 Y28.89574
G01 X105.22511 Y28.74842
G01 X105.43598 Y28.65693
G01 X105.66125 Y28.61129
G01 X105.88076 Y28.61184
G01 X106.11548 Y28.66341
G01 X106.32457 Y28.75888
G01 X106.50923 Y28.89574
G01 X106.65571 Y29.05924
G01 X106.77443 Y29.26818
G01 X106.84339 Y29.48743
G01 X106.86580 Y29.70580
G01 X106.84339 Y29.92419
G01 X106.77443 Y30.14344
G01 X106.65571 Y30.35238
G01 X106.50923 Y30.51588
G01 X106.30646 Y30.66320
G01 X106.09559 Y30.75469
G01 X105.87032 Y30.80033
G01 X105.65081 Y30.79977
G01 X105.41609 Y30.74821
G01 X105.20700 Y30.65273
G01 X105.02234 Y30.51588
G01 X104.87586 Y30.35238
G01 X104.75714 Y30.14344
G01 X104.68983 Y29.93452
G01 X104.66578 Y29.70580
G04 P0 ( dwell for no time -- G64 should not smooth over this point )
G00 Z5.00000 ( retract )

G00 X97.04534 Y47.50035 ( rapid move to begin. )
G01 F300.00000
G01 Z-0.14000
G04 P0 ( dwell for no time -- G64 should not smooth over this point )
G01 F600.00000
G01 X97.04534 Y47.50035
G01 X97.07976 Y47.84348
G01 X97.17936 Y48.15181
G01 X97.35035 Y48.45128
G01 X97.56678 Y48.69245
G01 X97.85411 Y48.90121
G01 X98.15037 Y49.03250
G01 X98.48799 Y49.10258
G01 X98.82238 Y49.10040
G01 X99.13922 Y49.03250
G01 X99.45357 Y48.89075
G01 X99.72281 Y48.69245
G01 X99.93922 Y48.45128
G01 X100.11021 Y48.15181
G01 X100.20983 Y47.84348
G01 X100.24425 Y47.52125
G01 X100.20983 Y47.17815
G01 X100.11021 Y46.86980
G01 X99.93922 Y46.57036
G01 X99.72281 Y46.32918
G01 X99.45357 Y46.13086
G01 X99.14900 Y45.99286
G01 X98.80158 Y45.91902
G01 X98.46721 Y45.92121
G01 X98.15037 Y45.98913
G01 X97.85411 Y46.12042
G01 X97.58230 Y46.31519
G01 X97.35035 Y46.57036
G01 X97.18786 Y46.85069
G01 X97.07976 Y47.17815
G01 X97.04534 Y47.50035
G04 P0 ( dwell for no time -- G64 should not smooth over this point )
G00 Z5.00000 ( retract )

G00 X105.44479 Y47.51082 ( rapid move to begin. )
G01 F300.00000
G01 Z-0.14000
G04 P0 ( dwell for no time -- G64 should not smooth over this point )
G01 F600.00000
G01 X105.44479 Y47.51082
G01 X105.48246 Y47.16804
G01 X105.58312 Y46.86004
G01 X105.74467 Y46.57914
G01 X105.96676 Y46.32918
G01 X106.23600 Y46.13086
G01 X106.54058 Y45.99286
G01 X106.88800 Y45.91902
G01 X107.22236 Y45.92121
G01 X107.53920 Y45.98913
G01 X107.85358 Y46.13086
G01 X108.11540 Y46.32177
G01 X108.34492 Y46.57914
G01 X108.50646 Y46.86004
G01 X108.60712 Y47.16804
G01 X108.64479 Y47.51082
G01 X108.60712 Y47.85359
G01 X108.50646 Y48.16159
G01 X108.34492 Y48.44249
G01 X108.12279 Y48.69245
G01 X107.83547 Y48.90121
G01 X107.53920 Y49.03250
G01 X107.20159 Y49.10258
G01 X106.86719 Y49.10040
G01 X106.55036 Y49.03250
G01 X106.24479 Y48.89646
G01 X105.96676 Y48.69245
G01 X105.75036 Y48.45128
G01 X105.58312 Y48.16159
G01 X105.48246 Y47.85359
G01 X105.44479 Y47.51082
G04 P0 ( dwell for no time -- G64 should not smooth over this point )
G00 Z5.00000 ( retract )

G00 X103.45735 Y62.58836 ( rapid move to begin. )
G01 F300.00000
G01 Z-0.14000
G04 P0 ( dwell for no time -- G64 should not smooth over this point )
G01 F600.00000
G01 X103.45735 Y62.58836
G01 X103.48353 Y62.83763
G01 X103.55663 Y63.05554
G01 X103.67345 Y63.25351
G01 X103.82887 Y63.42285
G01 X104.01612 Y63.55620
G01 X104.22699 Y63.64769
G01 X104.45226 Y63.69333
G01 X104.67177 Y63.69277
G01 X104.90647 Y63.64121
G01 X105.11556 Y63.54573
G01 X105.30024 Y63.40888
G01 X105.44670 Y63.24538
G01 X105.56544 Y63.03644
G01 X105.63275 Y62.82752
G01 X105.65625 Y62.60926
G01 X105.63275 Y62.37009
G01 X105.56544 Y62.16118
G01 X105.44670 Y61.95224
G01 X105.30024 Y61.78874
G01 X105.09745 Y61.64142
G01 X104.89671 Y61.55265
G01 X104.66131 Y61.50429
G01 X104.43146 Y61.50647
G01 X104.21686 Y61.55265
G01 X103.99801 Y61.65188
G01 X103.81335 Y61.78874
G01 X103.66687 Y61.95224
G01 X103.54813 Y62.16118
G01 X103.48082 Y62.37009
G01 X103.45735 Y62.58836
G04 P0 ( dwell for no time -- G64 should not smooth over this point )
G00 Z5.00000 ( retract )

G00 X112.95578 Y70.01580 ( rapid move to begin. )
G01 F300.00000
G01 Z-0.14000
G04 P0 ( dwell for no time -- G64 should not smooth over this point )
G01 F600.00000
G01 X112.95578 Y70.01580
G01 X112.95578 Y73.21582
G01 X112.98506 Y73.28653
G01 X113.05578 Y73.31582
G01 X116.25580 Y73.31582
G01 X116.32651 Y73.28653
G01 X116.35580 Y73.21582
G01 X116.35580 Y70.01580
G01 X116.32651 Y69.94509
G01 X116.25580 Y69.91580
G01 X113.05578 Y69.91580
G01 X112.98506 Y69.94509
G01 X112.95578 Y70.01580
G04 P0 ( dwell for no time -- G64 should not smooth over this point )
G00 Z5.00000 ( retract )

G00 X123.21578 Y60.18580 ( rapid move to begin. )
G01 F300.00000
G01 Z-0.14000
G04 P0 ( dwell for no time -- G64 should not smooth over this point )
G01 F600.00000
G01 X123.21578 Y60.18580
G01 X123.24910 Y59.86350
G01 X123.35411 Y59.53502
G01 X123.51565 Y59.25412
G01 X123.73777 Y59.00419
G01 X124.00701 Y58.80587
G01 X124.31158 Y58.66787
G01 X124.65901 Y58.59403
G01 X124.99337 Y58.59621
G01 X125.31021 Y58.66411
G01 X125.62456 Y58.80587
G01 X125.88638 Y58.99677
G01 X126.11592 Y59.25412
G01 X126.27747 Y59.53502
G01 X126.38247 Y59.86350
G01 X126.41580 Y60.18580
G01 X126.38247 Y60.50812
G01 X126.27747 Y60.83660
G01 X126.11592 Y61.11749
G01 X125.89380 Y61.36743
G01 X125.62456 Y61.56575
G01 X125.31999 Y61.70375
G01 X124.97257 Y61.77759
G01 X124.63820 Y61.77540
G01 X124.32136 Y61.70751
G01 X124.00701 Y61.56575
G01 X123.74519 Y61.37485
G01 X123.51565 Y61.11749
G01 X123.35411 Y60.83660
G01 X123.24910 Y60.50812
G01 X123.21578 Y60.18580
G04 P0 ( dwell for no time -- G64 should not smooth over this point )
G00 Z5.00000 ( retract )

G00 X123.21578 Y52.68581 ( rapid move to begin. )
G01 F300.00000
G01 Z-0.14000
G04 P0 ( dwell for no time -- G64 should not smooth over this point )
G01 F600.00000
G01 X123.21578 Y52.68581
G01 X123.24910 Y52.36349
G01 X123.35411 Y52.03504
G01 X123.51565 Y51.75414
G01 X123.73777 Y51.50418
G01 X124.02512 Y51.29542
G01 X124.32136 Y51.16412
G01 X124.65901 Y51.09402
G01 X124.99337 Y51.09620
G01 X125.31021 Y51.16412
G01 X125.60645 Y51.29542
G01 X125.88638 Y51.49679
G01 X126.11592 Y51.75414
G01 X126.27747 Y52.03504
G01 X126.38247 Y52.36349
G01 X126.41580 Y52.68581
G01 X126.38247 Y53.00814
G01 X126.27747 Y53.33658
G01 X126.11592 Y53.61748
G01 X125.89380 Y53.86744
G01 X125.60645 Y54.07621
G01 X125.31021 Y54.20750
G01 X124.97257 Y54.27760
G01 X124.63820 Y54.27539
G01 X124.32136 Y54.20750
G01 X124.01578 Y54.07146
G01 X123.74519 Y53.87484
G01 X123.51565 Y53.61748
G01 X123.35411 Y53.33658
G01 X123.24910 Y53.00814
G01 X123.21578 Y52.68581
G04 P0 ( dwell for no time -- G64 should not smooth over this point )
G00 Z5.00000 ( retract )

G00 X137.02700 Y37.23222 ( rapid move to begin. )
G01 F300.00000
G01 Z-0.14000
G04 P0 ( dwell for no time -- G64 should not smooth over this point )
G01 F600.00000
G01 X137.02700 Y37.23222
G01 X137.02919 Y37.44020
G01 X137.07079 Y37.63339
G01 X137.15067 Y37.81416
G01 X137.27775 Y37.99184
G01 X137.42426 Y38.12447
G01 X137.60328 Y38.23037
G01 X137.81049 Y38.29940
G01 X138.01745 Y38.32115
G01 X139.80815 Y38.32115
G01 X140.02519 Y38.29671
G01 X140.22230 Y38.23037
G01 X140.38440 Y38.13677
G01 X140.54782 Y37.99184
G01 X140.66443 Y37.83227
G01 X140.75102 Y37.64317
G01 X140.79857 Y37.41940
G01 X140.79639 Y37.21142
G01 X140.75478 Y37.01823
G01 X140.67490 Y36.83746
G01 X140.54782 Y36.65978
G01 X140.40132 Y36.52714
G01 X140.22230 Y36.42125
G01 X140.01508 Y36.35221
G01 X139.80815 Y36.33045
G01 X138.01745 Y36.33045
G01 X137.80038 Y36.35491
G01 X137.60328 Y36.42125
G01 X137.44117 Y36.51485
G01 X137.27775 Y36.65978
G01 X137.16114 Y36.81935
G01 X137.07455 Y37.00845
G01 X137.02700 Y37.23222
G04 P0 ( dwell for no time -- G64 should not smooth over this point )
G00 Z5.00000 ( retract )

G00 X137.02700 Y32.15222 ( rapid move to begin. )
G01 F300.00000
G01 Z-0.14000
G04 P0 ( dwell for no time -- G64 should not smooth over this point )
G01 F600.00000
G01 X137.02700 Y32.15222
G01 X137.02919 Y32.36020
G01 X137.07079 Y32.55339
G01 X137.15067 Y32.73416
G01 X137.27775 Y32.91184
G01 X137.42426 Y33.04447
G01 X137.60328 Y33.15037
G01 X137.80038 Y33.21671
G01 X138.01745 Y33.24115
G01 X139.80815 Y33.24115
G01 X140.02519 Y33.21671
G01 X140.22230 Y33.15037
G01 X140.38440 Y33.05677
G01 X140.54782 Y32.91184
G01 X140.66443 Y32.75227
G01 X140.75102 Y32.56317
G01 X140.79857 Y32.33940
G01 X140.79639 Y32.13142
G01 X140.75478 Y31.93823
G01 X140.67490 Y31.75746
G01 X140.54782 Y31.57978
G01 X140.40132 Y31.44714
G01 X140.22230 Y31.34125
G01 X140.02519 Y31.27491
G01 X139.80815 Y31.25045
G01 X138.01745 Y31.25045
G01 X137.80038 Y31.27491
G01 X137.60328 Y31.34125
G01 X137.44117 Y31.43485
G01 X137.27775 Y31.57978
G01 X137.16114 Y31.73935
G01 X137.07455 Y31.92845
G01 X137.02700 Y32.15222
G04 P0 ( dwell for no time -- G64 should not smooth over this point )
G00 Z5.00000 ( retract )

G00 X110.57278 Y7.50081 ( rapid move to begin. )
G01 F300.00000
G01 Z-0.14000
G04 P0 ( dwell for no time -- G64 should not smooth over this point )
G01 F600.00000
G01 X110.57278 Y7.50081
G01 X110.57278 Y11.31681
G01 X110.60209 Y11.38752
G01 X110.67278 Y11.41681
G01 X114.48879 Y11.41681
G01 X114.55951 Y11.38752
G01 X114.58879 Y11.31681
G01 X114.58879 Y7.50081
G01 X114.55951 Y7.43010
G01 X114.48879 Y7.40081
G01 X110.67278 Y7.40081
G01 X110.60209 Y7.43010
G01 X110.57278 Y7.50081
G04 P0 ( dwell for no time -- G64 should not smooth over this point )
G00 Z5.00000 ( retract )

G00 X86.18878 Y7.50081 ( rapid move to begin. )
G01 F300.00000
G01 Z-0.14000
G04 P0 ( dwell for no time -- G64 should not smooth over this point )
G01 F600.00000
G01 X86.18878 Y7.50081
G01 X86.18878 Y11.31681
G01 X86.21809 Y11.38752
G01 X86.28878 Y11.41681
G01 X90.10479 Y11.41681
G01 X90.17551 Y11.38752
G01 X90.20479 Y11.31681
G01 X90.20479 Y7.50081
G01 X90.17551 Y7.43010
G01 X90.10479 Y7.40081
G01 X86.28878 Y7.40081
G01 X86.21809 Y7.43010
G01 X86.18878 Y7.50081
G04 P0 ( dwell for no time -- G64 should not smooth over this point )
G00 Z5.00000 ( retract )

G00 X80.57278 Y7.50081 ( rapid move to begin. )
G01 F300.00000
G01 Z-0.14000
G04 P0 ( dwell for no time -- G64 should not smooth over this point )
G01 F600.00000
G01 X80.57278 Y7.50081
G01 X80.57278 Y11.31681
G01 X80.60207 Y11.38752
G01 X80.67278 Y11.41681
G01 X84.48878 Y11.41681
G01 X84.55949 Y11.38752
G01 X84.58878 Y11.31681
G01 X84.58878 Y7.50081
G01 X84.55949 Y7.43010
G01 X84.48878 Y7.40081
G01 X80.67278 Y7.40081
G01 X80.60207 Y7.43010
G01 X80.57278 Y7.50081
G04 P0 ( dwell for no time -- G64 should not smooth over this point )
G00 Z5.00000 ( retract )

G00 X84.34578 Y27.43580 ( rapid move to begin. )
G01 F300.00000
G01 Z-0.14000
G04 P0 ( dwell for no time -- G64 should not smooth over this point )
G01 F600.00000
G01 X84.34578 Y27.43580
G01 X84.37509 Y27.36511
G01 X84.44578 Y27.33580
G01 X86.44580 Y27.33580
G01 X86.51649 Y27.36511
G01 X86.54580 Y27.43580
G01 X86.54580 Y29.43582
G01 X86.51649 Y29.50651
G01 X86.44580 Y29.53582
G01 X84.44578 Y29.53582
G01 X84.37509 Y29.50651
G01 X84.34578 Y29.43582
G01 X84.34578 Y27.43580
G04 P0 ( dwell for no time -- G64 should not smooth over this point )
G00 Z5.00000 ( retract )

G00 X76.72578 Y28.43580 ( rapid move to begin. )
G01 F300.00000
G01 Z-0.14000
G04 P0 ( dwell for no time -- G64 should not smooth over this point )
G01 F600.00000
G01 X76.72578 Y28.43580
G01 X76.74983 Y28.66452
G01 X76.81714 Y28.87344
G01 X76.93586 Y29.08238
G01 X77.08234 Y29.24588
G01 X77.28511 Y29.39320
G01 X77.49598 Y29.48469
G01 X77.72125 Y29.53033
G01 X77.94076 Y29.52977
G01 X78.17548 Y29.47821
G01 X78.38457 Y29.38273
G01 X78.56923 Y29.24588
G01 X78.71571 Y29.08238
G01 X78.83443 Y28.87344
G01 X78.90339 Y28.65419
G01 X78.92580 Y28.43580
G01 X78.90339 Y28.21743
G01 X78.83443 Y27.99818
G01 X78.71571 Y27.78924
G01 X78.56923 Y27.62574
G01 X78.36646 Y27.47842
G01 X78.15559 Y27.38693
G01 X77.93032 Y27.34129
G01 X77.71081 Y27.34184
G01 X77.47609 Y27.39341
G01 X77.26700 Y27.48888
G01 X77.08234 Y27.62574
G01 X76.93586 Y27.78924
G01 X76.81714 Y27.99818
G01 X76.74983 Y28.20709
G01 X76.72578 Y28.43580
G04 P0 ( dwell for no time -- G64 should not smooth over this point )
G00 Z5.00000 ( retract )

G00 X71.41878 Y21.46881 ( rapid move to begin. )
G01 F300.00000
G01 Z-0.14000
G04 P0 ( dwell for no time -- G64 should not smooth over this point )
G01 F600.00000
G01 X71.41878 Y21.46881
G01 X71.41878 Y23.66880
G01 X71.44809 Y23.73951
G01 X71.51878 Y23.76880
G01 X73.71880 Y23.76880
G01 X73.78949 Y23.73951
G01 X73.81880 Y23.66880
G01 X73.81880 Y21.46881
G01 X73.78949 Y21.39809
G01 X73.71880 Y21.36881
G01 X71.51878 Y21.36881
G01 X71.44809 Y21.39809
G01 X71.41878 Y21.46881
G04 P0 ( dwell for no time -- G64 should not smooth over this point )
G00 Z5.00000 ( retract )

